; generated by PrusaSlicer 2.9.2 on 2026-01-20 at 09:50:49 UTC


;
;
; 

; external perimeters extrusion width = 0.65mm
; perimeters extrusion width = 0.65mm
; infill extrusion width = 0.65mm
; solid infill extrusion width = 0.65mm
; top infill extrusion width = 0.60mm
; first layer extrusion width = 0.65mm

; external perimeters extrusion width = 0.65mm
; perimeters extrusion width = 0.65mm
; infill extrusion width = 0.65mm
; solid infill extrusion width = 0.65mm
; top infill extrusion width = 0.60mm
; first layer extrusion width = 0.65mm

; external perimeters extrusion width = 0.65mm
; perimeters extrusion width = 0.65mm
; infill extrusion width = 0.65mm
; solid infill extrusion width = 0.65mm
; top infill extrusion width = 0.60mm
; first layer extrusion width = 0.65mm

; external perimeters extrusion width = 0.65mm
; perimeters extrusion width = 0.65mm
; infill extrusion width = 0.65mm
; solid infill extrusion width = 0.65mm
; top infill extrusion width = 0.60mm
; first layer extrusion width = 0.65mm

; external perimeters extrusion width = 0.65mm
; perimeters extrusion width = 0.65mm
; infill extrusion width = 0.65mm
; solid infill extrusion width = 0.65mm
; top infill extrusion width = 0.60mm
; first layer extrusion width = 0.65mm

; external perimeters extrusion width = 0.65mm
; perimeters extrusion width = 0.65mm
; infill extrusion width = 0.65mm
; solid infill extrusion width = 0.65mm
; top infill extrusion width = 0.60mm
; first layer extrusion width = 0.65mm

M73 P0 R67
M73 Q0 S68
M201 X1000 Y1000 Z200 E5000 ; sets maximum accelerations, mm/sec^2
M203 X200 Y200 Z12 E120 ; sets maximum feedrates, mm / sec
M204 S1250 T1250 ; sets acceleration (S) and retract acceleration (R), mm/sec^2
M205 X8.00 Y8.00 Z0.40 E4.50 ; sets the jerk limits, mm/sec
M205 S0 T0 ; sets the minimum extruding and travel feed rate, mm/sec

; printing object Gasket.STL id:0 copy 0
; stop printing object Gasket.STL id:0 copy 0
; printing object Gasket.STL id:1 copy 0
; stop printing object Gasket.STL id:1 copy 0
; printing object Gasket.STL id:2 copy 0
; stop printing object Gasket.STL id:2 copy 0
; printing object Gasket.STL id:3 copy 0
; stop printing object Gasket.STL id:3 copy 0
; printing object Gasket.STL id:4 copy 0
; stop printing object Gasket.STL id:4 copy 0
; printing object Gasket.STL id:5 copy 0
; stop printing object Gasket.STL id:5 copy 0

;TYPE:Custom
M862.3 P "MK3S" ; printer model check
M862.1 P0.6 ; nozzle diameter check
M115 U3.14.1 ; tell printer latest fw version
G90 ; use absolute coordinates
M83 ; extruder relative mode
M104 S215 ; set extruder temp
M140 S60 ; set bed temp
M190 S60 ; wait for bed temp
M109 S215 ; wait for extruder temp
G28 W ; home all without mesh bed level
G80 X43.3121 Y46.0005 W163.376 H117.999 ; mesh bed levelling

G1 Z0.2 F720
G1 Y-3 F1000 ; go outside print area
G92 E0
G1 X60 E9 F1000 ; intro line
G1 X100 E12.5 F1000 ; intro line

G92 E0
M221 S95
G21 ; set units to millimeters
G90 ; use absolute coordinates
M83 ; use relative distances for extrusion

M900 K0.04 ; Filament gcode LA 1.5
M900 K18 ; Filament gcode LA 1.0




M107
;LAYER_CHANGE
;Z:0.2
;HEIGHT:0.2
G1 E-.8 F2100
G1 Z.6 F720
G1 X51.62 Y61.628 F10800
G1 Z.2 F720
G1 E.8 F1500
M204 S800
;TYPE:Skirt/Brim
;WIDTH:0.65
G1 F1200
G1 X53.615 Y60.297 E.12106
G1 X73.47 Y48.842 E1.1571
G1 X75.54 Y47.837 E.11616
G1 X78.058 Y46.987 E.13415
G1 X80.984 Y46.429 E.15036
G1 X83.72 Y46.304 E.13825
G1 X186.708 Y46.305 E5.19872
G1 X189.864 Y46.637 E.16019
G1 X192.744 Y47.398 E.15037
G1 X194.877 Y48.266 E.11625
G1 X197.194 Y49.569 E.13419
G1 X199.832 Y51.608 E.1683
G1 X201.871 Y53.779 E.15035
G1 X203.22 Y55.645 E.11623
G1 X204.494 Y57.978 E.13418
M73 Q0 S67
G1 X205.552 Y60.763 E.15039
G1 X206.229 Y64.027 E.16827
G1 X206.384 Y66.42 E.12105
G1 X206.384 Y143.58 E3.89495
G1 X206.229 Y145.973 E.12105
G1 X205.503 Y149.39 E.17634
G1 X204.565 Y151.878 E.13422
G1 X203.408 Y154.053 E.12436
G1 X201.435 Y156.74 E.16827
G1 X199.567 Y158.631 E.13418
G1 X197.626 Y160.147 E.12432
G1 X195.197 Y161.578 E.14231
G1 X192.593 Y162.657 E.14228
G1 X189.864 Y163.363 E.14229
G1 X186.708 Y163.695 E.16019
G1 X83.72 Y163.696 E5.19872
G1 X80.984 Y163.571 E.13825
G1 X78.058 Y163.013 E.15036
G1 X75.87 Y162.296 E.11623
G1 X73.541 Y161.194 E.13006
G1 X53.615 Y149.703 E1.16111
G1 X51.49 Y148.277 E.12918
G1 X49.494 Y146.522 E.13416
G1 X47.338 Y143.979 E.16829
G1 X45.866 Y141.575 E.14229
G1 X44.742 Y138.99 E.14229
G1 X43.989 Y136.274 E.14227
G1 X43.621 Y133.479 E.14231
G1 X43.621 Y76.521 E2.87518
G1 X44.102 Y73.222 E.16829
G1 X44.864 Y70.675 E.1342
G1 X46.033 Y68.11 E.14229
G1 X47.338 Y66.021 E.12434
G1 X49.023 Y63.966 E.13415
G1 X51.553 Y61.688 E.17185
M204 S1000
;WIPE_START
G1 F8640
G1 X51.62 Y61.628 E-.02077
G1 X53.615 Y60.297 E-.55376
G1 X54.461 Y59.809 E-.22547
;WIPE_END
G1 Z.6 F720
G1 X53.116 Y63.943 F10800
G1 Z.2 F720
G1 E.8 F1500
M204 S800
G1 F1200
G1 X55.003 Y62.671 E.11487
G1 X74.712 Y51.297 E1.14867
G1 X76.797 Y50.296 E.11675
G1 X79.198 Y49.533 E.12717
G1 X81.599 Y49.131 E.12289
G1 X84.029 Y49.067 E.12271
G1 X86.403 Y49.333 E.12059
G1 X88.72 Y49.922 E.12068
G1 X91.011 Y50.86 E.12496
G1 X93.105 Y52.084 E.12244
G1 X94.993 Y53.571 E.12131
G1 X96.699 Y55.353 E.12453
G1 X98.119 Y57.329 E.12283
G1 X99.233 Y59.443 E.12062
G1 X100.035 Y61.643 E.1182
G1 X100.54 Y63.97 E.1202
G1 X100.722 Y66.317 E.11883
G1 X100.724 Y67.978 E.08385
G1 X102.624 Y65.695 E.14993
G1 X104.535 Y63.971 E.12992
G1 X106.438 Y62.683 E.116
G1 X126.186 Y51.286 E1.15096
G1 X128.33 Y50.265 E.11987
G1 X130.612 Y49.543 E.12082
G1 X133.013 Y49.135 E.12294
G1 X135.486 Y49.067 E.12488
G1 X137.858 Y49.334 E.12049
G1 X140.175 Y49.923 E.12068
G1 X142.466 Y50.86 E.12495
G1 X144.559 Y52.084 E.12239
G1 X146.446 Y53.57 E.12124
G1 X148.153 Y55.353 E.1246
G1 X149.574 Y57.329 E.12286
G1 X150.687 Y59.442 E.12055
G1 X151.489 Y61.643 E.11825
G1 X151.994 Y63.971 E.12025
G1 X152.175 Y66.294 E.11762
G1 X152.177 Y67.979 E.08506
G1 X154.078 Y65.695 E.15
G1 X155.988 Y63.971 E.12988
G1 X157.893 Y62.682 E.11611
G1 X177.619 Y51.297 E1.14969
G1 X179.784 Y50.265 E.12107
M73 P1 R67
M73 Q1 S67
G1 X182.066 Y49.543 E.12082
G1 X184.467 Y49.135 E.12294
G1 X186.898 Y49.065 E.12277
G1 X189.312 Y49.334 E.12261
G1 X191.628 Y49.922 E.12062
G1 X193.881 Y50.841 E.12283
G1 X195.977 Y52.06 E.1224
G1 X197.932 Y53.6 E.12563
G1 X199.634 Y55.386 E.12454
G1 X201.028 Y57.33 E.12075
G1 X202.159 Y59.482 E.12272
G1 X202.966 Y61.723 E.12023
G1 X203.454 Y64.012 E.11814
G1 X203.631 Y66.34 E.11785
G1 X203.634 Y89.074 E1.14759
G1 X203.456 Y91.481 E.12183
G1 X202.968 Y93.775 E.11839
G1 X202.145 Y96.054 E.12231
G1 X200.959 Y98.286 E.12759
G1 X199.576 Y100.189 E.11875
G1 X197.93 Y101.907 E.1201
G1 X195.906 Y103.494 E.12983
G1 X193.902 Y104.653 E.11686
G1 X193.092 Y105.001 E.0445
G1 X193.917 Y105.354 E.0453
G1 X196.012 Y106.578 E.12248
G1 X197.931 Y108.094 E.12345
G1 X199.606 Y109.846 E.12235
G1 X201.004 Y111.786 E.12071
G1 X202.141 Y113.936 E.12277
G1 X202.954 Y116.177 E.12034
G1 X203.454 Y118.507 E.12029
G1 X203.631 Y120.835 E.11785
G1 X203.634 Y143.57 E1.14764
G1 X203.45 Y146.018 E.12392
G1 X202.956 Y148.309 E.11831
G1 X202.163 Y150.508 E.118
G1 X200.936 Y152.818 E.13204
G1 X199.523 Y154.747 E.1207
G1 X197.93 Y156.402 E.11596
G1 X195.906 Y157.989 E.12983
G1 X193.868 Y159.165 E.11877
G1 X191.668 Y160.065 E.11999
G1 X189.214 Y160.684 E.12776
G1 X186.732 Y160.941 E.12596
G1 X184.347 Y160.853 E.12047
G1 X181.961 Y160.432 E.1223
G1 X179.733 Y159.715 E.11815
G1 X177.619 Y158.703 E.11831
G1 X157.891 Y147.317 E1.14981
G1 X155.952 Y146.001 E.11829
G1 X154.101 Y144.329 E.12591
G1 X152.18 Y142.024 E.15146
G1 X152.178 Y143.615 E.08031
G1 X151.99 Y146.058 E.12368
G1 X151.503 Y148.309 E.11626
G1 X150.726 Y150.469 E.11587
G1 X149.459 Y152.854 E.13633
G1 X148.122 Y154.685 E.11444
G1 X146.541 Y156.344 E.11568
G1 X144.342 Y158.062 E.14086
G1 X142.375 Y159.184 E.11431
G1 X140.253 Y160.052 E.11573
G1 X137.717 Y160.691 E.13202
G1 X135.279 Y160.941 E.12371
G1 X132.852 Y160.849 E.1226
G1 X130.587 Y160.451 E.11609
G1 X128.357 Y159.746 E.11806
G1 X126.186 Y158.714 E.12134
G1 X106.437 Y147.317 E1.151
G1 X104.498 Y146.001 E.11829
G1 X102.647 Y144.329 E.12591
G1 X100.726 Y142.024 E.15146
G1 X100.724 Y143.614 E.08026
G1 X100.542 Y146.016 E.1216
G1 X100.049 Y148.309 E.11839
G1 X99.255 Y150.509 E.11806
G1 X98.028 Y152.818 E.13199
G1 X96.641 Y154.717 E.11871
G1 X95.021 Y156.404 E.11806
G1 X92.962 Y158.013 E.13191
G1 X90.961 Y159.165 E.11655
G1 X88.801 Y160.051 E.11785
G1 X86.219 Y160.699 E.13438
G1 X83.824 Y160.941 E.12151
G1 X81.48 Y160.857 E.1184
G1 X79.011 Y160.421 E.12656
G1 X76.824 Y159.714 E.11602
G1 X74.732 Y158.713 E.11707
G1 X55.002 Y147.328 E1.14987
G1 X53.01 Y145.974 E.12158
M73 P1 R66
G1 X51.192 Y144.328 E.1238
G1 X49.605 Y142.417 E.12539
G1 X48.289 Y140.271 E.12707
G1 X47.34 Y138.084 E.12034
G1 X46.7 Y135.796 E.11993
G1 X46.379 Y133.479 E.11808
G1 X46.371 Y131.128 E.11868
G1 X46.746 Y128.482 E.1349
G1 X47.404 Y126.234 E.11824
G1 X48.356 Y124.096 E.11814
G1 X49.615 Y122.063 E.12071
G1 X51.202 Y120.157 E.1252
G1 X53.081 Y118.465 E.12764
G1 X54.967 Y117.189 E.11495
G1 X74.712 Y105.792 E1.15083
G1 X76.36 Y105 E.0923
G1 X74.711 Y104.207 E.09236
G1 X55.002 Y92.833 E1.14867
G1 X53.009 Y91.478 E.12165
G1 X51.132 Y89.77 E.1281
G1 X49.604 Y87.921 E.12108
G1 X48.328 Y85.851 E.12275
G1 X47.354 Y83.628 E.12251
G1 X46.7 Y81.301 E.12202
G1 X46.379 Y78.984 E.11808
G1 X46.371 Y76.633 E.11868
G1 X46.728 Y74.073 E.13048
G1 X47.405 Y71.738 E.12272
G1 X48.357 Y69.6 E.11814
G1 X49.59 Y67.603 E.11847
G1 X51.141 Y65.726 E.12291
G1 X53.049 Y64.004 E.12974
M204 S1000
G1 X53.455 Y64.455 F10800
M204 S800
G1 F1200
G1 X53.506 Y64.409 E.00347
G1 X55.315 Y63.192 E.11006
G1 X75.005 Y51.829 E1.14756
G1 X77.041 Y50.853 E.11397
G1 X79.32 Y50.128 E.12072
G1 X81.637 Y49.737 E.11861
G1 X83.984 Y49.672 E.11852
G1 X86.274 Y49.927 E.11631
G1 X88.55 Y50.506 E.11855
G1 X90.724 Y51.395 E.11856
G1 X92.746 Y52.574 E.11815
G1 X94.6 Y54.035 E.11915
G1 X96.246 Y55.757 E.12025
G1 X97.592 Y57.63 E.11643
G1 X98.687 Y59.707 E.11852
G1 X99.457 Y61.83 E.114
G1 X99.937 Y64.037 E.11401
G1 X100.116 Y66.352 E.11721
G1 X100.116 Y69.413 E.15452
G1 X100.556 Y69.539 E.0231
G1 X101.573 Y67.908 E.09703
G1 X103.047 Y66.131 E.11654
G1 X104.925 Y64.436 E.1277
G1 X106.769 Y63.192 E.11228
G1 X126.479 Y51.818 E1.14872
G1 X128.534 Y50.837 E.11495
G1 X130.775 Y50.128 E.11865
G1 X133.092 Y49.737 E.11861
G1 X135.439 Y49.673 E.11852
G1 X137.769 Y49.935 E.11836
G1 X140.004 Y50.505 E.11643
G1 X142.178 Y51.395 E.11858
G1 X144.201 Y52.574 E.1182
G1 X146.023 Y54.006 E.11698
G1 X147.673 Y55.725 E.12028
G1 X149.068 Y57.667 E.1207
G1 X150.124 Y59.669 E.11426
G1 X150.911 Y61.831 E.11614
G1 X151.397 Y64.079 E.1161
G1 X151.569 Y66.328 E.11386
G1 X151.57 Y69.413 E.15573
G1 X152.01 Y69.539 E.0231
G1 X153.027 Y67.908 E.09703
G1 X154.501 Y66.131 E.11654
G1 X156.379 Y64.436 E.1277
G1 X158.205 Y63.203 E.11122
G1 X177.913 Y51.829 E1.14863
G1 X179.988 Y50.837 E.1161
G1 X182.229 Y50.128 E.11865
G1 X184.546 Y49.737 E.11861
G1 X186.893 Y49.673 E.11852
G1 X189.223 Y49.935 E.11836
G1 X191.457 Y50.505 E.11638
G1 X193.631 Y51.395 E.11858
G1 X195.653 Y52.573 E.11813
G1 X197.508 Y54.034 E.11919
G1 X199.153 Y55.757 E.12025
G1 X200.522 Y57.667 E.11862
G1 X201.611 Y59.745 E.11843
G1 X202.376 Y61.87 E.11401
G1 X202.851 Y64.079 E.11406
G1 X203.024 Y66.352 E.11507
G1 X203.027 Y89.063 E1.14643
G1 X202.852 Y91.415 E.11905
G1 X202.378 Y93.627 E.11419
G1 X201.599 Y95.788 E.11596
G1 X200.433 Y97.982 E.12542
G1 X199.123 Y99.785 E.1125
G1 X197.539 Y101.443 E.11575
G1 X195.548 Y103.002 E.12765
G1 X193.618 Y104.117 E.11251
M73 Q1 S66
G1 X191.472 Y105.002 E.11718
G1 X193.631 Y105.89 E.11784
G1 X195.653 Y107.068 E.11813
G1 X197.508 Y108.529 E.11919
G1 X199.126 Y110.219 E.1181
G1 X200.478 Y112.09 E.11652
G1 X201.577 Y114.164 E.11848
G1 X202.365 Y116.326 E.11616
G1 X202.851 Y118.574 E.1161
G1 X203.024 Y120.847 E.11507
G1 X203.027 Y143.558 E1.14643
G1 X202.846 Y145.952 E.12119
G1 X202.378 Y148.123 E.11211
G1 X201.616 Y150.243 E.11372
G1 X200.41 Y152.514 E.1298
G1 X199.071 Y154.341 E.11434
G1 X197.539 Y155.938 E.11171
G1 X195.549 Y157.497 E.12761
G1 X193.583 Y158.629 E.11452
G1 X191.498 Y159.481 E.1137
G1 X189.087 Y160.09 E.12553
G1 X186.692 Y160.335 E.12153
G1 X184.391 Y160.247 E.11624
G1 X182.126 Y159.847 E.1161
G1 X179.976 Y159.158 E.11397
G1 X177.912 Y158.171 E.11549
G1 X158.204 Y146.797 E1.14863
G1 X156.343 Y145.536 E.11348
G1 X154.524 Y143.893 E.12373
G1 X153.018 Y142.081 E.11894
G1 X152.013 Y140.456 E.09645
G1 X151.572 Y140.582 E.02315
G1 X151.572 Y143.581 E.15139
G1 X151.392 Y145.951 E.11998
G1 X150.924 Y148.123 E.11216
G1 X150.162 Y150.244 E.11377
G1 X148.956 Y152.513 E.12971
G1 X147.643 Y154.31 E.11234
G1 X146.117 Y155.908 E.11154
G1 X144.022 Y157.546 E.13424
M73 P2 R66
G1 X142.092 Y158.647 E.11216
M73 Q2 S66
G1 X140.044 Y159.481 E.11162
G1 X137.633 Y160.09 E.12553
G1 X135.238 Y160.335 E.12153
G1 X132.937 Y160.247 E.11624
G1 X130.712 Y159.857 E.11403
G1 X128.561 Y159.173 E.11394
G1 X126.479 Y158.182 E.1164
G1 X106.768 Y146.808 E1.14876
G1 X104.889 Y145.536 E.11454
G1 X103.07 Y143.893 E.12373
G1 X101.564 Y142.081 E.11894
G1 X100.559 Y140.456 E.09645
G1 X100.118 Y140.582 E.02315
G1 X100.118 Y143.581 E.15139
G1 X99.944 Y145.91 E.11789
G1 X99.471 Y148.122 E.11418
G1 X98.691 Y150.283 E.11597
G1 X97.525 Y152.477 E.12542
G1 X96.163 Y154.342 E.11658
G1 X94.598 Y155.967 E.11388
G1 X92.64 Y157.498 E.12547
G1 X90.711 Y158.612 E.11244
G1 X88.631 Y159.468 E.11354
G1 X86.135 Y160.097 E.12993
G1 X83.784 Y160.335 E.11928
G1 X81.524 Y160.251 E.11416
G1 X79.178 Y159.837 E.12025
G1 X77.03 Y159.143 E.11395
G1 X75.025 Y158.182 E.11224
G1 X55.315 Y146.808 E1.14872
G1 X53.401 Y145.509 E.11677
G1 X51.616 Y143.893 E.12154
G1 X50.086 Y142.046 E.12107
G1 X48.837 Y140.009 E.12062
G1 X47.919 Y137.899 E.11615
G1 X47.298 Y135.691 E.11578
G1 X46.986 Y133.456 E.11391
G1 X46.976 Y131.191 E.11434
G1 X47.335 Y128.631 E.13049
G1 X47.967 Y126.462 E.11404
G1 X48.903 Y124.362 E.11606
G1 X50.12 Y122.402 E.11646
G1 X51.624 Y120.594 E.11872
G1 X53.472 Y118.931 E.1255
G1 X55.297 Y117.698 E.11118
G1 X75.005 Y106.324 E1.14863
G1 X77.428 Y105.219 E.13443
G1 X77.428 Y104.782 E.02206
G1 X75.004 Y103.676 E.1345
G1 X55.315 Y92.313 E1.14752
G1 X53.401 Y91.014 E.11677
G1 X51.586 Y89.366 E.12375
G1 X50.086 Y87.551 E.11886
G1 X48.856 Y85.551 E.11852
G1 X47.933 Y83.443 E.11616
G1 X47.298 Y81.196 E.11787
G1 X46.986 Y78.961 E.11391
G1 X46.976 Y76.695 E.11439
G1 X47.326 Y74.179 E.12823
G1 X47.982 Y71.928 E.11835
G1 X48.903 Y69.866 E.114
G1 X50.095 Y67.94 E.11434
G1 X51.594 Y66.13 E.11863
G1 X53.388 Y64.515 E.12185
M204 S1000
G1 X53.794 Y64.966 F10800
M204 S800
G1 F1200
G1 X53.895 Y64.875 E.00686
G1 X55.627 Y63.713 E.10528
G1 X75.298 Y52.36 E1.14648
G1 X77.284 Y51.41 E.11113
G1 X79.443 Y50.723 E.11437
G1 X81.676 Y50.343 E.11434
G1 X83.938 Y50.278 E.11423
G1 X86.145 Y50.521 E.11208
G1 X88.38 Y51.089 E.11641
G1 X90.437 Y51.93 E.11218
G1 X92.387 Y53.064 E.11387
G1 X94.208 Y54.498 E.117
G1 X95.765 Y56.129 E.11382
G1 X97.065 Y57.932 E.1122
G1 X98.14 Y59.972 E.1164
G1 X98.868 Y61.98 E.10782
G1 X99.333 Y64.105 E.10981
G1 X99.509 Y66.364 E.11438
G1 X99.51 Y72.066 E.28783
G1 X99.99 Y72.168 E.02477
G1 X100.902 Y70.133 E.11257
G1 X102.054 Y68.279 E.11018
G1 X103.471 Y66.567 E.11218
G1 X105.316 Y64.901 E.12548
G1 X107.081 Y63.712 E.10743
G1 X126.752 Y52.36 E1.14646
G1 X128.738 Y51.41 E.11113
G1 X130.937 Y50.713 E.11645
G1 X133.171 Y50.339 E.11434
G1 X135.434 Y50.28 E.11427
G1 X137.64 Y50.528 E.11206
G1 X139.794 Y51.075 E.11218
G1 X141.929 Y51.949 E.11645
G1 X143.876 Y53.087 E.11384
G1 X145.63 Y54.47 E.11275
G1 X147.219 Y56.129 E.11596
G1 X148.541 Y57.968 E.11433
G1 X149.577 Y59.934 E.11218
G1 X150.333 Y62.019 E.11195
G1 X150.793 Y64.146 E.10985
G1 X150.962 Y66.34 E.11108
G1 X150.963 Y72.066 E.28904
G1 X151.444 Y72.168 E.02482
G1 X152.356 Y70.133 E.11257
G1 X153.508 Y68.279 E.11018
G1 X154.924 Y66.567 E.11215
G1 X156.77 Y64.901 E.12552
G1 X158.535 Y63.712 E.10743
G1 X178.206 Y52.36 E1.14646
G1 X180.191 Y51.41 E.11108
G1 X182.391 Y50.713 E.11649
