; generated by PrusaSlicer 2.9.2 on 2026-01-14 at 17:09:57 UTC


;
;
; 

; external perimeters extrusion width = 0.60mm
; perimeters extrusion width = 0.50mm
; infill extrusion width = 0.50mm
; solid infill extrusion width = 0.50mm
; top infill extrusion width = 0.45mm
; first layer extrusion width = 0.42mm

; external perimeters extrusion width = 0.60mm
; perimeters extrusion width = 0.50mm
; infill extrusion width = 0.50mm
; solid infill extrusion width = 0.50mm
; top infill extrusion width = 0.45mm
; first layer extrusion width = 0.42mm

M73 P0 R6
M73 Q0 S7
M201 X1000 Y1000 Z200 E5000 ; sets maximum accelerations, mm/sec^2
M203 X200 Y200 Z12 E120 ; sets maximum feedrates, mm / sec
M204 S1250 T1250 ; sets acceleration (S) and retract acceleration (R), mm/sec^2
M205 X8.00 Y8.00 Z0.40 E4.50 ; sets the jerk limits, mm/sec
M205 S0 T0 ; sets the minimum extruding and travel feed rate, mm/sec

; printing object 05_bending_testing.STL id:0 copy 0
; stop printing object 05_bending_testing.STL id:0 copy 0
; printing object 05_bending_testing.STL id:1 copy 0
; stop printing object 05_bending_testing.STL id:1 copy 0

;TYPE:Custom
M862.3 P "MK3S" ; printer model check
M862.1 P0.4 ; nozzle diameter check
M115 U3.14.1 ; tell printer latest fw version
G90 ; use absolute coordinates
M83 ; extruder relative mode
M104 S235 ; set extruder temp
M140 S50 ; set bed temp
M190 S50 ; wait for bed temp
M109 S235 ; wait for extruder temp
G28 W ; home all without mesh bed level
G80 X102.024 Y93.8915 W45.1441 H21.1841 ; mesh bed levelling

G1 Z0.2 F720
G1 Y-3 F1000 ; go outside print area
G92 E0
G1 X60 E9 F1000 ; intro line
G1 X100 E12.5 F1000 ; intro line
M73 Q0 S6

G92 E0
M221 S95

; Don't change E values below. Excessive value can damage the printer.

M907 E538 ; set extruder motor current
G21 ; set units to millimeters
G90 ; use absolute coordinates
M83 ; use relative distances for extrusion
M900 K0 ; Filament gcode
M107
;LAYER_CHANGE
;Z:0.2
;HEIGHT:0.2
G1 E-2 F2700
M73 P1 R6
M73 Q1 S6
G1 Z.2 F720
G1 X104.781 Y97.491 F10800
G1 Z.2 F720
G1 E2 F1200
M204 S800
;TYPE:Skirt/Brim
;WIDTH:0.42
G1 X105.418 Y96.836 E.03266
G1 X106.309 Y96.089 E.04156
G1 X107.497 Y95.326 E.05047
G1 X108.317 Y94.923 E.03266
G1 X109.407 Y94.518 E.04156
G1 X110.783 Y94.198 E.0505
G1 X111.94 Y94.08 E.04157
G1 X112.893 Y94.08 E.03406
G1 X137.291 Y94.524 E.87222
G1 X138.409 Y94.642 E.04018
M73 P2 R6
M73 Q2 S6
G1 X139.544 Y94.891 E.04153
G1 X140.875 Y95.366 E.05051
G1 X141.694 Y95.769 E.03263
G1 X142.68 Y96.386 E.04158
G1 X143.59 Y97.111 E.04159
G1 X144.41 Y97.935 E.04155
G1 X145.132 Y98.847 E.04158
G1 X145.65 Y99.679 E.03503
G1 X146.331 Y101.12 E.05697
G1 X146.613 Y101.989 E.03266
G1 X146.858 Y103.126 E.04157
G1 X146.979 Y104.533 E.05048
G1 X146.932 Y105.695 E.04157
G1 X146.802 Y106.599 E.03264
G1 X146.52 Y107.727 E.04156
G1 X146.111 Y108.816 E.04158
G1 X145.581 Y109.851 E.04156
G1 X144.937 Y110.819 E.04156
G1 X144.186 Y111.708 E.0416
G1 X143.145 Y112.663 E.0505
G1 X142.196 Y113.335 E.04156
G1 X141.177 Y113.894 E.04154
G1 X140.1 Y114.334 E.04158
G1 X139.223 Y114.591 E.03267
G1 X138.08 Y114.803 E.04155
G1 X136.755 Y114.887 E.04746
G1 X112.271 Y114.441 E.8753
G1 X111.36 Y114.388 E.03262
G1 X110.211 Y114.204 E.04159
G1 X109.091 Y113.89 E.04158
G1 X108.015 Y113.451 E.04154
G1 X106.785 Y112.756 E.0505
G1 X106.046 Y112.219 E.03265
G1 X105.18 Y111.443 E.04156
G1 X104.255 Y110.376 E.05048
G1 X103.739 Y109.622 E.03266
G1 X103.184 Y108.6 E.04157
G1 X102.671 Y107.284 E.05049
G1 X102.389 Y106.156 E.04156
M73 Q3 S6
G1 X102.259 Y105.252 E.03264
G1 X102.219 Y103.84 E.05049
G1 X102.297 Y102.93 E.03265
G1 X102.514 Y101.787 E.04159
G1 X102.951 Y100.444 E.05048
M73 P3 R6
G1 X103.33 Y99.613 E.03265
G1 X103.918 Y98.61 E.04156
G1 X104.744 Y97.539 E.04834
M204 S1000
G1 E-2 F2700
; printing object 05_bending_testing.STL id:0 copy 0
G1 X117.226 Y99.498 F10800
G1 E2 F1200
M204 S800
;TYPE:Perimeter
;WIDTH:0.44992
G1 X117.528 Y99.81 E.01675
G1 X118 Y100.421 E.02979
;WIDTH:0.449781
G1 X118.277 Y100.848 E.01963
;WIDTH:0.439773
G1 X118.661 Y101.62 E.03244
;WIDTH:0.441914
G1 X118.952 Y102.46 E.03362
;WIDTH:0.444971
G1 X119.126 Y103.299 E.03266
;WIDTH:0.447605
G1 X119.187 Y104.069 E.02963
;WIDTH:0.449266
G1 X119.161 Y104.841 E.02975
;WIDTH:0.44996
G1 X119.05 Y105.605 E.02979
G1 X118.855 Y106.351 E.02975
;WIDTH:0.449682
G1 X118.68 Y106.845 E.02021
;WIDTH:0.440018
G1 X118.301 Y107.621 E.03251
;WIDTH:0.442431
G1 X117.826 Y108.343 E.03273
;WIDTH:0.445495
G1 X117.263 Y109 E.03302
;WIDTH:0.4479
G1 X116.691 Y109.518 E.02962
;WIDTH:0.449424
G1 X116.064 Y109.97 E.02978
;WIDTH:0.44998
G1 X115.392 Y110.348 E.02975
G1 X114.681 Y110.65 E.02981
;WIDTH:0.449564
G1 X114.192 Y110.81 E.01983
;WIDTH:0.440286
G1 X113.321 Y110.989 E.03349
;WIDTH:0.442704
G1 X112.434 Y111.053 E.0337
;WIDTH:0.445823
G1 X111.612 Y111.006 E.03144
;WIDTH:0.448179
G1 X110.852 Y110.87 E.02966
;WIDTH:0.449565
G1 X110.112 Y110.65 E.02976
;WIDTH:0.449981
G1 X109.401 Y110.348 E.02981
G1 X108.728 Y109.97 E.02978
;WIDTH:0.449427
G1 X108.309 Y109.684 E.01955
;WIDTH:0.440607
G1 X107.619 Y109.09 E.03432
;WIDTH:0.443134
G1 X107.026 Y108.424 E.03383
;WIDTH:0.44622
G1 X106.573 Y107.757 E.03082
;WIDTH:0.448808
G1 X106.216 Y107.071 E.02975
;WIDTH:0.449683
G1 X105.938 Y106.351 E.02976
;WIDTH:0.449961
G1 X105.743 Y105.605 E.02975
G1 X105.654 Y105.105 E.0196
;WIDTH:0.439151
G1 X105.601 Y104.293 E.03056
;WIDTH:0.440878
G1 X105.653 Y103.406 E.03352
;WIDTH:0.443576
G1 X105.82 Y102.533 E.03376
;WIDTH:0.446597
G1 X106.068 Y101.782 E.03026
;WIDTH:0.448676
G1 X106.393 Y101.081 E.02972
;WIDTH:0.449783
G1 X106.793 Y100.421 E.02976
;WIDTH:0.450767
G1 X107.266 Y99.811 E.02984
G1 X107.585 Y99.456 E.01845
;WIDTH:0.439339
G1 X108.229 Y98.887 E.03229
;WIDTH:0.441204
G1 X108.965 Y98.388 E.03357
;WIDTH:0.444041
G1 X109.76 Y97.989 E.03382
;WIDTH:0.446952
G1 X110.49 Y97.734 E.02961
;WIDTH:0.448891
G1 X111.243 Y97.563 E.02972
;WIDTH:0.449861
G1 X112.011 Y97.477 E.02981
;WIDTH:0.450739
G1 X112.783 Y97.479 E.02984
G1 X113.321 Y97.523 E.02087
;WIDTH:0.439547
G1 X114.119 Y97.681 E.03058
;WIDTH:0.441551
G1 X114.963 Y97.961 E.0336
;WIDTH:0.444513
G1 X115.749 Y98.342 E.03325
;WIDTH:0.447288
G1 X116.396 Y98.764 E.02961
;WIDTH:0.449089
G1 X116.991 Y99.256 E.02973
;WIDTH:0.44992
G1 X117.184 Y99.455 E.0107
M204 S1000
G1 X116.932 Y99.756 F10800
M204 S800
;TYPE:External perimeter
;WIDTH:0.419999
G1 F1200
G1 X117.233 Y100.069 E.01552
G1 X117.674 Y100.639 E.02576
G1 X117.954 Y101.061 E.0181
G1 X118.314 Y101.791 E.02909
G1 X118.585 Y102.585 E.02999
G1 X118.744 Y103.375 E.0288
G1 X118.797 Y104.095 E.02581
G1 X118.771 Y104.815 E.02575
G1 X118.666 Y105.528 E.02576
G1 X118.483 Y106.225 E.02576
G1 X118.32 Y106.705 E.01812
G1 X117.954 Y107.45 E.02967
G1 X117.503 Y108.128 E.02911
G1 X116.968 Y108.744 E.02916
G1 X116.433 Y109.224 E.02569
G1 X115.847 Y109.644 E.02577
G1 X115.218 Y109.997 E.02578
G1 X114.555 Y110.278 E.02574
G1 X114.067 Y110.444 E.01842
G1 X113.245 Y110.609 E.02997
G1 X112.409 Y110.666 E.02995
G1 X111.637 Y110.617 E.02765
G1 X110.928 Y110.486 E.02577
G1 X110.238 Y110.278 E.02576
G1 X109.574 Y109.997 E.02577
G1 X108.946 Y109.644 E.02575
G1 X108.524 Y109.362 E.01814
G1 X107.873 Y108.797 E.03081
G1 X107.318 Y108.168 E.02998
G1 X106.897 Y107.54 E.02702
G1 X106.567 Y106.896 E.02587
G1 X106.309 Y106.225 E.0257
M73 Q4 S6
G1 X106.127 Y105.528 E.02575
G1 X106.022 Y104.815 E.02576
G1 X105.986 Y104.268 E.01959
G1 X106.04 Y103.431 E.02998
G1 X106.202 Y102.608 E.02998
G1 X106.438 Y101.908 E.0264
M73 P4 R6
G1 X106.744 Y101.255 E.02578
G1 X107.119 Y100.639 E.02578
G1 X107.562 Y100.068 E.02583
G1 X107.862 Y99.725 E.01629
G1 X108.484 Y99.178 E.02961
G1 X109.181 Y98.71 E.03001
G1 X109.932 Y98.338 E.02996
G1 X110.616 Y98.104 E.02584
G1 X111.32 Y97.947 E.02578
G1 X112.036 Y97.868 E.02575
G1 X112.759 Y97.87 E.02584
G1 X113.473 Y97.947 E.02567
G1 X114.044 Y98.061 E.02081
G1 X114.838 Y98.329 E.02995
G1 X115.577 Y98.691 E.02941
G1 X116.179 Y99.089 E.0258
G1 X116.733 Y99.55 E.02576
G1 X116.89 Y99.713 E.00809
M204 S1000
G1 X117.168 Y100.001 F10800
G1 E-2 F2700
G1 X105.337 Y105.639 F10800
G1 E2 F1200
M204 S800
;TYPE:Perimeter
;WIDTH:0.449961
G1 X105.225 Y104.86 E.03037
;WIDTH:0.449267
G1 X105.203 Y104.039 E.03163
;WIDTH:0.447605
G1 X105.273 Y103.22 E.03153
;WIDTH:0.444971
G1 X105.462 Y102.334 E.03453
;WIDTH:0.441917
G1 X105.773 Y101.45 E.03544
;WIDTH:0.439775
G1 X106.196 Y100.613 E.03528
;WIDTH:0.439343
G1 X106.647 Y99.937 E.03054
;WIDTH:0.450767
G1 X106.966 Y99.535 E.01984
G1 X107.539 Y98.946 E.03177
;WIDTH:0.44909
G1 X108.175 Y98.426 E.03163
;WIDTH:0.447289
G1 X108.867 Y97.982 E.03152
;WIDTH:0.444514
G1 X109.699 Y97.585 E.03509
;WIDTH:0.441552
G1 X110.59 Y97.294 E.03542
;WIDTH:0.439547
G1 X111.474 Y97.123 E.03385
;WIDTH:0.449861
G1 X111.997 Y97.071 E.02027
;WIDTH:0.450739
G1 X112.819 Y97.072 E.03178
G1 X113.635 Y97.166 E.03175
;WIDTH:0.448891
G1 X114.435 Y97.353 E.03162
;WIDTH:0.446952
G1 X115.21 Y97.629 E.03151
;WIDTH:0.444041
G1 X116.046 Y98.055 E.03568
;WIDTH:0.441203
G1 X116.82 Y98.584 E.03539
;WIDTH:0.439338
G1 X117.491 Y99.18 E.03372
;WIDTH:0.44992
G1 X117.842 Y99.552 E.01973
G1 X118.343 Y100.203 E.03169
;WIDTH:0.449781
G1 X118.767 Y100.907 E.0317
;WIDTH:0.448674
G1 X119.108 Y101.655 E.03162
;WIDTH:0.446594
G1 X119.365 Y102.454 E.03212
;WIDTH:0.443575
G1 X119.537 Y103.376 E.03562
;WIDTH:0.447605
G1 X119.591 Y104.062 E.0264
G1 X119.588 Y104.312 E.00959
;WIDTH:0.439151
G1 X119.533 Y105.146 E.03139
;WIDTH:0.44996
G1 X119.447 Y105.696 E.02148
G1 X119.237 Y106.49 E.03169
;WIDTH:0.449682
G1 X118.938 Y107.256 E.03171
;WIDTH:0.448436
G1 X118.554 Y107.982 E.03157
;WIDTH:0.446217
G1 X118.085 Y108.666 E.03171
;WIDTH:0.444644
G1 X117.441 Y109.384 E.03673
;WIDTH:0.440571
G1 X116.73 Y109.995 E.03534
;WIDTH:0.438982
G1 X116.034 Y110.459 E.0314
;WIDTH:0.44998
G1 X115.561 Y110.718 E.02081
G1 X114.804 Y111.037 E.0317
;WIDTH:0.449564
G1 X114.015 Y111.268 E.03169
;WIDTH:0.448177
G1 X113.205 Y111.408 E.03158
;WIDTH:0.445822
G1 X112.334 Y111.452 E.03331
;WIDTH:0.442706
G1 X111.399 Y111.38 E.03554
;WIDTH:0.440287
G1 X110.482 Y111.187 E.0353
;WIDTH:0.438836
G1 X109.69 Y110.918 E.03139
;WIDTH:0.449981
G1 X109.211 Y110.708 E.02018
G1 X108.496 Y110.303 E.03171
;WIDTH:0.449427
G1 X107.832 Y109.819 E.03166
;WIDTH:0.449127
G1 X107.226 Y109.264 E.03164
;WIDTH:0.445408
G1 X106.65 Y108.587 E.03391
;WIDTH:0.442302
G1 X106.151 Y107.825 E.03448
;WIDTH:0.44124
G1 X105.732 Y106.957 E.03639
;WIDTH:0.438706
G1 X105.463 Y106.165 E.03138
;WIDTH:0.449961
G1 X105.348 Y105.698 E.01856
M204 S1000
G1 X104.955 Y105.74 F10800
M204 S800
;TYPE:External perimeter
;WIDTH:0.419999
G1 F1200
G1 X104.835 Y104.905 E.03015
G1 X104.81 Y104.039 E.03097
G1 X104.884 Y103.176 E.03096
G1 X105.056 Y102.326 E.031
G1 X105.324 Y101.502 E.03097
G1 X105.684 Y100.714 E.03097
G1 X106.132 Y99.972 E.03098
G1 X106.661 Y99.286 E.03096
G1 X107.265 Y98.664 E.03099
G1 X107.936 Y98.116 E.03097
G1 X108.664 Y97.647 E.03095
G1 X109.442 Y97.265 E.03098
G1 X110.258 Y96.974 E.03097
G1 X111.102 Y96.777 E.03098
G1 X111.963 Y96.679 E.03097
M73 Q5 S6
G1 X112.83 Y96.679 E.03099
G1 X113.691 Y96.777 E.03097
G1 X114.535 Y96.974 E.03098
G1 X115.351 Y97.265 E.03097
M73 P5 R6
G1 X116.128 Y97.647 E.03095
G1 X116.857 Y98.116 E.03098
G1 X117.502 Y98.643 E.02977
G1 X117.796 Y98.94 E.01494
G1 X118.376 Y99.602 E.03146
G1 X118.679 Y100.001 E.01791
G1 X119.123 Y100.745 E.03097
G1 X119.479 Y101.534 E.03094
G1 X119.747 Y102.376 E.03158
G1 X119.923 Y103.343 E.03513
G1 X119.982 Y104.073 E.02618
G1 X119.958 Y104.905 E.02975
G1 X119.835 Y105.763 E.03098
G1 X119.614 Y106.601 E.03098
G1 X119.3 Y107.408 E.03095
G1 X118.896 Y108.175 E.03099
G1 X118.406 Y108.89 E.03098
G1 X117.839 Y109.545 E.03097
G1 X117.201 Y110.131 E.03096
G1 X116.499 Y110.64 E.03099
G1 X115.745 Y111.066 E.03095
G1 X114.947 Y111.404 E.03098
G1 X114.115 Y111.648 E.03099
G1 X113.262 Y111.795 E.03094
G1 X112.396 Y111.845 E.03101
G1 X111.531 Y111.795 E.03097
G1 X110.677 Y111.648 E.03097
G1 X109.846 Y111.404 E.03096
G1 X109.048 Y111.066 E.03098
G1 X108.293 Y110.64 E.03099
G1 X107.592 Y110.131 E.03097
G1 X106.954 Y109.545 E.03096
G1 X106.386 Y108.89 E.03099
G1 X105.897 Y108.175 E.03096
G1 X105.493 Y107.408 E.03099
G1 X105.179 Y106.601 E.03095
G1 X104.968 Y105.798 E.02968
M204 S1000
G1 X104.907 Y105.403 F10800
G1 E-2 F2700
; stop printing object 05_bending_testing.STL id:0 copy 0
; printing object 05_bending_testing.STL id:1 copy 0
G1 X141.624 Y99.941 F10800
G1 E2 F1200
M204 S800
;TYPE:Perimeter
;WIDTH:0.44992
G1 X141.927 Y100.254 E.01681
G1 X142.398 Y100.865 E.02976
;WIDTH:0.449781
G1 X142.675 Y101.291 E.0196
;WIDTH:0.439773
G1 X143.059 Y102.063 E.03244
;WIDTH:0.441914
G1 X143.351 Y102.903 E.03363
;WIDTH:0.444971
G1 X143.524 Y103.742 E.03265
;WIDTH:0.447605
G1 X143.585 Y104.512 E.02963
;WIDTH:0.449266
G1 X143.56 Y105.284 E.02975
;WIDTH:0.44996
G1 X143.449 Y106.048 E.02979
G1 X143.253 Y106.795 E.0298
;WIDTH:0.449682
G1 X143.079 Y107.289 E.02019
;WIDTH:0.440018
G1 X142.699 Y108.064 E.03249
;WIDTH:0.442431
G1 X142.224 Y108.787 E.03276
;WIDTH:0.445495
G1 X141.661 Y109.443 E.03299
;WIDTH:0.4479
G1 X141.089 Y109.962 E.02965
;WIDTH:0.449424
G1 X140.463 Y110.413 E.02973
;WIDTH:0.44998
G1 X139.79 Y110.792 E.0298
G1 X139.08 Y111.093 E.02976
;WIDTH:0.449564
G1 X138.59 Y111.253 E.01987
;WIDTH:0.440286
G1 X137.719 Y111.432 E.03349
;WIDTH:0.442704
G1 X136.833 Y111.497 E.03367
;WIDTH:0.445823
G1 X136.01 Y111.449 E.03149
;WIDTH:0.448179
G1 X135.25 Y111.313 E.02966
;WIDTH:0.449565
G1 X134.51 Y111.093 E.02976
;WIDTH:0.449981
G1 X133.799 Y110.792 E.02979
G1 X133.127 Y110.413 E.02977
;WIDTH:0.449427
G1 X132.708 Y110.127 E.01955
;WIDTH:0.440607
G1 X132.017 Y109.533 E.03435
;WIDTH:0.443134
G1 X131.425 Y108.867 E.0338
;WIDTH:0.44622
G1 X130.971 Y108.2 E.03085
;WIDTH:0.448808
G1 X130.615 Y107.514 E.02974
;WIDTH:0.449683
G1 X130.337 Y106.795 E.02972
;WIDTH:0.449961
G1 X130.141 Y106.048 E.0298
G1 X130.052 Y105.549 E.01956
;WIDTH:0.439151
G1 X129.999 Y104.737 E.03056
;WIDTH:0.440878
G1 X130.051 Y103.849 E.03356
;WIDTH:0.443576
G1 X130.219 Y102.976 E.03376
;WIDTH:0.446597
G1 X130.467 Y102.226 E.03023
;WIDTH:0.448676
G1 X130.791 Y101.525 E.0297
;WIDTH:0.449783
G1 X131.191 Y100.865 E.02976
;WIDTH:0.450767
G1 X131.664 Y100.254 E.02987
G1 X131.983 Y99.899 E.01845
;WIDTH:0.439339
G1 X132.628 Y99.33 E.03232
;WIDTH:0.441204
G1 X133.364 Y98.831 E.03357
;WIDTH:0.444041
G1 X134.158 Y98.433 E.03377
;WIDTH:0.446952
G1 X134.889 Y98.178 E.02965
M73 Q6 S6
;WIDTH:0.448891
G1 X135.642 Y98.007 E.02972
;WIDTH:0.449861
G1 X136.409 Y97.92 E.02978
;WIDTH:0.450739
G1 X137.181 Y97.922 E.02984
G1 X137.719 Y97.966 E.02087
;WIDTH:0.439547
G1 X138.517 Y98.125 E.03059
;WIDTH:0.441551
G1 X139.361 Y98.405 E.0336
M73 P6 R6
;WIDTH:0.444513
G1 X140.147 Y98.785 E.03323
;WIDTH:0.447288
G1 X140.794 Y99.208 E.02963
;WIDTH:0.449089
G1 X141.39 Y99.699 E.02973
;WIDTH:0.44992
G1 X141.583 Y99.898 E.0107
M204 S1000
G1 X141.33 Y100.2 F10800
M204 S800
;TYPE:External perimeter
;WIDTH:0.419999
G1 F1200
G1 X141.632 Y100.512 E.01552
G1 X142.072 Y101.083 E.02577
G1 X142.352 Y101.505 E.0181
G1 X142.712 Y102.235 E.02909
G1 X142.983 Y103.028 E.02995
G1 X143.142 Y103.818 E.0288
G1 X143.195 Y104.538 E.02581
G1 X143.169 Y105.258 E.02575
G1 X143.064 Y105.971 E.02576
G1 X142.882 Y106.669 E.02578
G1 X142.719 Y107.148 E.01809
G1 X142.352 Y107.893 E.02968
G1 X141.901 Y108.571 E.02911
G1 X141.367 Y109.188 E.02917
G1 X140.831 Y109.668 E.02572
G1 X140.245 Y110.087 E.02575
G1 X139.617 Y110.44 E.02575
G1 X138.954 Y110.722 E.02575
G1 X138.466 Y110.887 E.01841
G1 X137.644 Y111.053 E.02997
G1 X136.807 Y111.109 E.02998
G1 X136.036 Y111.06 E.02761
G1 X135.326 Y110.929 E.02581
G1 X134.636 Y110.722 E.02575
G1 X133.973 Y110.44 E.02575
G1 X133.345 Y110.087 E.02575
G1 X132.923 Y109.805 E.01814
G1 X132.272 Y109.241 E.03079
G1 X131.717 Y108.611 E.03001
G1 X131.295 Y107.983 E.02704
G1 X130.965 Y107.339 E.02587
G1 X130.708 Y106.669 E.02565
G1 X130.525 Y105.971 E.02579
G1 X130.421 Y105.258 E.02576
G1 X130.385 Y104.711 E.01959
G1 X130.438 Y103.874 E.02998
G1 X130.6 Y103.052 E.02995
G1 X130.836 Y102.351 E.02644
G1 X131.142 Y101.698 E.02578
