; generated by PrusaSlicer 2.9.2 on 2026-01-14 at 17:34:02 UTC


;
;
; 

; external perimeters extrusion width = 0.60mm
; perimeters extrusion width = 0.50mm
; infill extrusion width = 0.50mm
; solid infill extrusion width = 0.50mm
; top infill extrusion width = 0.45mm
; first layer extrusion width = 0.42mm

; external perimeters extrusion width = 0.60mm
; perimeters extrusion width = 0.50mm
; infill extrusion width = 0.50mm
; solid infill extrusion width = 0.50mm
; top infill extrusion width = 0.45mm
; first layer extrusion width = 0.42mm

M73 P0 R7
M73 Q0 S7
M201 X1000 Y1000 Z200 E5000 ; sets maximum accelerations, mm/sec^2
M203 X200 Y200 Z12 E120 ; sets maximum feedrates, mm / sec
M204 S1250 T1250 ; sets acceleration (S) and retract acceleration (R), mm/sec^2
M205 X8.00 Y8.00 Z0.40 E4.50 ; sets the jerk limits, mm/sec
M205 S0 T0 ; sets the minimum extruding and travel feed rate, mm/sec

; printing object 0705_bending_testing.STL id:0 copy 0
; stop printing object 0705_bending_testing.STL id:0 copy 0
; printing object 0705_bending_testing.STL id:1 copy 0
; stop printing object 0705_bending_testing.STL id:1 copy 0

;TYPE:Custom
M862.3 P "MK3S" ; printer model check
M862.1 P0.4 ; nozzle diameter check
M115 U3.14.1 ; tell printer latest fw version
G90 ; use absolute coordinates
M83 ; extruder relative mode
M104 S235 ; set extruder temp
M140 S50 ; set bed temp
M190 S50 ; wait for bed temp
M109 S235 ; wait for extruder temp
G28 W ; home all without mesh bed level
G80 X114.249 Y83.254 W21.5018 H43.4826 ; mesh bed levelling

G1 Z0.2 F720
G1 Y-3 F1000 ; go outside print area
G92 E0
G1 X60 E9 F1000 ; intro line
G1 X100 E12.5 F1000 ; intro line

G92 E0
M221 S95

; Don't change E values below. Excessive value can damage the printer.

M907 E538 ; set extruder motor current
G21 ; set units to millimeters
G90 ; use absolute coordinates
M83 ; use relative distances for extrusion
M900 K0 ; Filament gcode
M107
;LAYER_CHANGE
;Z:0.2
;HEIGHT:0.2
G1 E-2 F2700
M73 P1 R7
M73 Q1 S7
G1 Z.2 F720
G1 X116.365 Y87.913 F10800
G1 Z.2 F720
G1 E2 F1200
M204 S800
;TYPE:Skirt/Brim
;WIDTH:0.42
G1 X117.114 Y86.968 E.0431
G1 X117.967 Y86.115 E.04312
G1 X118.674 Y85.537 E.03264
G1 X119.679 Y84.871 E.04309
G1 X120.754 Y84.324 E.04311
G1 X121.884 Y83.903 E.0431
G1 X123.616 Y83.532 E.06331
G1 X124.543 Y83.443 E.03329
G1 X125.749 Y83.459 E.04311
G1 X127.212 Y83.675 E.05286
G1 X128.976 Y84.21 E.06589
G1 X130.066 Y84.727 E.04312
G1 X131.326 Y85.537 E.05354
G1 X132.033 Y86.115 E.03264
G1 X132.886 Y86.968 E.04312
G1 X133.635 Y87.913 E.0431
G1 X134.409 Y89.196 E.05356
G1 X134.789 Y90.027 E.03266
G1 X135.177 Y91.169 E.04311
G1 X135.433 Y92.347 E.04309
G1 X135.562 Y93.767 E.05097
G1 X135.561 Y115.832 E.78869
G1 X135.51 Y117.037 E.04311
M73 P2 R7
M73 Q2 S7
G1 X135.322 Y118.228 E.0431
G1 X135.09 Y119.111 E.03263
G1 X134.668 Y120.241 E.04312
G1 X134.12 Y121.315 E.0431
G1 X133.453 Y122.32 E.04311
G1 X132.472 Y123.453 E.05357
G1 X131.572 Y124.256 E.04311
G1 X130.833 Y124.793 E.03265
G1 X129.791 Y125.4 E.0431
G1 X128.687 Y125.885 E.0431
G1 X127.535 Y126.241 E.0431
G1 X126.349 Y126.463 E.04313
G1 X124.854 Y126.548 E.05352
G1 X123.942 Y126.496 E.03265
G1 X122.751 Y126.307 E.0431
G1 X121.589 Y125.983 E.04312
G1 X120.209 Y125.4 E.05355
G1 X119.413 Y124.951 E.03267
G1 X118.428 Y124.256 E.04309
G1 X117.528 Y123.453 E.04311
G1 X116.547 Y122.32 E.05357
G1 X116.031 Y121.566 E.03266
G1 X115.454 Y120.508 E.04308
G1 X114.91 Y119.111 E.05359
G1 X114.62 Y117.941 E.04309
G1 X114.465 Y116.745 E.04311
G1 X114.439 Y115.832 E.03265
G1 X114.438 Y93.767 E.78869
G1 X114.525 Y92.637 E.04051
G1 X114.748 Y91.452 E.0431
G1 X115.105 Y90.3 E.04311
G1 X115.591 Y89.196 E.04312
G1 X116.334 Y87.964 E.05142
M204 S1000
G1 X116.639 Y88.193 F10800
M204 S800
G1 F1200
G1 X117.109 Y87.564 E.02807
G1 X118.205 Y86.407 E.05696
G1 X118.912 Y85.829 E.03264
G1 X119.883 Y85.188 E.04159
G1 X120.92 Y84.662 E.04156
G1 X122.011 Y84.258 E.04158
G1 X123.659 Y83.907 E.06023
G1 X124.543 Y83.82 E.03175
G1 X125.706 Y83.834 E.04157
G1 X127.127 Y84.043 E.05134
G1 X128.85 Y84.565 E.06435
G1 X129.899 Y85.065 E.04154
G1 X131.088 Y85.829 E.05052
G1 X132.488 Y87.1 E.06759
G1 X133.337 Y88.143 E.04807
G1 X134.066 Y89.353 E.05049
G1 X134.536 Y90.416 E.04154
G1 X134.819 Y91.285 E.03267
G1 X135.064 Y92.422 E.04157
G1 X135.185 Y93.767 E.04827
G1 X135.184 Y115.821 E.7883
G1 X135.158 Y116.734 E.03265
M73 P3 R7
M73 Q3 S7
G1 X135.007 Y117.887 E.04156
G1 X134.725 Y119.015 E.04156
G1 X134.316 Y120.104 E.04158
G1 X133.786 Y121.139 E.04156
G1 X133.142 Y122.107 E.04156
G1 X132.217 Y123.175 E.0505
G1 X131.35 Y123.951 E.04159
G1 X130.612 Y124.488 E.03262
G1 X129.606 Y125.072 E.04158
G1 X128.54 Y125.538 E.04158
G1 X127.429 Y125.879 E.04154
G1 X126.285 Y126.091 E.04159
G1 X124.875 Y126.172 E.05048
G1 X123.715 Y126.091 E.04156
G1 X122.815 Y125.936 E.03264
G1 X121.695 Y125.622 E.04158
G1 X120.394 Y125.072 E.05049
G1 X119.599 Y124.623 E.03264
G1 X118.65 Y123.951 E.04156
G1 X117.783 Y123.175 E.04159
G1 X116.858 Y122.107 E.0505
G1 X116.343 Y121.353 E.03264
G1 X115.787 Y120.332 E.04155
G1 X115.275 Y119.015 E.05051
G1 X114.993 Y117.887 E.04156
G1 X114.863 Y116.983 E.03264
G1 X114.816 Y115.821 E.04157
G1 X114.815 Y93.767 E.7883
G1 X114.901 Y92.669 E.03937
G1 X115.118 Y91.527 E.04155
G1 X115.464 Y90.416 E.04159
G1 X115.934 Y89.353 E.04154
G1 X116.522 Y88.349 E.04159
G1 X116.603 Y88.241 E.00483
M204 S1000
G1 E-2 F2700
; printing object 0705_bending_testing.STL id:0 copy 0
G1 X126.707 Y122.559 F10800
G1 E2 F1200
M204 S800
;TYPE:Perimeter
;WIDTH:0.440286
G1 X125.924 Y122.72 E.03011
;WIDTH:0.442704
G1 X125.038 Y122.785 E.03367
;WIDTH:0.445823
G1 X124.216 Y122.737 E.03145
;WIDTH:0.448179
G1 X123.455 Y122.601 E.0297
;WIDTH:0.449565
G1 X122.715 Y122.381 E.02976
M73 Q4 S7
;WIDTH:0.449981
G1 X122.005 Y122.08 E.02976
G1 X121.332 Y121.701 E.0298
;WIDTH:0.449427
G1 X120.913 Y121.415 E.01955
;WIDTH:0.440607
G1 X120.222 Y120.821 E.03435
;WIDTH:0.443134
G1 X119.63 Y120.155 E.0338
;WIDTH:0.44622
G1 X119.176 Y119.488 E.03085
;WIDTH:0.448808
G1 X118.82 Y118.802 E.02974
M73 P4 R7
;WIDTH:0.449683
G1 X118.542 Y118.083 E.02972
;WIDTH:0.449961
G1 X118.346 Y117.336 E.0298
G1 X118.257 Y116.837 E.01956
;WIDTH:0.439151
G1 X118.204 Y116.025 E.03056
;WIDTH:0.440878
G1 X118.256 Y115.137 E.03356
;WIDTH:0.443576
G1 X118.424 Y114.264 E.03376
;WIDTH:0.446597
G1 X118.672 Y113.514 E.03023
;WIDTH:0.448676
G1 X118.996 Y112.813 E.0297
;WIDTH:0.449783
G1 X119.397 Y112.153 E.02978
;WIDTH:0.450767
G1 X119.87 Y111.542 E.02987
G1 X120.188 Y111.187 E.01843
;WIDTH:0.439339
G1 X120.833 Y110.618 E.03232
;WIDTH:0.441204
G1 X121.569 Y110.119 E.03357
;WIDTH:0.444041
G1 X122.363 Y109.721 E.03377
;WIDTH:0.446952
G1 X123.094 Y109.466 E.02965
;WIDTH:0.448891
G1 X123.847 Y109.295 E.02972
;WIDTH:0.449861
G1 X124.614 Y109.209 E.02977
;WIDTH:0.450739
G1 X125.387 Y109.21 E.02988
G1 X125.924 Y109.254 E.02083
;WIDTH:0.439547
G1 X126.723 Y109.413 E.03063
;WIDTH:0.441551
G1 X127.566 Y109.693 E.03357
;WIDTH:0.444513
G1 X128.352 Y110.073 E.03323
;WIDTH:0.447288
G1 X128.999 Y110.496 E.02963
;WIDTH:0.449089
G1 X129.595 Y110.987 E.02973
;WIDTH:0.44992
G1 X130.132 Y111.542 E.02979
G1 X130.603 Y112.153 E.02976
;WIDTH:0.449781
G1 X130.881 Y112.579 E.01962
;WIDTH:0.439773
G1 X131.264 Y113.351 E.03242
;WIDTH:0.441914
G1 X131.556 Y114.191 E.03363
;WIDTH:0.444971
G1 X131.729 Y115.03 E.03265
;WIDTH:0.447605
G1 X131.79 Y115.8 E.02963
;WIDTH:0.449266
G1 X131.765 Y116.572 E.02975
;WIDTH:0.44996
G1 X131.654 Y117.336 E.02979
G1 X131.458 Y118.083 E.0298
;WIDTH:0.449682
G1 X131.284 Y118.577 E.02019
;WIDTH:0.440018
G1 X130.905 Y119.353 E.03251
;WIDTH:0.442431
G1 X130.429 Y120.075 E.03275
;WIDTH:0.445495
G1 X129.866 Y120.731 E.03299
;WIDTH:0.4479
G1 X129.294 Y121.25 E.02965
;WIDTH:0.449424
G1 X128.668 Y121.701 E.02973
;WIDTH:0.44998
G1 X127.995 Y122.08 E.0298
G1 X127.285 Y122.381 E.02976
;WIDTH:0.449564
G1 X126.795 Y122.541 E.01987
;WIDTH:0.440286
G1 X126.766 Y122.547 E.00112
M204 S1000
G1 X126.633 Y122.183 F10800
M204 S800
;TYPE:External perimeter
;WIDTH:0.419999
G1 F1200
G1 X125.849 Y122.341 E.02859
G1 X125.012 Y122.397 E.02998
G1 X124.241 Y122.348 E.02761
G1 X123.532 Y122.217 E.02577
G1 X122.841 Y122.01 E.02578
G1 X122.178 Y121.728 E.02575
G1 X121.55 Y121.375 E.02575
G1 X121.128 Y121.093 E.01814
G1 X120.477 Y120.529 E.03079
G1 X119.922 Y119.899 E.03001
G1 X119.501 Y119.271 E.02702
G1 X119.17 Y118.627 E.02588
G1 X118.913 Y117.957 E.02565
G1 X118.731 Y117.259 E.02578
G1 X118.626 Y116.547 E.02572
G1 X118.59 Y115.999 E.01963
G1 X118.643 Y115.163 E.02994
G1 X118.805 Y114.34 E.02998
G1 X119.041 Y113.639 E.02644
G1 X119.347 Y112.986 E.02578
G1 X119.723 Y112.371 E.02577
G1 X120.166 Y111.8 E.02583
G1 X120.465 Y111.456 E.01629
G1 X121.088 Y110.909 E.02963
G1 X121.784 Y110.442 E.02996
G1 X122.536 Y110.07 E.02999
G1 X123.22 Y109.836 E.02584
G1 X123.923 Y109.679 E.02575
G1 X124.64 Y109.6 E.02578
G1 X125.362 Y109.602 E.02581
G1 X126.077 Y109.679 E.0257
G1 X126.647 Y109.792 E.02077
G1 X127.442 Y110.06 E.02999
G1 X128.18 Y110.423 E.0294
G1 X128.782 Y110.82 E.02578
G1 X129.337 Y111.282 E.02581
G1 X129.837 Y111.8 E.02573
G1 X130.277 Y112.371 E.02577
G1 X130.557 Y112.793 E.0181
G1 X130.917 Y113.523 E.02909
G1 X131.188 Y114.316 E.02995
G1 X131.347 Y115.106 E.0288
G1 X131.4 Y115.826 E.02581
G1 X131.374 Y116.547 E.02579
G1 X131.269 Y117.259 E.02572
G1 X131.087 Y117.957 E.02578
G1 X130.924 Y118.436 E.01809
G1 X130.557 Y119.181 E.02968
G1 X130.106 Y119.859 E.02911
G1 X129.572 Y120.476 E.02917
G1 X129.036 Y120.956 E.02572
G1 X128.45 Y121.375 E.02575
G1 X127.822 Y121.728 E.02575
G1 X127.159 Y122.01 E.02575
G1 X126.691 Y122.169 E.01767
M204 S1000
G1 X126.299 Y122.25 F10800
G1 E-2 F2700
G1 X122.243 Y109.345 F10800
G1 E2 F1200
M204 S800
;TYPE:Perimeter
;WIDTH:0.444514
G1 X122.303 Y109.316 E.00254
;WIDTH:0.441552
G1 X123.194 Y109.025 E.03542
;WIDTH:0.439547
G1 X124.077 Y108.855 E.03381
;WIDTH:0.449861
G1 X124.601 Y108.802 E.02032
;WIDTH:0.450739
G1 X125.422 Y108.804 E.03174
G1 X126.239 Y108.898 E.03179
;WIDTH:0.448891
G1 X127.039 Y109.084 E.03161
;WIDTH:0.446952
G1 X127.814 Y109.361 E.03152
;WIDTH:0.444041
G1 X128.649 Y109.786 E.03562
;WIDTH:0.441203
G1 X129.423 Y110.316 E.03542
M73 Q5 S7
;WIDTH:0.439338
G1 X130.095 Y110.912 E.03375
;WIDTH:0.44992
G1 X130.446 Y111.283 E.0197
G1 X130.947 Y111.935 E.03172
;WIDTH:0.449781
G1 X131.37 Y112.639 E.03168
;WIDTH:0.448674
G1 X131.711 Y113.386 E.03158
;WIDTH:0.446594
G1 X131.969 Y114.185 E.03213
M73 P5 R7
;WIDTH:0.443575
G1 X132.14 Y115.107 E.03561
;WIDTH:0.447605
G1 X132.195 Y115.793 E.0264
G1 X132.192 Y116.043 E.00959
;WIDTH:0.439151
G1 X132.136 Y116.878 E.03143
;WIDTH:0.44996
G1 X132.05 Y117.427 E.02144
G1 X131.84 Y118.222 E.03173
;WIDTH:0.449682
G1 X131.542 Y118.987 E.03166
;WIDTH:0.448436
G1 X131.158 Y119.714 E.0316
;WIDTH:0.446217
G1 X130.689 Y120.397 E.03167
;WIDTH:0.444644
G1 X130.045 Y121.115 E.03673
;WIDTH:0.440571
G1 X129.334 Y121.726 E.03534
;WIDTH:0.438982
G1 X128.638 Y122.19 E.0314
;WIDTH:0.44998
G1 X128.165 Y122.45 E.02083
G1 X127.407 Y122.769 E.03173
;WIDTH:0.449564
G1 X126.619 Y122.999 E.03164
;WIDTH:0.448177
G1 X125.809 Y123.139 E.03158
;WIDTH:0.445822
G1 X124.938 Y123.184 E.03331
;WIDTH:0.442706
G1 X124.003 Y123.111 E.03554
;WIDTH:0.440287
G1 X123.085 Y122.919 E.03533
;WIDTH:0.438836
G1 X122.294 Y122.649 E.03137
;WIDTH:0.449981
G1 X121.815 Y122.439 E.02018
G1 X121.1 Y122.035 E.03169
;WIDTH:0.449427
G1 X120.436 Y121.551 E.03166
;WIDTH:0.449127
G1 X119.83 Y120.995 E.03167
;WIDTH:0.445408
G1 X119.253 Y120.319 E.03391
;WIDTH:0.442302
G1 X118.755 Y119.557 E.03446
;WIDTH:0.44124
G1 X118.335 Y118.688 E.03644
;WIDTH:0.438706
G1 X118.067 Y117.896 E.03137
;WIDTH:0.449961
G1 X117.945 Y117.405 E.01952
G1 X117.829 Y116.591 E.03172
;WIDTH:0.449267
G1 X117.806 Y115.77 E.03164
;WIDTH:0.447605
G1 X117.876 Y114.951 E.03153
;WIDTH:0.444971
G1 X118.065 Y114.065 E.03453
;WIDTH:0.441917
G1 X118.377 Y113.181 E.03546
;WIDTH:0.439775
G1 X118.8 Y112.345 E.03525
;WIDTH:0.439343
G1 X119.25 Y111.669 E.03052
;WIDTH:0.450767
G1 X119.57 Y111.266 E.01989
G1 X120.143 Y110.677 E.03177
;WIDTH:0.44909
G1 X120.779 Y110.157 E.03163
;WIDTH:0.447289
G1 X121.47 Y109.713 E.03148
;WIDTH:0.444514
G1 X122.189 Y109.371 E.03031
M204 S1000
G1 X122.068 Y108.988 F10800
M204 S800
;TYPE:External perimeter
;WIDTH:0.419999
G1 F1200
G1 X122.862 Y108.705 E.03013
G1 X123.706 Y108.509 E.03097
G1 X124.567 Y108.41 E.03098
G1 X125.433 Y108.41 E.03095
G1 X126.294 Y108.509 E.03098
G1 X127.138 Y108.705 E.03097
G1 X127.954 Y108.996 E.03097
G1 X128.732 Y109.379 E.031
G1 X129.461 Y109.847 E.03096
G1 X130.105 Y110.374 E.02974
G1 X130.399 Y110.671 E.01494
G1 X130.98 Y111.333 E.03148
G1 X131.282 Y111.732 E.01789
G1 X131.726 Y112.476 E.03097
G1 X132.083 Y113.266 E.03099
G1 X132.35 Y114.108 E.03157
G1 X132.526 Y115.074 E.0351
G1 X132.585 Y115.804 E.02618
G1 X132.561 Y116.636 E.02975
G1 X132.438 Y117.494 E.03098
G1 X132.218 Y118.332 E.03097
G1 X131.904 Y119.14 E.03099
G1 X131.499 Y119.906 E.03097
G1 X131.01 Y120.621 E.03096
G1 X130.443 Y121.276 E.03097
G1 X129.804 Y121.862 E.03099
G1 X129.103 Y122.372 E.03099
G1 X128.349 Y122.798 E.03095
G1 X127.55 Y123.135 E.031
G1 X126.719 Y123.379 E.03096
G1 X125.865 Y123.527 E.03098
G1 X125 Y123.576 E.03097
G1 X124.135 Y123.527 E.03097
G1 X123.281 Y123.379 E.03098
G1 X122.45 Y123.135 E.03096
G1 X121.651 Y122.798 E.031
G1 X120.897 Y122.372 E.03095
G1 X120.196 Y121.862 E.03099
G1 X119.557 Y121.276 E.03099
G1 X118.99 Y120.621 E.03097
G1 X118.501 Y119.906 E.03096
G1 X118.097 Y119.14 E.03095
G1 X117.782 Y118.332 E.031
G1 X117.562 Y117.494 E.03097
G1 X117.439 Y116.636 E.03098
G1 X117.414 Y115.77 E.03097
G1 X117.488 Y114.907 E.03096
G1 X117.66 Y114.058 E.03096
G1 X117.928 Y113.233 E.03101
G1 X118.288 Y112.445 E.03097
G1 X118.735 Y111.703 E.03096
G1 X119.264 Y111.017 E.03096
G1 X119.868 Y110.396 E.03096
G1 X120.539 Y109.847 E.03099
G1 X121.268 Y109.379 E.03096
G1 X122.013 Y109.012 E.02968
M204 S1000
G1 X122.388 Y108.875 F10800
G1 E-2 F2700
; stop printing object 0705_bending_testing.STL id:0 copy 0
; printing object 0705_bending_testing.STL id:1 copy 0
G1 X126.707 Y100.568 F10800
G1 E2 F1200
M204 S800
;TYPE:Perimeter
;WIDTH:0.440286
G1 X125.924 Y100.729 E.03011
;WIDTH:0.442704
G1 X125.038 Y100.793 E.03366
M73 Q6 S7
;WIDTH:0.445823
G1 X124.216 Y100.745 E.03145
;WIDTH:0.448179
G1 X123.455 Y100.609 E.0297
;WIDTH:0.449565
G1 X122.715 Y100.389 E.02976
;WIDTH:0.449981
G1 X122.005 Y100.088 E.02976
G1 X121.332 Y99.709 E.0298
M73 P6 R7
;WIDTH:0.449427
G1 X120.913 Y99.423 E.01955
;WIDTH:0.440607
G1 X120.222 Y98.829 E.03435
;WIDTH:0.443134
G1 X119.63 Y98.163 E.0338
;WIDTH:0.44622
G1 X119.176 Y97.496 E.03085
;WIDTH:0.448808
G1 X118.82 Y96.81 E.02974
;WIDTH:0.449683
G1 X118.542 Y96.091 E.02972
;WIDTH:0.449961
G1 X118.346 Y95.344 E.0298
G1 X118.257 Y94.845 E.01956
;WIDTH:0.439151
G1 X118.204 Y94.033 E.03056
;WIDTH:0.440878
G1 X118.256 Y93.145 E.03356
;WIDTH:0.443576
G1 X118.424 Y92.272 E.03376
;WIDTH:0.446597
G1 X118.672 Y91.522 E.03023
;WIDTH:0.448676
G1 X118.996 Y90.821 E.0297
;WIDTH:0.449783
G1 X119.397 Y90.161 E.02978
;WIDTH:0.450767
G1 X119.87 Y89.55 E.02987
G1 X120.188 Y89.195 E.01843
;WIDTH:0.439339
G1 X120.833 Y88.626 E.03232
;WIDTH:0.441204
G1 X121.569 Y88.128 E.03355
;WIDTH:0.444041
G1 X122.363 Y87.729 E.03379
;WIDTH:0.446952
G1 X123.094 Y87.474 E.02965
;WIDTH:0.448891
G1 X123.847 Y87.303 E.02972
;WIDTH:0.449861
G1 X124.614 Y87.217 E.02977
;WIDTH:0.450739
G1 X125.387 Y87.218 E.02988
G1 X125.924 Y87.262 E.02083
;WIDTH:0.439547
G1 X126.723 Y87.421 E.03063
;WIDTH:0.441551
G1 X127.566 Y87.701 E.03357
;WIDTH:0.444513
G1 X128.352 Y88.082 E.03325
;WIDTH:0.447288
G1 X128.999 Y88.504 E.02961
;WIDTH:0.449089
G1 X129.595 Y88.995 E.02973
;WIDTH:0.44992
G1 X130.132 Y89.55 E.02979
G1 X130.603 Y90.161 E.02976
;WIDTH:0.449781
G1 X130.881 Y90.587 E.01962
;WIDTH:0.439773
G1 X131.264 Y91.36 E.03245
;WIDTH:0.441914
G1 X131.556 Y92.199 E.0336
;WIDTH:0.444971
G1 X131.729 Y93.038 E.03265
;WIDTH:0.447605
G1 X131.79 Y93.809 E.02967
;WIDTH:0.449266
G1 X131.765 Y94.58 E.02971
;WIDTH:0.44996
G1 X131.654 Y95.344 E.02979
G1 X131.458 Y96.091 E.0298
