; generated by PrusaSlicer 2.9.2 on 2026-01-14 at 17:21:18 UTC


;
;
; 

; external perimeters extrusion width = 0.60mm
; perimeters extrusion width = 0.50mm
; infill extrusion width = 0.50mm
; solid infill extrusion width = 0.50mm
; top infill extrusion width = 0.45mm
; first layer extrusion width = 0.42mm

; external perimeters extrusion width = 0.60mm
; perimeters extrusion width = 0.50mm
; infill extrusion width = 0.50mm
; solid infill extrusion width = 0.50mm
; top infill extrusion width = 0.45mm
; first layer extrusion width = 0.42mm

M73 P0 R14
M73 Q0 S14
M201 X1000 Y1000 Z200 E5000 ; sets maximum accelerations, mm/sec^2
M203 X200 Y200 Z12 E120 ; sets maximum feedrates, mm / sec
M204 S1250 T1250 ; sets acceleration (S) and retract acceleration (R), mm/sec^2
M205 X8.00 Y8.00 Z0.40 E4.50 ; sets the jerk limits, mm/sec
M205 S0 T0 ; sets the minimum extruding and travel feed rate, mm/sec

; printing object 1_bending_testing.STL id:0 copy 0
; stop printing object 1_bending_testing.STL id:0 copy 0
; printing object 1_bending_testing.STL id:1 copy 0
; stop printing object 1_bending_testing.STL id:1 copy 0

;TYPE:Custom
M862.3 P "MK3S" ; printer model check
M862.1 P0.4 ; nozzle diameter check
M115 U3.14.1 ; tell printer latest fw version
G90 ; use absolute coordinates
M83 ; extruder relative mode
M104 S235 ; set extruder temp
M140 S50 ; set bed temp
M190 S50 ; wait for bed temp
M109 S235 ; wait for extruder temp
G28 W ; home all without mesh bed level
G80 X103.778 Y92.7133 W43.8305 H22.6065 ; mesh bed levelling

G1 Z0.2 F720
G1 Y-3 F1000 ; go outside print area
G92 E0
G1 X60 E9 F1000 ; intro line
G1 X100 E12.5 F1000 ; intro line

G92 E0
M221 S95

; Don't change E values below. Excessive value can damage the printer.

M907 E538 ; set extruder motor current
G21 ; set units to millimeters
G90 ; use absolute coordinates
M83 ; use relative distances for extrusion
M900 K0 ; Filament gcode
M107
;LAYER_CHANGE
;Z:0.2
;HEIGHT:0.2
G1 E-2 F2700
G1 Z.2 F720
G1 X106.45 Y96.649 F10800
G1 Z.2 F720
G1 E2 F1200
M204 S800
;TYPE:Skirt/Brim
;WIDTH:0.42
G1 X107.278 Y95.772 E.04311
G1 X108.438 Y94.824 E.05355
G1 X109.207 Y94.33 E.03267
G1 X110.282 Y93.783 E.04311
G1 X111.693 Y93.28 E.05354
G1 X112.583 Y93.073 E.03266
G1 X113.779 Y92.919 E.0431
G1 X115.112 Y92.905 E.04765
G1 X137.608 Y94.033 E.8051
G1 X138.515 Y94.137 E.03263
M73 P1 R14
M73 Q1 S14
G1 X139.694 Y94.394 E.04313
G1 X140.835 Y94.784 E.0431
G1 X141.925 Y95.301 E.04312
G1 X143.185 Y96.111 E.05354
G1 X144.108 Y96.887 E.0431
G1 X144.936 Y97.764 E.04311
G1 X145.66 Y98.729 E.04312
G1 X146.131 Y99.511 E.03263
G1 X146.647 Y100.601 E.04311
G1 X147.036 Y101.743 E.04312
G1 X147.292 Y102.921 E.04309
G1 X147.412 Y104.121 E.04311
G1 X147.369 Y105.619 E.05357
G1 X147.181 Y106.81 E.0431
G1 X146.858 Y107.972 E.04311
G1 X146.527 Y108.823 E.03264
G1 X145.979 Y109.898 E.04313
G1 X145.312 Y110.902 E.04308
G1 X144.535 Y111.825 E.04313
G1 X143.658 Y112.652 E.04309
G1 X142.692 Y113.375 E.04313
G1 X141.65 Y113.982 E.0431
G1 X140.27 Y114.566 E.05356
G1 X139.108 Y114.889 E.04311
G1 X137.917 Y115.078 E.0431
G1 X136.731 Y115.132 E.04244
G1 X113.469 Y113.964 E.83252
G1 X111.993 Y113.708 E.05355
G1 X110.841 Y113.352 E.0431
G1 X109.736 Y112.868 E.04312
G1 X108.941 Y112.418 E.03265
G1 X107.956 Y111.723 E.04309
G1 X106.852 Y110.71 E.05356
G1 X106.254 Y110.02 E.03264
G1 X105.559 Y109.034 E.04312
G1 X104.86 Y107.709 E.05355
G1 X104.438 Y106.579 E.04312
G1 X104.206 Y105.695 E.03267
G1 X103.993 Y104.212 E.05355
G1 X103.966 Y103.299 E.03265
G1 X104.053 Y102.096 E.04311
G1 X104.351 Y100.628 E.05354
G1 X104.633 Y99.759 E.03266
G1 X105.119 Y98.655 E.04312
G1 X105.892 Y97.372 E.05354
G1 X106.413 Y96.696 E.03051
M204 S1000
G1 X106.712 Y96.927 F10800
M204 S800
G1 F1200
G1 X106.749 Y96.879 E.00217
G1 X107.549 Y96.035 E.04157
G1 X108.642 Y95.141 E.05047
G1 X109.628 Y94.524 E.04158
G1 X110.448 Y94.121 E.03266
G1 X111.778 Y93.647 E.05047
G1 X112.668 Y93.44 E.03266
G1 X113.822 Y93.293 E.04158
G1 X115.094 Y93.282 E.04547
G1 X137.565 Y94.408 E.80421
G1 X138.472 Y94.512 E.03263
G1 X139.608 Y94.762 E.04158
G1 X140.708 Y95.139 E.04156
G1 X141.758 Y95.639 E.04157
G1 X143.194 Y96.605 E.06186
G1 X143.838 Y97.15 E.03016
G1 X144.638 Y97.994 E.04157
G1 X145.196 Y98.717 E.03264
G1 X145.808 Y99.706 E.04157
G1 X146.304 Y100.757 E.04154
G1 X146.649 Y101.772 E.03832
G1 X146.958 Y103.243 E.05373
G1 X147.036 Y104.153 E.03265
G1 X147.017 Y105.316 E.04158
G1 X146.866 Y106.469 E.04156
G1 X146.584 Y107.598 E.04159
G1 X146.071 Y108.914 E.05049
G1 X145.516 Y109.936 E.04157
G1 X144.848 Y110.887 E.04154
G1 X144.076 Y111.757 E.04157
G1 X143.403 Y112.375 E.03266
G1 X142.47 Y113.07 E.04158
M73 P1 R13
G1 X141.465 Y113.654 E.04155
G1 X140.164 Y114.204 E.05049
G1 X139.044 Y114.518 E.04158
G1 X137.896 Y114.702 E.04156
G1 X136.75 Y114.755 E.04101
G1 X113.491 Y113.587 E.83241
G1 X112.099 Y113.346 E.0505
M73 Q2 S14
G1 X110.987 Y113.005 E.04157
M73 P2 R13
G1 X109.922 Y112.539 E.04155
G1 X109.126 Y112.09 E.03267
G1 X108.177 Y111.418 E.04156
G1 X107.137 Y110.463 E.05047
G1 X106.539 Y109.773 E.03264
G1 X105.87 Y108.821 E.04159
G1 X105.211 Y107.572 E.05048
G1 X104.88 Y106.721 E.03264
G1 X104.57 Y105.6 E.04157
G1 X104.369 Y104.202 E.05048
G1 X104.343 Y103.288 E.03268
G1 X104.429 Y102.129 E.04154
G1 X104.709 Y100.744 E.05051
G1 X104.991 Y99.876 E.03262
G1 X105.462 Y98.812 E.04159
G1 X106.191 Y97.602 E.05049
M73 Q2 S13
G1 X106.675 Y96.974 E.02834
M204 S1000
G1 E-2 F2700
; printing object 1_bending_testing.STL id:0 copy 0
G1 X112.821 Y96.888 F10800
G1 E2 F1200
M204 S800
;TYPE:Perimeter
;WIDTH:0.448891
G1 X113.375 Y96.762 E.02186
;WIDTH:0.449861
G1 X114.142 Y96.676 E.02977
;WIDTH:0.450739
G1 X114.914 Y96.677 E.02984
G1 X115.452 Y96.721 E.02087
;WIDTH:0.439354
G1 X116.25 Y96.881 E.03058
;WIDTH:0.441551
G1 X117.094 Y97.16 E.03359
;WIDTH:0.444513
G1 X117.88 Y97.541 E.03325
;WIDTH:0.447288
G1 X118.527 Y97.963 E.02961
;WIDTH:0.449089
G1 X119.123 Y98.455 E.02976
;WIDTH:0.44992
G1 X119.66 Y99.009 E.02977
G1 X120.131 Y99.62 E.02976
;WIDTH:0.449781
G1 X120.408 Y100.047 E.01963
;WIDTH:0.439773
G1 X120.792 Y100.819 E.03244
;WIDTH:0.441915
G1 X121.084 Y101.659 E.03363
;WIDTH:0.444971
G1 X121.257 Y102.498 E.03265
;WIDTH:0.447605
G1 X121.318 Y103.268 E.02963
;WIDTH:0.449266
G1 X121.293 Y104.04 E.02975
;WIDTH:0.449961
G1 X121.182 Y104.803 E.02975
G1 X120.986 Y105.55 E.0298
;WIDTH:0.449683
G1 X120.812 Y106.044 E.02019
;WIDTH:0.440018
G1 X120.432 Y106.82 E.03252
;WIDTH:0.44243
G1 X119.957 Y107.542 E.03273
;WIDTH:0.445495
G1 X119.394 Y108.199 E.03302
;WIDTH:0.447902
G1 X118.822 Y108.717 E.02962
;WIDTH:0.449426
G1 X118.196 Y109.169 E.02975
;WIDTH:0.449979
G1 X117.523 Y109.547 E.02978
G1 X116.812 Y109.848 E.02979
;WIDTH:0.449564
G1 X116.323 Y110.009 E.01984
;WIDTH:0.440286
G1 X115.452 Y110.188 E.03349
;WIDTH:0.442704
G1 X114.565 Y110.252 E.0337
;WIDTH:0.445823
G1 X113.743 Y110.205 E.03144
;WIDTH:0.448179
G1 X112.983 Y110.068 E.02967
;WIDTH:0.449565
G1 X112.243 Y109.848 E.02976
;WIDTH:0.449981
G1 X111.532 Y109.547 E.02979
G1 X110.924 Y109.21 E.02682
;WIDTH:0.446579
G1 X110.441 Y108.882 E.02234
;WIDTH:0.440608
G1 X109.75 Y108.288 E.03435
;WIDTH:0.443134
G1 X109.158 Y107.623 E.03378
;WIDTH:0.44622
G1 X108.704 Y106.955 E.03088
;WIDTH:0.448808
G1 X108.348 Y106.269 E.02974
;WIDTH:0.449683
G1 X108.07 Y105.55 E.02972
;WIDTH:0.449961
G1 X107.874 Y104.803 E.0298
G1 X107.785 Y104.304 E.01956
;WIDTH:0.439151
G1 X107.732 Y103.492 E.03056
;WIDTH:0.440878
G1 X107.784 Y102.605 E.03352
;WIDTH:0.443576
G1 X107.952 Y101.731 E.0338
;WIDTH:0.446597
G1 X108.199 Y100.981 E.03022
;WIDTH:0.448676
G1 X108.524 Y100.28 E.02972
;WIDTH:0.449783
G1 X108.924 Y99.62 E.02976
;WIDTH:0.450767
G1 X109.397 Y99.01 E.02984
G1 X109.694 Y98.677 E.01725
;WIDTH:0.439339
G1 X110.361 Y98.086 E.03349
;WIDTH:0.441204
G1 X111.097 Y97.587 E.03357
;WIDTH:0.444087
G1 X111.824 Y97.221 E.03095
;WIDTH:0.446764
G1 X112.625 Y96.932 E.0326
;WIDTH:0.448891
G1 X112.763 Y96.901 E.00544
M204 S1000
G1 X112.897 Y97.269 F10800
M204 S800
;TYPE:External perimeter
;WIDTH:0.419999
G1 F1200
G1 X113.451 Y97.146 E.02028
G1 X114.167 Y97.067 E.02575
G1 X114.89 Y97.069 E.02584
G1 X115.53 Y97.131 E.02298
G1 X116.175 Y97.26 E.02351
G1 X116.969 Y97.528 E.02995
G1 X117.708 Y97.89 E.02941
G1 X118.31 Y98.288 E.0258
G1 X118.865 Y98.749 E.02579
G1 X119.365 Y99.268 E.02576
G1 X119.805 Y99.838 E.02574
G1 X120.085 Y100.26 E.0181
G1 X120.445 Y100.99 E.02909
G1 X120.716 Y101.783 E.02995
G1 X120.875 Y102.574 E.02884
G1 X120.928 Y103.293 E.02577
G1 X120.902 Y104.014 E.02579
G1 X120.797 Y104.727 E.02576
G1 X120.615 Y105.424 E.02575
G1 X120.452 Y105.904 E.01812
G1 X120.085 Y106.649 E.02968
G1 X119.634 Y107.327 E.02911
G1 X119.1 Y107.943 E.02914
G1 X118.564 Y108.423 E.02572
G1 X117.978 Y108.843 E.02577
G1 X117.35 Y109.196 E.02575
G1 X116.686 Y109.477 E.02577
G1 X116.199 Y109.643 E.01839
G1 X115.377 Y109.808 E.02997
G1 X114.54 Y109.865 E.02999
G1 X113.769 Y109.816 E.02761
G1 X113.059 Y109.685 E.02581
G1 X112.369 Y109.477 E.02576
G1 X111.706 Y109.196 E.02574
G1 X111.141 Y108.885 E.02305
G1 X110.656 Y108.561 E.02085
G1 X110.004 Y107.996 E.03084
G1 X109.45 Y107.366 E.02999
G1 X109.028 Y106.739 E.02701
G1 X108.698 Y106.095 E.02587
G1 X108.441 Y105.424 E.02568
G1 X108.258 Y104.727 E.02576
G1 X108.154 Y104.014 E.02576
G1 X108.118 Y103.467 E.01959
G1 X108.171 Y102.63 E.02998
G1 X108.333 Y101.807 E.02998
G1 X108.569 Y101.107 E.0264
G1 X108.875 Y100.453 E.02581
G1 X109.25 Y99.838 E.02575
G1 X109.693 Y99.267 E.02583
G1 X109.986 Y98.931 E.01593
G1 X110.616 Y98.376 E.03001
G1 X111.312 Y97.909 E.02996
G1 X111.996 Y97.57 E.02729
G1 X112.751 Y97.302 E.02864
G1 X112.839 Y97.282 E.00323
M204 S1000
G1 X113.229 Y97.195 F10800
G1 E-2 F2700
G1 X107.356 Y104.025 F10800
G1 E2 F1200
M204 S800
;TYPE:Perimeter
;WIDTH:0.449267
G1 X107.334 Y103.237 E.03036
;WIDTH:0.447605
G1 X107.404 Y102.419 E.03149
;WIDTH:0.444971
G1 X107.593 Y101.533 E.03453
;WIDTH:0.441917
G1 X107.905 Y100.649 E.03546
;WIDTH:0.439775
G1 X108.327 Y99.812 E.03526
;WIDTH:0.439343
G1 X108.778 Y99.136 E.03054
;WIDTH:0.450767
G1 X109.097 Y98.734 E.01984
G1 X109.67 Y98.145 E.03177
;WIDTH:0.44909
G1 X110.307 Y97.625 E.03166
;WIDTH:0.447289
G1 X110.998 Y97.181 E.03148
;WIDTH:0.444514
G1 X111.83 Y96.789 E.03501
;WIDTH:0.439547
G1 X112.722 Y96.493 E.03533
G1 X113.605 Y96.322 E.03381
;WIDTH:0.449861
G1 X114.129 Y96.269 E.02032
;WIDTH:0.450739
G1 X114.95 Y96.271 E.03174
G1 X115.689 Y96.355 E.02875
;WIDTH:0.446922
G1 X116.57 Y96.553 E.03458
G1 X117.341 Y96.828 E.03135
;WIDTH:0.444039
G1 X118.177 Y97.254 E.03568
;WIDTH:0.441203
G1 X118.951 Y97.783 E.03539
;WIDTH:0.439338
G1 X119.623 Y98.379 E.03375
;WIDTH:0.44992
G1 X119.974 Y98.751 E.01973
G1 X120.474 Y99.402 E.03167
;WIDTH:0.449781
G1 X120.898 Y100.106 E.0317
;WIDTH:0.448674
G1 X121.239 Y100.854 E.03162
;WIDTH:0.446594
G1 X121.497 Y101.653 E.03213
;WIDTH:0.443575
G1 X121.668 Y102.575 E.03561
;WIDTH:0.447605
G1 X121.722 Y103.26 E.02636
G1 X121.719 Y103.511 E.00963
;WIDTH:0.439151
G1 X121.664 Y104.345 E.03139
;WIDTH:0.449961
G1 X121.578 Y104.895 E.02148
G1 X121.368 Y105.689 E.03169
;WIDTH:0.449683
G1 X121.069 Y106.455 E.03171
;WIDTH:0.448437
G1 X120.686 Y107.181 E.03155
;WIDTH:0.446217
G1 X120.217 Y107.865 E.03171
;WIDTH:0.444642
G1 X119.573 Y108.583 E.03673
;WIDTH:0.440572
G1 X118.861 Y109.194 E.03537
;WIDTH:0.438984
G1 X118.166 Y109.658 E.03137
;WIDTH:0.449979
G1 X117.692 Y109.917 E.02084
G1 X116.935 Y110.236 E.0317
;WIDTH:0.449564
G1 X116.147 Y110.467 E.03165
;WIDTH:0.448177
G1 X115.337 Y110.607 E.03158
;WIDTH:0.445822
G1 X114.466 Y110.651 E.03331
;WIDTH:0.442706
G1 X113.531 Y110.578 E.03554
;WIDTH:0.440286
G1 X112.613 Y110.386 E.03533
;WIDTH:0.438836
G1 X111.821 Y110.117 E.03139
;WIDTH:0.449981
G1 X111.342 Y109.907 E.02018
G1 X110.695 Y109.542 E.02866
;WIDTH:0.449077
G1 X109.961 Y109.016 E.03477
G1 X109.358 Y108.463 E.0315
;WIDTH:0.445409
G1 X108.781 Y107.786 E.03394
;WIDTH:0.442302
G1 X108.283 Y107.024 E.03446
;WIDTH:0.44124
G1 X107.863 Y106.156 E.03641
;WIDTH:0.438706
G1 X107.595 Y105.363 E.0314
;WIDTH:0.449961
G1 X107.473 Y104.872 E.01952
G1 X107.36 Y104.084 E.03072
M204 S1000
G1 X106.966 Y104.081 F10800
M204 S800
;TYPE:External perimeter
;WIDTH:0.419999
G1 F1200
G1 X106.942 Y103.238 E.03014
G1 X107.016 Y102.374 E.031
M73 Q3 S13
G1 X107.188 Y101.525 E.03096
G1 X107.456 Y100.701 E.03097
G1 X107.815 Y99.913 E.03095
G1 X108.263 Y99.171 E.03098
G1 X108.792 Y98.484 E.03099
G1 X109.396 Y97.863 E.03096
M73 P3 R13
G1 X110.067 Y97.315 E.03097
G1 X110.796 Y96.846 E.03098
G1 X111.503 Y96.499 E.02815
G1 X112.391 Y96.172 E.03382
G1 X113.234 Y95.976 E.03094
G1 X114.094 Y95.877 E.03094
G1 X114.961 Y95.877 E.03099
G1 X115.744 Y95.967 E.02817
G1 X116.667 Y96.173 E.0338
G1 X117.482 Y96.464 E.03093
G1 X118.26 Y96.846 E.03098
G1 X118.989 Y97.315 E.03098
G1 X119.633 Y97.842 E.02974
G1 X119.927 Y98.138 E.01491
G1 X120.507 Y98.801 E.03149
G1 X120.81 Y99.2 E.01791
G1 X121.254 Y99.944 E.03097
G1 X121.61 Y100.733 E.03094
G1 X121.878 Y101.575 E.03158
G1 X122.054 Y102.541 E.0351
G1 X122.113 Y103.272 E.02621
G1 X122.089 Y104.104 E.02975
G1 X121.966 Y104.962 E.03098
G1 X121.746 Y105.8 E.03097
G1 X121.431 Y106.607 E.03096
G1 X121.027 Y107.374 E.03099
G1 X120.538 Y108.089 E.03096
G1 X119.97 Y108.744 E.03099
G1 X119.332 Y109.33 E.03096
G1 X118.631 Y109.839 E.03097
G1 X117.876 Y110.265 E.03099
G1 X117.078 Y110.602 E.03096
G1 X116.247 Y110.847 E.03097
G1 X115.393 Y110.994 E.03097
G1 X114.528 Y111.044 E.03097
G1 X113.663 Y110.994 E.03097
G1 X112.809 Y110.847 E.03097
G1 X111.977 Y110.602 E.031
G1 X111.179 Y110.265 E.03096
G1 X110.493 Y109.878 E.02815
G1 X109.723 Y109.329 E.0338
G1 X109.085 Y108.744 E.03094
G1 X108.518 Y108.089 E.03097
G1 X108.029 Y107.374 E.03096
G1 X107.624 Y106.607 E.031
G1 X107.31 Y105.8 E.03095
G1 X107.09 Y104.962 E.03097
G1 X106.971 Y104.14 E.02969
M204 S1000
G1 X106.956 Y103.74 F10800
G1 E-2 F2700
; stop printing object 1_bending_testing.STL id:0 copy 0
; printing object 1_bending_testing.STL id:1 copy 0
G1 X135.152 Y98.002 F10800
G1 E2 F1200
M204 S800
;TYPE:Perimeter
;WIDTH:0.448891
G1 X135.706 Y97.877 E.02186
;WIDTH:0.449861
G1 X136.473 Y97.791 E.02977
;WIDTH:0.450739
G1 X137.245 Y97.792 E.02984
G1 X137.783 Y97.836 E.02087
;WIDTH:0.439354
G1 X138.581 Y97.995 E.03058
;WIDTH:0.441551
G1 X139.425 Y98.275 E.0336
;WIDTH:0.444513
G1 X140.211 Y98.656 E.03325
;WIDTH:0.447288
G1 X140.858 Y99.078 E.02961
;WIDTH:0.449089
G1 X141.454 Y99.569 E.02973
;WIDTH:0.44992
G1 X141.991 Y100.124 E.02979
G1 X142.462 Y100.735 E.02976
;WIDTH:0.449781
G1 X142.739 Y101.161 E.0196
;WIDTH:0.439773
G1 X143.123 Y101.934 E.03247
;WIDTH:0.441915
G1 X143.415 Y102.773 E.0336
;WIDTH:0.444971
G1 X143.588 Y103.612 E.03265
;WIDTH:0.447605
G1 X143.649 Y104.383 E.02967
;WIDTH:0.449266
G1 X143.624 Y105.154 E.02971
;WIDTH:0.449961
G1 X143.513 Y105.918 E.02979
G1 X143.317 Y106.665 E.0298
;WIDTH:0.449683
G1 X143.143 Y107.159 E.02019
;WIDTH:0.440018
G1 X142.763 Y107.935 E.03252
;WIDTH:0.44243
G1 X142.288 Y108.657 E.03273
;WIDTH:0.445495
G1 X141.725 Y109.314 E.03302
;WIDTH:0.447902
G1 X141.153 Y109.832 E.02962
;WIDTH:0.449426
G1 X140.527 Y110.283 E.02973
;WIDTH:0.449979
G1 X139.854 Y110.662 E.0298
G1 X139.143 Y110.963 E.02979
;WIDTH:0.449564
G1 X138.654 Y111.124 E.01984
;WIDTH:0.440286
G1 X137.783 Y111.303 E.03349
;WIDTH:0.442704
G1 X136.896 Y111.367 E.0337
;WIDTH:0.445823
G1 X136.074 Y111.319 E.03145
;WIDTH:0.448179
G1 X135.314 Y111.183 E.02966
;WIDTH:0.449565
G1 X134.574 Y110.963 E.02976
;WIDTH:0.449981
G1 X133.863 Y110.662 E.02979
G1 X133.255 Y110.324 E.02684
;WIDTH:0.446579
G1 X132.772 Y109.997 E.02232
;WIDTH:0.440608
G1 X132.081 Y109.403 E.03435
;WIDTH:0.443134
G1 X131.489 Y108.737 E.0338
;WIDTH:0.44622
G1 X131.035 Y108.07 E.03085
;WIDTH:0.448808
G1 X130.678 Y107.384 E.02975
;WIDTH:0.449683
G1 X130.401 Y106.665 E.02971
;WIDTH:0.449961
G1 X130.205 Y105.918 E.0298
G1 X130.116 Y105.419 E.01956
;WIDTH:0.439151
G1 X130.063 Y104.607 E.03056
;WIDTH:0.440878
G1 X130.115 Y103.719 E.03356
;WIDTH:0.443576
G1 X130.282 Y102.846 E.03376
;WIDTH:0.446597
G1 X130.53 Y102.096 E.03023
;WIDTH:0.448676
G1 X130.855 Y101.395 E.02972
;WIDTH:0.449783
