; generated by PrusaSlicer 2.9.2 on 2026-01-14 at 17:05:50 UTC


;
;
; 

; external perimeters extrusion width = 0.60mm
; perimeters extrusion width = 0.50mm
; infill extrusion width = 0.50mm
; solid infill extrusion width = 0.50mm
; top infill extrusion width = 0.45mm
; first layer extrusion width = 0.42mm

; external perimeters extrusion width = 0.60mm
; perimeters extrusion width = 0.50mm
; infill extrusion width = 0.50mm
; solid infill extrusion width = 0.50mm
; top infill extrusion width = 0.45mm
; first layer extrusion width = 0.42mm

M73 P0 R11
M73 Q0 S11
M201 X1000 Y1000 Z200 E5000 ; sets maximum accelerations, mm/sec^2
M203 X200 Y200 Z12 E120 ; sets maximum feedrates, mm / sec
M204 S1250 T1250 ; sets acceleration (S) and retract acceleration (R), mm/sec^2
M205 X8.00 Y8.00 Z0.40 E4.50 ; sets the jerk limits, mm/sec
M205 S0 T0 ; sets the minimum extruding and travel feed rate, mm/sec

; printing object bending_testing.STL id:0 copy 0
; stop printing object bending_testing.STL id:0 copy 0
; printing object bending_testing.STL id:1 copy 0
; stop printing object bending_testing.STL id:1 copy 0

;TYPE:Custom
M862.3 P "MK3S" ; printer model check
M862.1 P0.4 ; nozzle diameter check
M115 U3.14.1 ; tell printer latest fw version
G90 ; use absolute coordinates
M83 ; extruder relative mode
M104 S235 ; set extruder temp
M140 S50 ; set bed temp
M190 S50 ; wait for bed temp
M109 S235 ; wait for extruder temp
G28 W ; home all without mesh bed level
G80 X114.249 Y83.254 W21.5018 H43.4826 ; mesh bed levelling

G1 Z0.2 F720
G1 Y-3 F1000 ; go outside print area
G92 E0
G1 X60 E9 F1000 ; intro line
G1 X100 E12.5 F1000 ; intro line
M73 P0 R10

G92 E0
M221 S95

; Don't change E values below. Excessive value can damage the printer.

M907 E538 ; set extruder motor current
G21 ; set units to millimeters
G90 ; use absolute coordinates
M83 ; use relative distances for extrusion
M900 K0 ; Filament gcode
M107
;LAYER_CHANGE
;Z:0.2
;HEIGHT:0.2
G1 E-2 F2700
M73 Q0 S10
G1 Z.2 F720
G1 X116.364 Y87.913 F10800
G1 Z.2 F720
M73 P1 R10
M73 Q1 S10
G1 E2 F1200
M204 S800
;TYPE:Skirt/Brim
;WIDTH:0.42
G1 X117.114 Y86.968 E.04312
G1 X117.966 Y86.115 E.04309
G1 X118.674 Y85.537 E.03267
G1 X119.679 Y84.871 E.04309
G1 X120.754 Y84.324 E.04311
G1 X121.884 Y83.903 E.0431
G1 X123.408 Y83.556 E.05587
G1 X124.543 Y83.443 E.04077
G1 X125.749 Y83.459 E.04311
G1 X127.009 Y83.628 E.04544
G1 X128.116 Y83.903 E.04077
G1 X128.976 Y84.21 E.03264
G1 X130.321 Y84.871 E.05357
G1 X131.326 Y85.537 E.04309
G1 X132.795 Y86.875 E.07102
G1 X133.635 Y87.913 E.04773
G1 X134.409 Y89.196 E.05356
G1 X134.895 Y90.3 E.04312
G1 X135.177 Y91.169 E.03266
G1 X135.433 Y92.347 E.04309
G1 X135.562 Y93.767 E.05097
G1 X135.561 Y115.832 E.78869
G1 X135.51 Y117.037 E.04311
G1 X135.322 Y118.228 E.0431
G1 X135.09 Y119.111 E.03263
G1 X134.668 Y120.241 E.04312
G1 X134.12 Y121.315 E.0431
G1 X133.453 Y122.32 E.04311
G1 X132.472 Y123.453 E.05357
G1 X131.572 Y124.256 E.04311
G1 X130.833 Y124.793 E.03265
G1 X129.791 Y125.4 E.0431
G1 X128.687 Y125.885 E.0431
G1 X127.535 Y126.241 E.0431
G1 X126.349 Y126.463 E.04313
G1 X124.854 Y126.548 E.05352
G1 X123.651 Y126.463 E.04311
G1 X122.751 Y126.307 E.03265
G1 X121.589 Y125.983 E.04312
G1 X120.209 Y125.4 E.05355
G1 X119.413 Y124.951 E.03267
G1 X118.428 Y124.256 E.04309
G1 X117.324 Y123.243 E.05356
G1 X116.726 Y122.552 E.03266
G1 X116.031 Y121.566 E.04312
G1 X115.332 Y120.241 E.05355
G1 X114.91 Y119.111 E.04312
G1 X114.62 Y117.941 E.04309
G1 X114.465 Y116.745 E.04311
G1 X114.439 Y115.832 E.03265
G1 X114.438 Y93.767 E.78869
G1 X114.525 Y92.637 E.04051
G1 X114.748 Y91.452 E.0431
G1 X115.105 Y90.3 E.04311
G1 X115.591 Y89.196 E.04312
G1 X116.334 Y87.964 E.05142
M204 S1000
G1 X116.654 Y88.158 F10800
M204 S800
G1 F1200
G1 X116.663 Y88.143 E.00063
G1 X117.385 Y87.231 E.04158
G1 X118.205 Y86.407 E.04155
G1 X118.912 Y85.829 E.03264
G1 X119.883 Y85.188 E.04159
G1 X120.92 Y84.662 E.04156
G1 X122.011 Y84.258 E.04158
G1 X123.84 Y83.886 E.06671
M73 Q2 S10
G1 X125.706 Y83.834 E.06672
G1 X126.923 Y83.995 E.04388
G1 X127.989 Y84.258 E.03925
M73 P2 R10
G1 X128.85 Y84.565 E.03267
G1 X130.117 Y85.188 E.05047
G1 X131.088 Y85.829 E.04159
G1 X132.525 Y87.137 E.06946
G1 X133.337 Y88.143 E.04621
G1 X134.066 Y89.353 E.05049
G1 X134.536 Y90.416 E.04154
G1 X134.819 Y91.285 E.03267
G1 X135.064 Y92.422 E.04157
G1 X135.185 Y93.767 E.04827
G1 X135.158 Y116.734 E.82093
G1 X135.007 Y117.887 E.04156
G1 X134.725 Y119.015 E.04156
G1 X134.316 Y120.104 E.04158
G1 X133.786 Y121.139 E.04156
G1 X133.142 Y122.107 E.04156
G1 X132.217 Y123.175 E.0505
G1 X131.351 Y123.951 E.04156
G1 X130.612 Y124.488 E.03265
G1 X129.606 Y125.072 E.04158
G1 X128.54 Y125.538 E.04158
G1 X127.185 Y125.936 E.05048
G1 X126.037 Y126.12 E.04156
G1 X124.875 Y126.172 E.04158
G1 X123.715 Y126.091 E.04156
G1 X122.571 Y125.879 E.04159
G1 X121.695 Y125.622 E.03263
G1 X120.394 Y125.072 E.05049
G1 X119.599 Y124.623 E.03264
G1 X118.65 Y123.951 E.04156
G1 X117.609 Y122.996 E.0505
G1 X117.011 Y122.305 E.03266
G1 X116.343 Y121.353 E.04157
G1 X115.787 Y120.332 E.04155
G1 X115.275 Y119.015 E.05051
G1 X114.993 Y117.887 E.04156
G1 X114.863 Y116.983 E.03264
G1 X114.816 Y115.821 E.04157
G1 X114.815 Y93.767 E.7883
G1 X114.901 Y92.669 E.03937
G1 X115.118 Y91.527 E.04155
G1 X115.464 Y90.416 E.04159
G1 X115.934 Y89.353 E.04154
G1 X116.623 Y88.209 E.04773
M204 S1000
G1 E-2 F2700
; printing object bending_testing.STL id:0 copy 0
G1 X130.409 Y89.909 F10800
G1 E2 F1200
M204 S800
;TYPE:Perimeter
;WIDTH:0.44992
G1 X130.603 Y90.161 E.01227
;WIDTH:0.449781
G1 X130.881 Y90.587 E.01962
;WIDTH:0.439773
G1 X131.264 Y91.36 E.03245
;WIDTH:0.441915
G1 X131.556 Y92.199 E.0336
;WIDTH:0.444971
G1 X131.729 Y93.038 E.03265
;WIDTH:0.447605
G1 X131.79 Y93.809 E.02967
;WIDTH:0.449266
G1 X131.765 Y94.58 E.02971
;WIDTH:0.449961
G1 X131.654 Y95.344 E.02979
G1 X131.493 Y95.983 E.02543
;WIDTH:0.445699
G1 X131.292 Y96.561 E.02336
;WIDTH:0.440019
G1 X130.905 Y97.361 E.03345
;WIDTH:0.442431
G1 X130.429 Y98.083 E.03275
;WIDTH:0.445495
G1 X129.866 Y98.74 E.03302
;WIDTH:0.4479
G1 X129.294 Y99.258 E.02962
;WIDTH:0.449424
G1 X128.668 Y99.709 E.02973
;WIDTH:0.44998
G1 X127.995 Y100.088 E.0298
G1 X127.285 Y100.389 E.02976
;WIDTH:0.449564
G1 X126.795 Y100.55 E.01988
;WIDTH:0.440286
G1 X125.924 Y100.729 E.03349
;WIDTH:0.442704
G1 X125.038 Y100.793 E.03366
;WIDTH:0.445823
G1 X124.216 Y100.745 E.03145
;WIDTH:0.448179
G1 X123.455 Y100.609 E.0297
;WIDTH:0.449565
G1 X122.715 Y100.389 E.02976
;WIDTH:0.449981
G1 X122.005 Y100.088 E.02976
G1 X121.428 Y99.77 E.02542
;WIDTH:0.445173
G1 X120.914 Y99.422 E.02367
;WIDTH:0.440608
G1 X120.222 Y98.829 E.03435
;WIDTH:0.443134
G1 X119.63 Y98.163 E.0338
;WIDTH:0.44622
G1 X119.176 Y97.496 E.03085
;WIDTH:0.448808
G1 X118.82 Y96.81 E.02974
;WIDTH:0.449683
G1 X118.542 Y96.091 E.02972
M73 Q3 S10
;WIDTH:0.449961
G1 X118.346 Y95.344 E.0298
G1 X118.257 Y94.845 E.01956
;WIDTH:0.439151
G1 X118.204 Y94.033 E.03056
;WIDTH:0.440878
G1 X118.256 Y93.145 E.03356
;WIDTH:0.443576
G1 X118.424 Y92.272 E.03376
;WIDTH:0.446597
G1 X118.672 Y91.522 E.03023
;WIDTH:0.448675
G1 X118.996 Y90.821 E.0297
M73 P3 R10
;WIDTH:0.449783
G1 X119.397 Y90.161 E.02978
;WIDTH:0.450768
G1 X119.87 Y89.55 E.02987
G1 X120.167 Y89.218 E.01722
;WIDTH:0.439339
G1 X120.833 Y88.626 E.03348
;WIDTH:0.441204
G1 X121.569 Y88.128 E.03355
;WIDTH:0.444109
G1 X122.262 Y87.779 E.02951
;WIDTH:0.446684
G1 X123.099 Y87.472 E.03412
;WIDTH:0.448891
G1 X123.847 Y87.303 E.02951
;WIDTH:0.449861
G1 X124.614 Y87.217 E.02977
;WIDTH:0.450739
G1 X125.387 Y87.218 E.02988
G1 X125.924 Y87.262 E.02083
;WIDTH:0.439547
G1 X126.723 Y87.421 E.03063
;WIDTH:0.441551
G1 X127.566 Y87.701 E.03357
;WIDTH:0.444513
G1 X128.352 Y88.082 E.03325
;WIDTH:0.447288
G1 X128.999 Y88.504 E.02961
;WIDTH:0.449089
G1 X129.595 Y88.995 E.02973
;WIDTH:0.44992
G1 X130.132 Y89.55 E.02979
G1 X130.372 Y89.861 E.01516
M204 S1000
G1 X130.083 Y90.127 F10800
M204 S800
;TYPE:External perimeter
;WIDTH:0.419999
G1 F1200
G1 X130.277 Y90.379 E.01137
G1 X130.557 Y90.801 E.0181
G1 X130.917 Y91.531 E.02909
G1 X131.188 Y92.324 E.02995
G1 X131.347 Y93.114 E.0288
G1 X131.4 Y93.834 E.02581
G1 X131.374 Y94.555 E.02579
G1 X131.269 Y95.268 E.02576
G1 X131.124 Y95.857 E.02168
G1 X130.927 Y96.437 E.02189
G1 X130.557 Y97.189 E.02996
G1 X130.106 Y97.867 E.02911
G1 X129.572 Y98.484 E.02917
G1 X129.036 Y98.964 E.02572
G1 X128.45 Y99.383 E.02575
G1 X127.822 Y99.736 E.02575
G1 X127.159 Y100.018 E.02575
G1 X126.671 Y100.184 E.01842
G1 X125.849 Y100.349 E.02997
G1 X125.012 Y100.405 E.02998
G1 X124.241 Y100.356 E.02761
G1 X123.532 Y100.225 E.02577
G1 X122.841 Y100.018 E.02578
G1 X122.178 Y99.736 E.02575
G1 X121.644 Y99.446 E.02172
G1 X121.128 Y99.102 E.02217
G1 X120.477 Y98.537 E.03081
G1 X119.922 Y97.907 E.03001
G1 X119.501 Y97.279 E.02702
G1 X119.17 Y96.636 E.02585
G1 X118.913 Y95.965 E.02568
G1 X118.731 Y95.268 E.02575
G1 X118.626 Y94.555 E.02576
G1 X118.59 Y94.007 E.01963
G1 X118.643 Y93.171 E.02994
G1 X118.805 Y92.348 E.02998
G1 X119.041 Y91.647 E.02644
G1 X119.347 Y90.994 E.02578
G1 X119.723 Y90.379 E.02577
G1 X120.166 Y89.808 E.02583
G1 X120.458 Y89.472 E.01591
G1 X121.088 Y88.917 E.03001
G1 X121.784 Y88.45 E.02996
G1 X122.434 Y88.128 E.02593
G1 X123.225 Y87.842 E.03006
G1 X123.923 Y87.687 E.02556
G1 X124.64 Y87.608 E.02578
G1 X125.362 Y87.61 E.02581
G1 X126.077 Y87.687 E.0257
G1 X126.647 Y87.8 E.02077
G1 X127.442 Y88.068 E.02999
G1 X128.18 Y88.431 E.0294
G1 X128.782 Y88.829 E.0258
G1 X129.337 Y89.29 E.02579
G1 X129.837 Y89.808 E.02573
G1 X130.046 Y90.079 E.01223
M204 S1000
G1 X130.287 Y90.399 F10800
G1 E-2 F2700
G1 X129.509 Y99.584 F10800
G1 E2 F1200
M204 S800
;TYPE:Perimeter
;WIDTH:0.440571
G1 X129.334 Y99.734 E.00869
;WIDTH:0.438982
G1 X128.638 Y100.199 E.03143
;WIDTH:0.44998
G1 X128.165 Y100.458 E.02081
G1 X127.407 Y100.777 E.03173
;WIDTH:0.449564
G1 X126.619 Y101.008 E.03165
;WIDTH:0.448177
G1 X125.809 Y101.148 E.03158
;WIDTH:0.445822
G1 X124.938 Y101.192 E.03331
;WIDTH:0.442706
G1 X124.003 Y101.119 E.03554
;WIDTH:0.440287
G1 X123.085 Y100.927 E.03533
;WIDTH:0.438836
G1 X122.294 Y100.658 E.03136
;WIDTH:0.449981
G1 X121.815 Y100.448 E.02018
G1 X121.2 Y100.102 E.02723
;WIDTH:0.449056
G1 X120.432 Y99.555 E.0363
G1 X119.83 Y99.004 E.03142
;WIDTH:0.445409
G1 X119.253 Y98.327 E.03394
;WIDTH:0.442302
G1 X118.755 Y97.565 E.03446
;WIDTH:0.44124
G1 X118.335 Y96.696 E.03644
;WIDTH:0.438706
G1 X118.067 Y95.904 E.03137
;WIDTH:0.449961
G1 X117.945 Y95.413 E.01952
G1 X117.829 Y94.599 E.03172
;WIDTH:0.449267
G1 X117.806 Y93.778 E.03164
;WIDTH:0.447605
G1 X117.876 Y92.959 E.03153
;WIDTH:0.444971
G1 X118.065 Y92.074 E.03449
;WIDTH:0.441917
G1 X118.377 Y91.189 E.03549
;WIDTH:0.439775
G1 X118.8 Y90.353 E.03525
;WIDTH:0.439343
G1 X119.25 Y89.677 E.03052
;WIDTH:0.450768
G1 X119.57 Y89.274 E.01989
G1 X120.143 Y88.685 E.03177
;WIDTH:0.44909
G1 X120.779 Y88.166 E.03161
;WIDTH:0.447289
G1 X121.47 Y87.721 E.0315
;WIDTH:0.444514
G1 X122.303 Y87.333 E.03498
;WIDTH:0.439547
G1 X123.194 Y87.033 E.03535
G1 X124.077 Y86.863 E.03381
;WIDTH:0.449861
G1 X124.601 Y86.81 E.02032
;WIDTH:0.450739
G1 X125.422 Y86.812 E.03174
G1 X126.239 Y86.906 E.03179
;WIDTH:0.448891
G1 X127.039 Y87.092 E.03161
;WIDTH:0.446952
G1 X127.814 Y87.369 E.03152
;WIDTH:0.444041
G1 X128.649 Y87.795 E.03564
;WIDTH:0.441203
G1 X129.423 Y88.324 E.03539
;WIDTH:0.439338
G1 X130.095 Y88.92 E.03375
;WIDTH:0.44992
G1 X130.446 Y89.292 E.01973
G1 X130.947 Y89.943 E.03169
;WIDTH:0.449781
G1 X131.37 Y90.647 E.03168
;WIDTH:0.448674
G1 X131.711 Y91.394 E.03158
;WIDTH:0.446594
G1 X131.969 Y92.193 E.03213
;WIDTH:0.443575
G1 X132.14 Y93.115 E.03561
;WIDTH:0.447605
G1 X132.195 Y93.801 E.0264
G1 X132.192 Y94.051 E.00959
;WIDTH:0.439151
G1 X132.136 Y94.886 E.03143
;WIDTH:0.449961
G1 X132.05 Y95.436 E.02148
G1 X131.872 Y96.118 E.0272
;WIDTH:0.448362
G1 X131.539 Y97 E.03623
G1 X131.158 Y97.722 E.03137
;WIDTH:0.446218
G1 X130.689 Y98.405 E.03167
;WIDTH:0.444644
G1 X130.045 Y99.124 E.03676
;WIDTH:0.440571
G1 X129.555 Y99.544 E.02433
M204 S1000
G1 X129.785 Y99.884 F10800
M204 S800
;TYPE:External perimeter
;WIDTH:0.419999
G1 F1200
G1 X129.103 Y100.38 E.03014
G1 X128.349 Y100.806 E.03095
G1 X127.55 Y101.143 E.031
G1 X126.719 Y101.387 E.03096
G1 X125.865 Y101.535 E.03098
G1 X125 Y101.584 E.03097
G1 X124.135 Y101.535 E.03097
G1 X123.281 Y101.387 E.03098
G1 X122.45 Y101.143 E.03096
G1 X121.651 Y100.806 E.031
G1 X120.999 Y100.437 E.02678
G1 X120.195 Y99.869 E.03519
G1 X119.557 Y99.284 E.03094
G1 X118.99 Y98.63 E.03094
G1 X118.501 Y97.914 E.03099
G1 X118.096 Y97.148 E.03097
G1 X117.782 Y96.34 E.03099
G1 X117.562 Y95.502 E.03097
G1 X117.439 Y94.645 E.03095
G1 X117.414 Y93.778 E.031
G1 X117.488 Y92.915 E.03096
G1 X117.66 Y92.066 E.03096
G1 X117.928 Y91.242 E.03097
M73 Q4 S10
G1 X118.288 Y90.453 E.031
G1 X118.735 Y89.711 E.03096
G1 X119.264 Y89.025 E.03096
G1 X119.868 Y88.404 E.03096
G1 X120.539 Y87.855 E.03099
M73 P4 R10
G1 X121.268 Y87.387 E.03096
G1 X121.94 Y87.056 E.02678
G1 X122.863 Y86.713 E.0352
G1 X123.706 Y86.517 E.03094
G1 X124.567 Y86.418 E.03098
G1 X125.433 Y86.418 E.03095
G1 X126.294 Y86.517 E.03098
G1 X127.138 Y86.713 E.03097
G1 X127.954 Y87.004 E.03097
G1 X128.732 Y87.387 E.031
G1 X129.461 Y87.855 E.03096
G1 X130.105 Y88.382 E.02974
G1 X130.399 Y88.679 E.01494
G1 X130.98 Y89.341 E.03148
G1 X131.282 Y89.741 E.01791
G1 X131.726 Y90.484 E.03094
G1 X132.083 Y91.274 E.03099
G1 X132.35 Y92.116 E.03157
G1 X132.526 Y93.082 E.0351
G1 X132.585 Y93.812 E.02618
G1 X132.561 Y94.645 E.02979
G1 X132.438 Y95.502 E.03095
G1 X132.248 Y96.227 E.02679
G1 X131.903 Y97.149 E.03519
G1 X131.499 Y97.914 E.03092
G1 X131.01 Y98.63 E.03099
G1 X130.443 Y99.284 E.03094
G1 X129.831 Y99.846 E.0297
M204 S1000
G1 X129.51 Y100.084 F10800
G1 E-2 F2700
; stop printing object bending_testing.STL id:0 copy 0
; printing object bending_testing.STL id:1 copy 0
G1 X130.409 Y111.901 F10800
G1 E2 F1200
M204 S800
;TYPE:Perimeter
;WIDTH:0.44992
G1 X130.603 Y112.153 E.01227
;WIDTH:0.449781
G1 X130.881 Y112.579 E.01962
;WIDTH:0.439773
G1 X131.264 Y113.351 E.03242
;WIDTH:0.441915
G1 X131.556 Y114.191 E.03363
;WIDTH:0.444971
G1 X131.729 Y115.03 E.03265
;WIDTH:0.447605
G1 X131.79 Y115.8 E.02963
;WIDTH:0.449266
G1 X131.765 Y116.572 E.02975
;WIDTH:0.449961
G1 X131.654 Y117.336 E.02979
G1 X131.493 Y117.975 E.02543
;WIDTH:0.445699
G1 X131.292 Y118.552 E.02333
;WIDTH:0.440019
G1 X130.905 Y119.353 E.03349
;WIDTH:0.442431
G1 X130.429 Y120.075 E.03275
;WIDTH:0.445495
G1 X129.866 Y120.731 E.03299
;WIDTH:0.4479
G1 X129.294 Y121.25 E.02965
;WIDTH:0.449424
G1 X128.668 Y121.701 E.02973
;WIDTH:0.44998
G1 X127.995 Y122.08 E.0298
G1 X127.285 Y122.381 E.02976
;WIDTH:0.449564
G1 X126.795 Y122.541 E.01987
;WIDTH:0.440286
G1 X125.924 Y122.72 E.03349
;WIDTH:0.442704
G1 X125.038 Y122.785 E.03367
;WIDTH:0.445823
G1 X124.216 Y122.737 E.03145
;WIDTH:0.448179
G1 X123.455 Y122.601 E.0297
;WIDTH:0.449565
G1 X122.715 Y122.381 E.02976
;WIDTH:0.449981
G1 X122.005 Y122.08 E.02976
G1 X121.428 Y121.762 E.02542
;WIDTH:0.445173
G1 X120.914 Y121.414 E.02367
;WIDTH:0.440608
G1 X120.222 Y120.821 E.03435
;WIDTH:0.443134
G1 X119.63 Y120.155 E.0338
;WIDTH:0.44622
G1 X119.176 Y119.488 E.03085
;WIDTH:0.448808
G1 X118.82 Y118.802 E.02974
;WIDTH:0.449683
G1 X118.542 Y118.083 E.02972
;WIDTH:0.449961
G1 X118.346 Y117.336 E.0298
G1 X118.257 Y116.837 E.01956
;WIDTH:0.439151
G1 X118.204 Y116.025 E.03056
;WIDTH:0.440878
G1 X118.256 Y115.137 E.03356
;WIDTH:0.443576
G1 X118.424 Y114.264 E.03376
;WIDTH:0.446597
G1 X118.672 Y113.514 E.03023
;WIDTH:0.448675
G1 X118.996 Y112.813 E.0297
;WIDTH:0.449783
G1 X119.397 Y112.153 E.02978
;WIDTH:0.450768
G1 X119.87 Y111.542 E.02987
G1 X120.167 Y111.21 E.01722
;WIDTH:0.439339
G1 X120.833 Y110.618 E.03348
;WIDTH:0.441204
G1 X121.569 Y110.119 E.03357
;WIDTH:0.444109
G1 X122.262 Y109.77 E.02951
;WIDTH:0.446684
G1 X123.099 Y109.464 E.03411
;WIDTH:0.448891
G1 X123.847 Y109.295 E.02951
;WIDTH:0.449861
G1 X124.614 Y109.209 E.02977
;WIDTH:0.450739
G1 X125.387 Y109.21 E.02988
G1 X125.924 Y109.254 E.02083
;WIDTH:0.439547
G1 X126.723 Y109.413 E.03063
;WIDTH:0.441551
G1 X127.566 Y109.693 E.03357
;WIDTH:0.444513
