; generated by PrusaSlicer 2.9.2 on 2026-01-14 at 16:38:49 UTC


;
;
; 

; external perimeters extrusion width = 0.45mm
; perimeters extrusion width = 0.45mm
; infill extrusion width = 0.45mm
; solid infill extrusion width = 0.45mm
; top infill extrusion width = 0.40mm
; first layer extrusion width = 0.42mm

M73 P0 R36
M73 Q0 S37
M201 X1000 Y1000 Z200 E5000 ; sets maximum accelerations, mm/sec^2
M203 X200 Y200 Z12 E120 ; sets maximum feedrates, mm / sec
M204 S1250 T1250 ; sets acceleration (S) and retract acceleration (R), mm/sec^2
M205 X8.00 Y8.00 Z0.40 E4.50 ; sets the jerk limits, mm/sec
M205 S0 T0 ; sets the minimum extruding and travel feed rate, mm/sec

; printing object channel_Testing.STL id:0 copy 0
; stop printing object channel_Testing.STL id:0 copy 0

;TYPE:Custom
M862.3 P "MK3S" ; printer model check
M862.1 P0.4 ; nozzle diameter check
M115 U3.14.1 ; tell printer latest fw version
G90 ; use absolute coordinates
M83 ; extruder relative mode
M104 S235 ; set extruder temp
M140 S50 ; set bed temp
M190 S50 ; wait for bed temp
M109 S235 ; wait for extruder temp
G28 W ; home all without mesh bed level
G80 X80.8454 Y98.9969 W86.7542 H7.75416 ; mesh bed levelling

G1 Z0.2 F720
G1 Y-3 F1000 ; go outside print area
G92 E0
G1 X60 E9 F1000 ; intro line
G1 X100 E12.5 F1000 ; intro line
M73 Q0 S36

G92 E0
M221 S95

; Don't change E values below. Excessive value can damage the printer.
M907 E430 ; set extruder motor current
G21 ; set units to millimeters
G90 ; use absolute coordinates
M83 ; use relative distances for extrusion
M900 K0 ; Filament gcode
M107
;LAYER_CHANGE
;Z:0.2
;HEIGHT:0.2
G1 E-2 F2700
G1 Z.2 F720
G1 X81.425 Y100.126 F10800
G1 Z.2 F720
G1 E2 F1200
M204 S800
;TYPE:Skirt/Brim
;WIDTH:0.42
G1 X82.458 Y99.323 E.04677
G1 X83.222 Y99.185 E.02775
G1 X165.222 Y99.185 E2.931
G1 X166.471 Y99.576 E.04678
G1 X167.273 Y100.609 E.04675
G1 X167.411 Y101.374 E.02779
G1 X167.411 Y104.374 E.10723
G1 X167.02 Y105.622 E.04675
G1 X165.987 Y106.425 E.04677
G1 X165.222 Y106.563 E.02779
G1 X83.222 Y106.563 E2.931
G1 X81.974 Y106.172 E.04675
G1 X81.172 Y105.139 E.04675
G1 X81.034 Y104.374 E.02779
G1 X81.034 Y101.374 E.10723
G1 X81.407 Y100.183 E.04461
M204 S1000
G1 E-2 F2700
; printing object channel_Testing.STL id:0 copy 0
G1 X84.46 Y103.136 F10800
G1 E2 F1200
M204 S800
;TYPE:Perimeter
;WIDTH:0.567302
G1 F1029.784
G1 X84.46 Y102.612 E.02605
G1 X163.985 Y102.612 E3.95294
G1 X163.985 Y102.874 E.01302
G1 X163.985 Y103.136 E.01302
G1 X84.52 Y103.136 E3.94996
M204 S1000
G1 X84.01 Y103.587 F10800
M73 P1 R36
M73 Q1 S36
M204 S800
;WIDTH:0.419999
G1 F1200
G1 X84.01 Y102.161 E.05097
G1 X164.435 Y102.161 E2.8747
G1 X164.435 Y102.874 E.02549
G1 X164.435 Y103.587 E.02549
G1 X84.07 Y103.587 E2.87255
M204 S1000
G1 X83.632 Y103.964 F10800
M204 S800
;TYPE:External perimeter
G1 F1200
G1 X83.632 Y101.784 E.07792
G1 X164.812 Y101.784 E2.90168
G1 X164.812 Y102.874 E.03896
G1 X164.812 Y103.964 E.03896
G1 X83.692 Y103.964 E2.89954
M204 S1000
G1 X83.633 Y103.568 F10800
M73 P1 R35
;LAYER_CHANGE
;Z:0.3
;HEIGHT:0.1
;BEFORE_LAYER_CHANGE
G92 E0.0
;0.3


G1 E-2 F2700
G1 Z.3 F720
;AFTER_LAYER_CHANGE
;0.3
; stop printing object channel_Testing.STL id:0 copy 0
G1 Z.3
G1 X81.034 Y103.568 F10800
G1 E2 F1200
;TYPE:Skirt/Brim
;WIDTH:0.42
G1 F2709.892
G1 X81.034 Y101.374 E.04144
G1 X81.425 Y100.126 E.0247
G1 X82.458 Y99.323 E.02471
G1 X83.222 Y99.185 E.01466
G1 X165.222 Y99.185 E1.5489
G1 X166.471 Y99.576 E.02472
M73 P2 R35
M73 Q2 S36
G1 X167.273 Y100.609 E.0247
G1 X167.411 Y101.374 E.01468
G1 X167.411 Y104.374 E.05667
G1 X167.02 Y105.622 E.0247
G1 X165.987 Y106.425 E.02471
G1 X165.222 Y106.563 E.01468
G1 X83.222 Y106.563 E1.5489
G1 X81.974 Y106.172 E.0247
G1 X81.172 Y105.139 E.0247
G1 X81.034 Y104.374 E.01468
G1 X81.034 Y103.628 E.01409
G1 E-2 F2700
; printing object channel_Testing.STL id:0 copy 0
G1 X84.406 Y103.19 F10800
G1 E2 F1200
M204 S600
;TYPE:Perimeter
;WIDTH:0.653652
G1 F1708.342
G1 X84.406 Y102.558 E.01894
G1 X164.039 Y102.558 E2.38606
G1 X164.039 Y103.19 E.01894
G1 X84.466 Y103.19 E2.38426
M204 S1000
G1 X83.876 Y103.72 F10800
M204 S600
;WIDTH:0.449999
G1 F1924.576
G1 X83.876 Y102.027 E.03439
G1 F2520.191
G1 X164.569 Y102.027 E1.63895
G1 F1943.675
G1 X164.569 Y103.72 E.03439
G1 F2520.191
G1 X83.936 Y103.72 E1.63773
M204 S1000
G1 X83.447 Y104.149 F10800
M204 S600
;TYPE:External perimeter
G1 F1500
G1 X83.447 Y101.599 E.05179
G1 X84.122 Y101.599 E.01371
G1 X164.322 Y101.599 E1.62893
G1 X164.997 Y101.599 E.01371
M73 Q2 S35
G1 X164.997 Y104.149 E.05179
G1 X164.322 Y104.149 E.01371
G1 X84.122 Y104.149 E1.62893
G1 X83.507 Y104.149 E.01249
M204 S1000
G1 X83.448 Y103.753 F10800
;LAYER_CHANGE
;Z:0.4
;HEIGHT:0.1
;BEFORE_LAYER_CHANGE
G92 E0.0
;0.4


G1 E-2 F2700
G1 Z.4 F720
;AFTER_LAYER_CHANGE
;0.4
; stop printing object channel_Testing.STL id:0 copy 0
G1 Z.4
G1 X81.034 Y103.753 F10800
G1 E2 F1200
;TYPE:Skirt/Brim
;WIDTH:0.42
G1 F2709.892
G1 X81.034 Y101.374 E.04494
G1 X81.425 Y100.126 E.0247
G1 X82.458 Y99.323 E.02471
G1 X83.222 Y99.185 E.01466
G1 X165.222 Y99.185 E1.5489
G1 X166.471 Y99.576 E.02472
M73 P3 R35
M73 Q3 S35
G1 X167.273 Y100.609 E.0247
G1 X167.411 Y101.374 E.01468
G1 X167.411 Y104.374 E.05667
G1 X167.02 Y105.622 E.0247
G1 X165.987 Y106.425 E.02471
G1 X165.222 Y106.563 E.01468
G1 X83.222 Y106.563 E1.5489
G1 X81.974 Y106.172 E.0247
G1 X81.172 Y105.139 E.0247
G1 X81.034 Y104.374 E.01468
G1 X81.034 Y103.813 E.0106
G1 E-2 F2700
; printing object channel_Testing.STL id:0 copy 0
G1 X84.406 Y103.19 F10800
G1 E2 F1200
M204 S600
;TYPE:Perimeter
;WIDTH:0.653652
G1 F1708.342
G1 X84.406 Y102.558 E.01894
G1 X164.039 Y102.558 E2.38606
G1 X164.039 Y103.19 E.01894
G1 X84.466 Y103.19 E2.38426
M204 S1000
G1 X83.876 Y103.72 F10800
M204 S600
;WIDTH:0.449999
G1 F2219.274
G1 X83.876 Y102.027 E.03439
G1 F2520.191
G1 X164.569 Y102.027 E1.63895
G1 F2238.373
G1 X164.569 Y103.72 E.03439
G1 F2520.191
G1 X83.936 Y103.72 E1.63773
M204 S1000
G1 X83.447 Y104.149 F10800
M204 S600
;TYPE:External perimeter
G1 F1500
G1 X83.447 Y101.599 E.05179
G1 X84.122 Y101.599 E.01371
G1 X164.322 Y101.599 E1.62893
G1 X164.997 Y101.599 E.01371
G1 X164.997 Y104.149 E.05179
G1 X164.322 Y104.149 E.01371
G1 X84.122 Y104.149 E1.62893
G1 X83.507 Y104.149 E.01249
M204 S1000
G1 X83.448 Y103.753 F10800
;LAYER_CHANGE
;Z:0.5
;HEIGHT:0.1
;BEFORE_LAYER_CHANGE
G92 E0.0
;0.5


G1 E-2 F2700
G1 Z.5 F720
;AFTER_LAYER_CHANGE
;0.5
G1 Z.5
G1 X84.406 Y103.19 F10800
G1 E2 F1200
M204 S600
;TYPE:Perimeter
;WIDTH:0.653652
G1 F1708.342
G1 X84.406 Y102.558 E.01894
G1 X164.039 Y102.558 E2.38606
G1 X164.039 Y103.19 E.01894
M73 P4 R35
M73 Q4 S35
G1 X84.466 Y103.19 E2.38426
M204 S1000
G1 X83.876 Y103.72 F10800
M204 S600
;WIDTH:0.449999
G1 F2520.191
G1 X83.876 Y102.027 E.03439
G1 X164.569 Y102.027 E1.63895
G1 X164.569 Y103.72 E.03439
G1 X83.936 Y103.72 E1.63773
M204 S1000
G1 X83.447 Y104.149 F10800
M204 S600
;TYPE:External perimeter
G1 F1500
G1 X83.447 Y101.599 E.05179
G1 X164.997 Y101.599 E1.65635
G1 X164.997 Y104.149 E.05179
G1 X83.507 Y104.149 E1.65514
M204 S1000
G1 X83.448 Y103.753 F10800
M73 P4 R34
M106 S102
;LAYER_CHANGE
;Z:0.6
;HEIGHT:0.1
;BEFORE_LAYER_CHANGE
G92 E0.0
;0.6


G1 E-2 F2700
G1 Z.6 F720
;AFTER_LAYER_CHANGE
;0.6
G1 Z.6
G1 X84.406 Y103.19 F10800
G1 E2 F1200
M204 S600
;TYPE:Perimeter
;WIDTH:0.653652
G1 F1708.342
G1 X84.406 Y102.558 E.01894
G1 X164.039 Y102.558 E2.38606
G1 X164.039 Y103.19 E.01894
G1 X84.466 Y103.19 E2.38426
M204 S1000
G1 X83.876 Y103.72 F10800
M204 S600
;WIDTH:0.449999
G1 F2520.191
G1 X83.876 Y102.027 E.03439
G1 X164.569 Y102.027 E1.63895
G1 X164.569 Y103.72 E.03439
M73 P5 R34
M73 Q5 S35
G1 X83.936 Y103.72 E1.63773
M204 S1000
G1 X83.447 Y104.149 F10800
M204 S600
;TYPE:External perimeter
G1 F1500
G1 X83.447 Y101.599 E.05179
G1 X164.997 Y101.599 E1.65635
G1 X164.997 Y104.149 E.05179
G1 X83.507 Y104.149 E1.65514
M204 S1000
G1 X83.448 Y103.753 F10800
M106 S204
;LAYER_CHANGE
;Z:0.7
;HEIGHT:0.1
;BEFORE_LAYER_CHANGE
G92 E0.0
;0.7


G1 E-2 F2700
G1 Z.7 F720
;AFTER_LAYER_CHANGE
;0.7
G1 Z.7
G1 X84.406 Y103.19 F10800
G1 E2 F1200
M204 S600
;TYPE:Perimeter
;WIDTH:0.653652
G1 F1708.342
G1 X84.406 Y102.558 E.01894
G1 X164.039 Y102.558 E2.38606
G1 X164.039 Y103.19 E.01894
M73 Q5 S34
G1 X84.466 Y103.19 E2.38426
M204 S1000
G1 X83.876 Y103.72 F10800
M204 S600
;WIDTH:0.449999
G1 F2520.191
G1 X83.876 Y102.027 E.03439
G1 X164.569 Y102.027 E1.63895
G1 X164.569 Y103.72 E.03439
G1 X83.936 Y103.72 E1.63773
M204 S1000
G1 X83.447 Y104.149 F10800
M204 S600
;TYPE:External perimeter
G1 F1500
G1 X83.447 Y101.599 E.05179
G1 X164.997 Y101.599 E1.65635
G1 X164.997 Y104.149 E.05179
M73 P6 R34
M73 Q6 S34
G1 X83.507 Y104.149 E1.65514
M204 S1000
G1 X83.448 Y103.753 F10800
;LAYER_CHANGE
;Z:0.8
;HEIGHT:0.1
;BEFORE_LAYER_CHANGE
G92 E0.0
;0.8


G1 E-2 F2700
G1 Z.8 F720
;AFTER_LAYER_CHANGE
;0.8
G1 Z.8
G1 X84.406 Y103.19 F10800
G1 E2 F1200
M204 S600
;TYPE:Perimeter
;WIDTH:0.653652
G1 F1708.342
G1 X84.406 Y102.558 E.01894
G1 X164.039 Y102.558 E2.38606
G1 X164.039 Y103.19 E.01894
G1 X84.466 Y103.19 E2.38426
M204 S1000
G1 X83.876 Y103.72 F10800
M204 S600
;WIDTH:0.449999
G1 F2520.191
G1 X83.876 Y102.027 E.03439
G1 X164.569 Y102.027 E1.63895
G1 X164.569 Y103.72 E.03439
G1 X83.936 Y103.72 E1.63773
M204 S1000
G1 X83.447 Y104.149 F10800
M204 S600
;TYPE:External perimeter
G1 F1500
G1 X83.447 Y101.599 E.05179
G1 X164.997 Y101.599 E1.65635
G1 X164.997 Y104.149 E.05179
G1 X83.507 Y104.149 E1.65514
M204 S1000
G1 X83.448 Y103.753 F10800
;LAYER_CHANGE
;Z:0.9
;HEIGHT:0.1
;BEFORE_LAYER_CHANGE
G92 E0.0
;0.9


G1 E-2 F2700
G1 Z.9 F720
;AFTER_LAYER_CHANGE
;0.9
G1 Z.9
G1 X84.406 Y103.19 F10800
G1 E2 F1200
M73 P7 R34
M204 S600
;TYPE:Perimeter
;WIDTH:0.653652
G1 F1708.342
G1 X84.406 Y102.558 E.01894
G1 X164.039 Y102.558 E2.38606
G1 X164.039 Y103.19 E.01894
M73 Q7 S34
G1 X84.466 Y103.19 E2.38426
M204 S1000
G1 X83.876 Y103.72 F10800
M204 S600
;WIDTH:0.449999
G1 F2520.191
G1 X83.876 Y102.027 E.03439
G1 X164.569 Y102.028 E1.63895
G1 X164.569 Y103.72 E.03437
M73 P7 R33
G1 X83.936 Y103.72 E1.63773
M204 S1000
G1 X83.447 Y104.149 F10800
M204 S600
;TYPE:External perimeter
G1 F1500
G1 X83.447 Y101.599 E.05179
G1 X164.997 Y101.599 E1.65635
G1 X164.997 Y104.149 E.05179
G1 X83.507 Y104.149 E1.65514
M204 S1000
G1 X83.448 Y103.753 F10800
;LAYER_CHANGE
;Z:1
;HEIGHT:0.1
;BEFORE_LAYER_CHANGE
G92 E0.0
;1


G1 E-2 F2700
G1 Z1 F720
;AFTER_LAYER_CHANGE
;1
G1 Z1
G1 X84.406 Y103.19 F10800
G1 E2 F1200
M204 S600
;TYPE:Perimeter
;WIDTH:0.653652
G1 F1708.342
G1 X84.406 Y102.558 E.01894
G1 X164.039 Y102.558 E2.38606
G1 X164.039 Y103.19 E.01894
G1 X84.466 Y103.19 E2.38426
M204 S1000
G1 X83.876 Y103.72 F10800
M73 P8 R33
M204 S600
;WIDTH:0.449999
G1 F2520.191
G1 X83.876 Y102.027 E.03439
G1 X164.569 Y102.027 E1.63895
G1 X164.569 Y103.72 E.03439
M73 Q8 S34
G1 X83.936 Y103.72 E1.63773
M204 S1000
G1 X83.447 Y104.149 F10800
M73 Q8 S33
M204 S600
;TYPE:External perimeter
G1 F1500
G1 X83.447 Y101.599 E.05179
G1 X164.997 Y101.599 E1.65635
G1 X164.997 Y104.149 E.05179
G1 X83.507 Y104.149 E1.65514
M204 S1000
G1 X83.448 Y103.753 F10800
;LAYER_CHANGE
;Z:1.1
;HEIGHT:0.1
;BEFORE_LAYER_CHANGE
G92 E0.0
;1.1


G1 E-2 F2700
G1 Z1.1 F720
;AFTER_LAYER_CHANGE
;1.1
G1 Z1.1
G1 X84.406 Y103.19 F10800
G1 E2 F1200
M204 S600
;TYPE:Perimeter
;WIDTH:0.653652
G1 F1708.342
G1 X84.406 Y102.558 E.01894
G1 X164.039 Y102.558 E2.38606
G1 X164.039 Y103.19 E.01894
G1 X84.466 Y103.19 E2.38426
M204 S1000
G1 X83.876 Y103.72 F10800
M204 S600
;WIDTH:0.449999
G1 F2520.191
G1 X83.876 Y102.027 E.03439
G1 X164.569 Y102.027 E1.63895
G1 X164.569 Y103.72 E.03439
G1 X83.936 Y103.72 E1.63773
M204 S1000
G1 X83.447 Y104.149 F10800
M73 P9 R33
M204 S600
;TYPE:External perimeter
G1 F1500
G1 X83.447 Y101.599 E.05179
G1 X164.997 Y101.599 E1.65635
G1 X164.997 Y104.149 E.05179
M73 Q9 S33
G1 X83.507 Y104.149 E1.65514
M204 S1000
G1 X83.448 Y103.753 F10800
;LAYER_CHANGE
;Z:1.2
;HEIGHT:0.1
;BEFORE_LAYER_CHANGE
G92 E0.0
;1.2


G1 E-2 F2700
G1 Z1.2 F720
;AFTER_LAYER_CHANGE
;1.2
G1 Z1.2
G1 X84.406 Y103.19 F10800
G1 E2 F1200
M204 S600
;TYPE:Perimeter
;WIDTH:0.653652
G1 F1708.342
G1 X84.406 Y102.558 E.01894
G1 X164.039 Y102.558 E2.38606
G1 X164.039 Y103.19 E.01894
G1 X84.466 Y103.19 E2.38426
M204 S1000
G1 X83.876 Y103.72 F10800
M204 S600
;WIDTH:0.449999
G1 F2520.191
G1 X83.876 Y102.027 E.03439
G1 X164.569 Y102.027 E1.63895
G1 X164.569 Y103.72 E.03439
G1 X83.936 Y103.72 E1.63773
M204 S1000
G1 X83.447 Y104.149 F10800
M204 S600
;TYPE:External perimeter
G1 F1500
G1 X83.447 Y101.599 E.05179
G1 X164.997 Y101.599 E1.65635
G1 X164.997 Y104.149 E.05179
G1 X83.507 Y104.149 E1.65514
M204 S1000
G1 X83.448 Y103.753 F10800
M73 P10 R32
M73 Q10 S33
;LAYER_CHANGE
;Z:1.3
;HEIGHT:0.0999999
;BEFORE_LAYER_CHANGE
G92 E0.0
;1.3


G1 E-2 F2700
G1 Z1.3 F720
;AFTER_LAYER_CHANGE
;1.3
G1 Z1.3
G1 X84.406 Y103.19 F10800
G1 E2 F1200
M204 S600
;TYPE:Perimeter
;WIDTH:0.653652
G1 F1708.342
G1 X84.406 Y102.558 E.01894
G1 X164.039 Y102.558 E2.38606
G1 X164.039 Y103.19 E.01894
G1 X84.466 Y103.19 E2.38426
M204 S1000
G1 X83.876 Y103.72 F10800
M204 S600
;WIDTH:0.449999
G1 F2520.191
G1 X83.876 Y102.027 E.03439
G1 X164.569 Y102.027 E1.63895
G1 X164.569 Y103.72 E.03439
G1 X83.936 Y103.72 E1.63773
M204 S1000
G1 X83.447 Y104.149 F10800
M204 S600
;TYPE:External perimeter
G1 F1500
G1 X83.447 Y101.599 E.05179
G1 X164.997 Y101.599 E1.65635
G1 X164.997 Y104.149 E.05179
G1 X83.507 Y104.149 E1.65514
M204 S1000
G1 X83.448 Y103.753 F10800
;LAYER_CHANGE
;Z:1.4
;HEIGHT:0.1
;BEFORE_LAYER_CHANGE
G92 E0.0
;1.4


G1 E-2 F2700
G1 Z1.4 F720
;AFTER_LAYER_CHANGE
;1.4
G1 Z1.4
G1 X84.406 Y103.19 F10800
G1 E2 F1200
M204 S600
;TYPE:Perimeter
;WIDTH:0.653652
G1 F1708.342
G1 X84.406 Y102.558 E.01894
G1 X164.039 Y102.558 E2.38606
G1 X164.039 Y103.19 E.01894
M73 P11 R32
M73 Q10 S32
G1 X84.466 Y103.19 E2.38426
M204 S1000
G1 X83.876 Y103.72 F10800
M73 Q11 S32
M204 S600
;WIDTH:0.449999
G1 F2520.191
G1 X83.876 Y102.027 E.03439
G1 X164.569 Y102.027 E1.63895
G1 X164.569 Y103.72 E.03439
G1 X83.936 Y103.72 E1.63773
M204 S1000
G1 X83.447 Y104.149 F10800
M204 S600
;TYPE:External perimeter
G1 F1500
G1 X83.447 Y101.599 E.05179
G1 X164.997 Y101.599 E1.65635
G1 X164.997 Y104.149 E.05179
G1 X83.507 Y104.149 E1.65514
M204 S1000
G1 X83.448 Y103.753 F10800
;LAYER_CHANGE
;Z:1.5
;HEIGHT:0.1
;BEFORE_LAYER_CHANGE
G92 E0.0
;1.5


G1 E-2 F2700
G1 Z1.5 F720
;AFTER_LAYER_CHANGE
;1.5
G1 Z1.5
G1 X84.406 Y103.19 F10800
G1 E2 F1200
M204 S600
;TYPE:Perimeter
;WIDTH:0.653652
G1 F1708.342
G1 X84.406 Y102.558 E.01894
G1 X164.039 Y102.558 E2.38606
G1 X164.039 Y103.19 E.01894
G1 X84.466 Y103.19 E2.38426
M204 S1000
G1 X83.876 Y103.72 F10800
M204 S600
;WIDTH:0.449999
G1 F2520.191
G1 X83.876 Y102.027 E.03439
G1 X164.569 Y102.027 E1.63895
G1 X164.569 Y103.72 E.03439
G1 X83.936 Y103.72 E1.63773
M73 P12 R32
M204 S1000
G1 X83.447 Y104.149 F10800
M73 Q12 S32
M204 S600
;TYPE:External perimeter
G1 F1500
G1 X83.447 Y101.599 E.05179
G1 X164.997 Y101.599 E1.65635
G1 X164.997 Y104.149 E.05179
G1 X83.507 Y104.149 E1.65514
M204 S1000
G1 X83.448 Y103.753 F10800
;LAYER_CHANGE
;Z:1.6
;HEIGHT:0.1
;BEFORE_LAYER_CHANGE
G92 E0.0
;1.6


G1 E-2 F2700
G1 Z1.6 F720
;AFTER_LAYER_CHANGE
;1.6
G1 Z1.6
G1 X91.994 Y103.19 F10800
G1 E2 F1200
M204 S600
;TYPE:Perimeter
;WIDTH:0.653652
G1 F1708.342
G1 X91.994 Y102.558 E.01894
G1 X164.039 Y102.558 E2.1587
G1 X164.039 Y103.19 E.01894
G1 X92.054 Y103.19 E2.1569
M204 S1000
G1 X91.463 Y103.72 F10800
M204 S600
;WIDTH:0.449999
G1 F2520.191
G1 X91.463 Y102.027 E.03439
G1 X164.569 Y102.027 E1.48485
G1 X164.569 Y103.72 E.03439
G1 X91.523 Y103.72 E1.48363
M204 S1000
G1 X91.035 Y104.149 F10800
M73 P12 R31
M204 S600
;TYPE:External perimeter
G1 F1500
G1 X91.035 Y101.599 E.05179
G1 X164.997 Y101.599 E1.50223
G1 X164.997 Y104.149 E.05179
G1 X91.095 Y104.149 E1.50102
M204 S1000
G1 X91.036 Y103.753 F10800
M73 P13 R31
M73 Q13 S32
G1 X88.451 Y103.19
M204 S600
;TYPE:Perimeter
;WIDTH:0.653652
G1 F1500
G1 X84.406 Y103.19 E.1212
G1 X84.406 Y102.558 E.01894
G1 X88.451 Y102.558 E.1212
G1 X88.451 Y103.13 E.01714
M204 S1000
G1 X88.981 Y103.72 F10800
M204 S600
;WIDTH:0.449999
G1 F1500
G1 X83.876 Y103.72 E.10369
G1 X83.876 Y102.027 E.03439
