; generated by PrusaSlicer 2.9.2 on 2026-01-14 at 16:36:19 UTC


;
;
; 

; external perimeters extrusion width = 0.45mm
; perimeters extrusion width = 0.45mm
; infill extrusion width = 0.45mm
; solid infill extrusion width = 0.45mm
; top infill extrusion width = 0.40mm
; first layer extrusion width = 0.42mm

M73 P0 R35
M73 Q0 S36
M201 X1000 Y1000 Z200 E5000 ; sets maximum accelerations, mm/sec^2
M203 X200 Y200 Z12 E120 ; sets maximum feedrates, mm / sec
M204 S1250 T1250 ; sets acceleration (S) and retract acceleration (R), mm/sec^2
M205 X8.00 Y8.00 Z0.40 E4.50 ; sets the jerk limits, mm/sec
M205 S0 T0 ; sets the minimum extruding and travel feed rate, mm/sec

; printing object channel_Testing.STL id:0 copy 0
; stop printing object channel_Testing.STL id:0 copy 0

;TYPE:Custom
M862.3 P "MK3S" ; printer model check
M862.1 P0.4 ; nozzle diameter check
M115 U3.14.1 ; tell printer latest fw version
G90 ; use absolute coordinates
M83 ; extruder relative mode
M104 S235 ; set extruder temp
M140 S50 ; set bed temp
M190 S50 ; wait for bed temp
M109 S235 ; wait for extruder temp
G28 W ; home all without mesh bed level
G80 X114.859 Y60.2151 W16.7542 H86.7542 ; mesh bed levelling

G1 Z0.2 F720
G1 Y-3 F1000 ; go outside print area
G92 E0
G1 X60 E9 F1000 ; intro line
G1 X100 E12.5 F1000 ; intro line

G92 E0
M221 S95

; Don't change E values below. Excessive value can damage the printer.
M907 E430 ; set extruder motor current
G21 ; set units to millimeters
G90 ; use absolute coordinates
M83 ; use relative distances for extrusion
M900 K0 ; Filament gcode
M107
;LAYER_CHANGE
;Z:0.2
;HEIGHT:0.2
G1 E-2 F2700
G1 Z.2 F720
G1 X115.438 Y61.344 F10800
G1 Z.2 F720
G1 E2 F1200
M204 S800
;TYPE:Skirt/Brim
;WIDTH:0.42
G1 X116.471 Y60.542 E.04675
G1 X117.236 Y60.404 E.02779
G1 X129.236 Y60.404 E.42893
G1 X130.484 Y60.795 E.04675
G1 X131.287 Y61.828 E.04677
G1 X131.425 Y62.592 E.02775
G1 X131.425 Y144.592 E2.931
G1 X131.034 Y145.84 E.04675
G1 X130.001 Y146.643 E.04677
G1 X129.236 Y146.781 E.02779
G1 X117.236 Y146.781 E.42893
G1 X115.988 Y146.39 E.04675
G1 X115.185 Y145.357 E.04677
G1 X115.047 Y144.592 E.02779
G1 X115.047 Y62.592 E2.931
G1 X115.42 Y61.401 E.04461
M204 S1000
G1 E-2 F2700
; printing object channel_Testing.STL id:0 copy 0
G1 X119.347 Y101.113 F10800
G1 E2 F1200
M204 S800
;TYPE:Perimeter
;WIDTH:0.419999
G1 X119.564 Y100.632 E.01886
G1 X119.948 Y100.04 E.02522
G1 X120.427 Y99.521 E.02524
G1 X120.898 Y99.156 E.0213
G1 X121.424 Y98.855 E.02166
G1 X121.759 Y98.701 E.01318
G1 X122.281 Y98.541 E.01952
G1 X122.946 Y98.442 E.02403
G1 X123.676 Y98.454 E.0261
G1 X124.378 Y98.59 E.02556
G1 X125.038 Y98.84 E.02523
G1 X125.646 Y99.199 E.02524
G1 X126.185 Y99.655 E.02524
G1 X126.639 Y100.196 E.02524
G1 X126.995 Y100.805 E.02521
G1 X127.243 Y101.466 E.02523
G1 X127.375 Y102.155 E.02508
G1 X127.389 Y102.87 E.02556
G1 X127.283 Y103.563 E.02506
G1 X127.061 Y104.234 E.02526
G1 X126.729 Y104.856 E.0252
G1 X126.296 Y105.414 E.02525
G1 X125.775 Y105.891 E.02525
G1 X125.349 Y106.169 E.01818
G1 X124.813 Y106.435 E.02139
G1 X124.232 Y106.626 E.02186
G1 X123.708 Y106.729 E.01909
G1 X123.139 Y106.753 E.02036
G1 X122.543 Y106.691 E.02142
G1 X121.945 Y106.541 E.02204
G1 X121.374 Y106.302 E.02213
G1 X120.986 Y106.094 E.01574
G1 X120.547 Y105.769 E.01952
G1 X120.048 Y105.269 E.02525
G1 X119.642 Y104.692 E.02522
G1 X119.339 Y104.054 E.02525
;WIDTH:0.463881
G1 X119.254 Y103.833 E.00945
;WIDTH:0.507763
G1 F1161.682
G1 X119.169 Y103.612 E.01043
;WIDTH:0.551645
G1 F1061.477
G1 X119.084 Y103.391 E.01142
;WIDTH:0.592423
G1 F982.706
G1 X119.035 Y103.224 E.00907
G1 X119 Y102.678 E.0285
G1 X119.035 Y101.96 E.03744
G1 X119.078 Y101.867 E.00534
;WIDTH:0.549317
G1 F1066.357
G1 X119.12 Y101.774 E.0049
;WIDTH:0.506211
G1 F1165.574
G1 X119.163 Y101.681 E.0045
;WIDTH:0.463105
G1 F1200
G1 X119.206 Y101.588 E.00408
;WIDTH:0.419999
G1 X119.327 Y101.17 E.01555
M204 S1000
G1 X119.69 Y101.269 F10800
M204 S800
G1 F1200
G1 X119.908 Y100.788 E.01888
G1 X120.26 Y100.251 E.02295
M73 Q0 S35
G1 X120.699 Y99.782 E.02296
G1 X121.122 Y99.459 E.01902
G1 X121.594 Y99.191 E.0194
G1 X121.869 Y99.061 E.01087
G1 X122.392 Y98.901 E.01955
G1 X122.994 Y98.816 E.02173
G1 X123.664 Y98.831 E.02395
G1 X124.299 Y98.958 E.02315
G1 X124.898 Y99.19 E.02296
G1 X125.449 Y99.52 E.02296
G1 X125.936 Y99.938 E.02294
G1 X126.346 Y100.433 E.02297
G1 X126.666 Y100.989 E.02293
G1 X126.888 Y101.592 E.02297
G1 X127.003 Y102.219 E.02279
G1 X127.012 Y102.87 E.02327
G1 X126.912 Y103.5 E.0228
G1 X126.706 Y104.108 E.02295
G1 X126.399 Y104.672 E.02295
G1 X126.002 Y105.177 E.02296
G1 X125.526 Y105.608 E.02295
G1 X124.983 Y105.951 E.02296
G1 X124.39 Y106.198 E.02296
G1 X123.764 Y106.341 E.02295
G1 X123.123 Y106.377 E.02295
G1 X122.591 Y106.317 E.01914
G1 X122.055 Y106.18 E.01977
G1 X121.54 Y105.963 E.01998
G1 X121.21 Y105.791 E.0133
G1 X120.771 Y105.466 E.01952
G1 X120.321 Y105.008 E.02295
G1 X119.954 Y104.48 E.02298
G1 X119.682 Y103.899 E.02293
G1 X119.513 Y103.279 E.02297
G1 X119.45 Y102.64 E.02295
G1 X119.497 Y102 E.02294
G1 X119.571 Y101.683 E.01164
G1 X119.671 Y101.325 E.01329
M204 S1000
G1 X120.034 Y101.424 F10800
M204 S800
;TYPE:External perimeter
G1 F1200
G1 X120.251 Y100.943 E.01886
G1 X120.573 Y100.462 E.02069
G1 X120.971 Y100.043 E.02066
G1 X121.434 Y99.697 E.02066
G1 X121.95 Y99.434 E.0207
G1 X122.502 Y99.262 E.02067
G1 X123.042 Y99.19 E.01947
G1 X123.651 Y99.208 E.02178
G1 X124.219 Y99.327 E.02074
G1 X124.757 Y99.54 E.02068
G1 X125.251 Y99.841 E.02068
G1 X125.687 Y100.221 E.02067
G1 X126.052 Y100.669 E.02066
G1 X126.337 Y101.173 E.0207
G1 X126.532 Y101.717 E.02066
G1 X126.632 Y102.283 E.02054
G1 X126.635 Y102.87 E.02098
G1 X126.54 Y103.436 E.02051
G1 X126.35 Y103.982 E.02066
G1 X126.07 Y104.489 E.0207
G1 X125.709 Y104.94 E.02065
G1 X125.277 Y105.324 E.02066
G1 X124.786 Y105.63 E.02068
G1 X124.25 Y105.848 E.02068
G1 X123.685 Y105.973 E.02068
G1 X123.107 Y106 E.02068
G1 X122.533 Y105.929 E.02067
G1 X122.012 Y105.772 E.01945
G1 X121.463 Y105.505 E.02182
G1 X120.995 Y105.163 E.02072
G1 X120.593 Y104.747 E.02068
G1 X120.267 Y104.269 E.02068
G1 X120.026 Y103.743 E.02068
G1 X119.878 Y103.184 E.02067
G1 X119.826 Y102.608 E.02067
G1 X119.872 Y102.032 E.02065
G1 X119.935 Y101.778 E.00935
G1 X120.015 Y101.481 E.01099
M204 S1000
G1 X120.175 Y101.114 F10800
G1 E-2 F2700
G1 X126.885 Y111.592 F10800
G1 E2 F1200
M73 P1 R35
M73 Q1 S35
M204 S800
;TYPE:Perimeter
G1 X126.89 Y111.827 E.0084
G1 X126.8 Y112.437 E.02204
G1 X126.605 Y113.028 E.02224
G1 X126.314 Y113.576 E.02218
G1 X125.935 Y114.068 E.0222
G1 X125.478 Y114.489 E.02221
G1 X125.052 Y114.767 E.01818
G1 X124.588 Y114.988 E.01837
G1 X124.085 Y115.148 E.01887
G1 X123.54 Y115.238 E.01974
G1 X123.001 Y115.247 E.01927
G1 X122.447 Y115.171 E.01999
G1 X121.945 Y115.02 E.01874
G1 X121.384 Y114.752 E.02222
G1 X120.877 Y114.394 E.02218
G1 X120.437 Y113.955 E.02222
G1 X120.078 Y113.448 E.02221
G1 X119.81 Y112.887 E.02222
G1 X119.641 Y112.29 E.02218
G1 X119.574 Y111.672 E.02222
G1 X119.614 Y111.052 E.02221
G1 X119.757 Y110.448 E.02219
G1 X120 Y109.876 E.02221
G1 X120.337 Y109.354 E.02221
G1 X120.757 Y108.896 E.02221
G1 X121.248 Y108.516 E.02219
G1 X121.797 Y108.225 E.02221
G1 X122.281 Y108.062 E.01825
G1 X122.97 Y107.941 E.025
G1 X123.612 Y107.95 E.02295
G1 X124.232 Y108.068 E.02256
G1 X124.813 Y108.287 E.02219
G1 X125.349 Y108.601 E.0222
G1 X125.824 Y109.001 E.0222
G1 X126.225 Y109.476 E.02222
G1 X126.54 Y110.011 E.02219
G1 X126.759 Y110.592 E.02219
G1 X126.877 Y111.198 E.02207
G1 X126.884 Y111.532 E.01194
M204 S1000
G1 X126.51 Y111.592 F10800
M204 S800
G1 F1200
G1 X126.513 Y111.827 E.0084
G1 X126.428 Y112.374 E.01979
G1 X126.25 Y112.902 E.01992
G1 X125.985 Y113.392 E.01991
G1 X125.641 Y113.831 E.01994
G1 X125.228 Y114.206 E.01994
G1 X124.758 Y114.505 E.01991
G1 X124.244 Y114.72 E.01991
G1 X123.701 Y114.845 E.01992
G1 X123.145 Y114.877 E.01991
G1 X122.591 Y114.814 E.01993
G1 X122.055 Y114.659 E.01994
G1 X121.554 Y114.415 E.01992
G1 X121.101 Y114.091 E.01991
G1 X120.71 Y113.694 E.01992
G1 X120.391 Y113.237 E.01992
G1 X120.154 Y112.732 E.01994
G1 X120.006 Y112.195 E.01991
G1 X119.95 Y111.64 E.01994
G1 X119.989 Y111.084 E.01992
G1 X120.122 Y110.543 E.01991
G1 X120.344 Y110.032 E.01991
G1 X120.649 Y109.565 E.01994
G1 X121.029 Y109.157 E.01993
G1 X121.472 Y108.819 E.01992
G1 X121.966 Y108.561 E.01992
G1 X122.497 Y108.39 E.01994
G1 X123.018 Y108.315 E.01881
G1 X123.6 Y108.327 E.02081
G1 X124.152 Y108.436 E.02011
G1 X124.672 Y108.637 E.01993
G1 X125.151 Y108.922 E.01992
G1 X125.575 Y109.284 E.01993
G1 X125.932 Y109.713 E.01995
G1 X126.21 Y110.195 E.01989
G1 X126.404 Y110.718 E.01994
G1 X126.505 Y111.262 E.01978
G1 X126.509 Y111.532 E.00965
M204 S1000
G1 X126.135 Y111.592 F10800
M204 S800
;TYPE:External perimeter
G1 F1200
G1 X126.134 Y111.859 E.00954
G1 X126.048 Y112.341 E.0175
G1 X125.881 Y112.805 E.01763
G1 X125.638 Y113.235 E.01765
G1 X125.326 Y113.617 E.01763
G1 X124.954 Y113.941 E.01763
G1 X124.532 Y114.198 E.01766
G1 X123.927 Y114.411 E.02293
G1 X123.508 Y114.484 E.0152
G1 X123.09 Y114.498 E.01495
G1 X122.607 Y114.434 E.01742
G1 X121.986 Y114.211 E.02358
G1 X121.724 Y114.079 E.01049
G1 X121.301 Y113.766 E.01881
G1 X120.962 Y113.408 E.01762
G1 X120.688 Y112.998 E.01763
G1 X120.487 Y112.547 E.01765
G1 X120.365 Y112.068 E.01767
G1 X120.326 Y111.576 E.01764
G1 X120.37 Y111.085 E.01762
G1 X120.497 Y110.608 E.01764
G1 X120.703 Y110.159 E.01766
G1 X120.982 Y109.752 E.01764
G1 X121.438 Y109.314 E.0226
G1 X121.724 Y109.106 E.01264
G1 X122.166 Y108.886 E.01765
G1 X122.639 Y108.744 E.01765
G1 X123.122 Y108.689 E.01738
G1 X123.621 Y108.708 E.01785
G1 X124.25 Y108.873 E.02324
G1 X124.56 Y109.001 E.01199
G1 X124.979 Y109.262 E.01764
G1 X125.348 Y109.59 E.01765
G1 X125.656 Y109.976 E.01765
G1 X125.894 Y110.408 E.01763
G1 X126.056 Y110.874 E.01763
G1 X126.136 Y111.357 E.0175
G1 X126.135 Y111.532 E.00626
M204 S1000
G1 X126.114 Y111.932 F10800
G1 E-2 F2700
G1 X126.387 Y119.592 F10800
G1 E2 F1200
M204 S800
;TYPE:Perimeter
G1 X126.379 Y119.944 E.01259
G1 X126.275 Y120.466 E.01902
G1 X126.084 Y120.967 E.01916
G1 X125.811 Y121.429 E.01918
G1 X125.463 Y121.838 E.01919
G1 X125.052 Y122.182 E.01916
G1 X124.588 Y122.451 E.01917
G1 X124.085 Y122.639 E.01919
G1 X123.581 Y122.737 E.01835
G1 X123.022 Y122.748 E.01998
G1 X122.492 Y122.666 E.01917
G1 X122.006 Y122.507 E.01828
G1 X121.51 Y122.242 E.0201
G1 X121.087 Y121.913 E.01915
G1 X120.726 Y121.516 E.01918
G1 X120.437 Y121.064 E.01918
G1 X120.228 Y120.57 E.01917
G1 X120.106 Y120.048 E.01916
G1 X120.074 Y119.512 E.01919
G1 X120.133 Y118.979 E.01917
G1 X120.282 Y118.464 E.01916
G1 X120.515 Y117.981 E.01917
G1 X120.826 Y117.544 E.01917
G1 X121.207 Y117.166 E.01918
G1 X121.646 Y116.858 E.01917
G1 X122.131 Y116.629 E.01917
G1 X122.648 Y116.485 E.01918
G1 X123.168 Y116.434 E.01868
G1 X123.717 Y116.466 E.01966
G1 X124.238 Y116.593 E.01917
G1 X124.731 Y116.805 E.01918
G1 X125.164 Y117.084 E.01841
G1 X125.574 Y117.462 E.01993
G1 X125.9 Y117.888 E.01917
G1 X126.15 Y118.363 E.01919
G1 X126.316 Y118.873 E.01917
G1 X126.392 Y119.4 E.01903
G1 X126.389 Y119.532 E.00472
M204 S1000
G1 X126.012 Y119.592 F10800
M204 S800
G1 F1200
G1 X126.007 Y119.881 E.01033
G1 X125.92 Y120.341 E.01673
G1 X125.755 Y120.783 E.01686
G1 X125.517 Y121.192 E.01691
G1 X125.214 Y121.554 E.01687
G1 X124.854 Y121.861 E.01691
G1 X124.447 Y122.101 E.01689
G1 X123.86 Y122.302 E.02218
G1 X123.457 Y122.365 E.01458
G1 X122.929 Y122.355 E.01888
G1 X122.602 Y122.305 E.01182
G1 X122.153 Y122.159 E.01688
G1 X121.735 Y121.939 E.01688
G1 X121.359 Y121.652 E.01691
G1 X121.038 Y121.305 E.0169
G1 X120.781 Y120.909 E.01687
G1 X120.593 Y120.475 E.01691
G1 X120.482 Y120.016 E.01688
G1 X120.45 Y119.544 E.01691
G1 X120.498 Y119.074 E.01689
G1 X120.625 Y118.619 E.01689
G1 X120.827 Y118.192 E.01688
G1 X121.099 Y117.805 E.01691
G1 X121.472 Y117.439 E.01868
G1 X121.966 Y117.119 E.02104
G1 X122.497 Y116.911 E.02038
G1 X123.042 Y116.815 E.01978
G1 X123.565 Y116.824 E.0187
G1 X124.055 Y116.927 E.0179
G1 X124.533 Y117.126 E.01851
G1 X125.025 Y117.463 E.02132
G1 X125.28 Y117.699 E.01242
G1 X125.571 Y118.072 E.01691
G1 X125.794 Y118.488 E.01687
G1 X125.944 Y118.937 E.01692
G1 X126.015 Y119.4 E.01674
G1 X126.013 Y119.532 E.00472
M204 S1000
G1 X125.637 Y119.592 F10800
M204 S800
;TYPE:External perimeter
G1 F1200
G1 X125.635 Y119.817 E.00804
G1 X125.564 Y120.215 E.01445
G1 X125.426 Y120.6 E.01462
G1 X125.224 Y120.955 E.0146
G1 X124.965 Y121.271 E.0146
G1 X124.656 Y121.539 E.01462
G1 X124.307 Y121.751 E.0146
G1 X123.78 Y121.933 E.01993
G1 X123.441 Y121.988 E.01228
G1 X122.977 Y121.981 E.01659
G1 X122.713 Y121.945 E.00952
G1 X122.323 Y121.823 E.01461
G1 X121.959 Y121.636 E.01463
G1 X121.632 Y121.391 E.0146
G1 X121.351 Y121.094 E.01461
G1 X121.124 Y120.754 E.01461
G1 X120.958 Y120.38 E.01463
G1 X120.858 Y119.984 E.0146
G1 X120.826 Y119.576 E.01463
G1 X120.863 Y119.169 E.01461
G1 X120.969 Y118.774 E.01462
G1 X121.14 Y118.403 E.0146
G1 X121.371 Y118.066 E.0146
G1 X121.697 Y117.742 E.01643
G1 X122.136 Y117.456 E.01873
G1 X122.607 Y117.272 E.01807
G1 X123.119 Y117.187 E.01855
G1 X123.622 Y117.217 E.01801
G1 X124.103 Y117.351 E.01785
G1 X124.56 Y117.586 E.01837
G1 X124.965 Y117.913 E.01861
G1 X125.242 Y118.256 E.01576
G1 X125.439 Y118.614 E.01461
G1 X125.572 Y119 E.01459
G1 X125.638 Y119.4 E.01449
G1 X125.637 Y119.532 E.00472
M204 S1000
G1 X125.609 Y119.931 F10800
G1 E-2 F2700
G1 X125.885 Y126.592 F10800
G1 E2 F1200
M204 S800
;TYPE:Perimeter
G1 X125.891 Y126.664 E.00258
G1 X125.863 Y126.981 E.01137
G1 X125.718 Y127.54 E.02064
G1 X125.586 Y127.83 E.01139
G1 X125.26 Y128.312 E.0208
G1 X125.04 Y128.542 E.01138
G1 X124.572 Y128.888 E.0208
G1 X124.287 Y129.031 E.0114
G1 X123.731 Y129.202 E.02079
G1 X123.415 Y129.242 E.01139
G1 X122.833 Y129.218 E.02082
G1 X122.522 Y129.151 E.01137
G1 X121.982 Y128.934 E.0208
G1 X121.71 Y128.766 E.01143
G1 X121.273 Y128.382 E.02079
G1 X121.073 Y128.134 E.01139
G1 X120.789 Y127.626 E.0208
G1 X120.626 Y127.121 E.01897
G1 X120.596 Y126.301 E.02933
G1 X120.65 Y125.987 E.01139
G1 X120.844 Y125.438 E.02081
G1 X120.999 Y125.16 E.01138
G1 X121.365 Y124.707 E.02082
G1 X121.604 Y124.497 E.01137
G1 X122.1 Y124.191 E.02083
G1 X122.435 Y124.064 E.01281
G1 X122.935 Y123.954 E.0183
G1 X123.482 Y123.942 E.01956
G1 X124.022 Y124.046 E.01966
G1 X124.51 Y124.278 E.01931
G1 X124.872 Y124.491 E.01501
G1 X125.344 Y124.976 E.02419
G1 X125.522 Y125.24 E.01138
G1 X125.762 Y125.77 E.0208
G1 X125.842 Y126.08 E.01144
G1 X125.88 Y126.532 E.01621
M204 S1000
G1 X125.502 Y126.591 F10800
M204 S800
G1 F1200
G1 X125.515 Y126.696 E.00378
G1 X125.499 Y126.885 E.00678
G1 X125.353 Y127.444 E.02065
G1 X124.948 Y128.101 E.02759
G1 X124.455 Y128.506 E.02281
G1 X124.177 Y128.671 E.01156
G1 X123.62 Y128.841 E.02082
G1 X123.242 Y128.858 E.01352
G1 X122.719 Y128.82 E.01874
G1 X122.122 Y128.584 E.02295
G1 X121.715 Y128.269 E.0184
G1 X121.402 Y127.95 E.01597
G1 X121.118 Y127.442 E.0208
G1 X120.981 Y126.981 E.01719
G1 X120.973 Y126.301 E.02431
G1 X121.199 Y125.564 E.02755
G1 X121.658 Y124.944 E.02757
G1 X121.933 Y124.737 E.0123
G1 X122.369 Y124.475 E.01818
G1 X123.016 Y124.322 E.02376
G1 X123.574 Y124.331 E.01995
G1 X124.004 Y124.445 E.0159
G1 X124.515 Y124.702 E.02045
G1 X124.766 Y124.918 E.01184
G1 X125.178 Y125.395 E.02253
G1 X125.418 Y125.925 E.0208
G1 X125.494 Y126.532 E.02187
M204 S1000
G1 X125.126 Y126.592 F10800
M204 S800
;TYPE:External perimeter
G1 F1200
G1 X125.139 Y126.727 E.00485
G1 X124.988 Y127.349 E.02288
G1 X124.636 Y127.89 E.02307
G1 X124.231 Y128.203 E.0183
G1 X124.067 Y128.31 E.007
G1 X123.51 Y128.481 E.02083
G1 X122.882 Y128.465 E.02245
G1 X122.263 Y128.234 E.02362
G1 X121.731 Y127.766 E.02533
G1 X121.448 Y127.258 E.02079
G1 X121.35 Y126.883 E.01385
G1 X121.35 Y126.301 E.0208
G1 X121.555 Y125.689 E.02307
G1 X121.951 Y125.181 E.02302
G1 X122.452 Y124.86 E.02127
G1 X123.097 Y124.691 E.02383
G1 X123.558 Y124.713 E.0165
G1 X123.834 Y124.782 E.01017
G1 X124.345 Y125.039 E.02045
G1 X124.799 Y125.497 E.02305
G1 X125.075 Y126.081 E.02309
G1 X125.12 Y126.532 E.0162
M204 S1000
G1 X125.082 Y126.931 F10800
G1 E-2 F2700
G1 X122.432 Y134.598 F10800
