; generated by PrusaSlicer 2.9.2 on 2026-01-14 at 16:43:22 UTC


;
;
; 

; external perimeters extrusion width = 0.65mm
; perimeters extrusion width = 0.65mm
; infill extrusion width = 0.65mm
; solid infill extrusion width = 0.65mm
; top infill extrusion width = 0.60mm
; first layer extrusion width = 0.65mm

; external perimeters extrusion width = 0.65mm
; perimeters extrusion width = 0.65mm
; infill extrusion width = 0.65mm
; solid infill extrusion width = 0.65mm
; top infill extrusion width = 0.60mm
; first layer extrusion width = 0.65mm

M73 P0 R24
M73 Q0 S25
M201 X1000 Y1000 Z200 E5000 ; sets maximum accelerations, mm/sec^2
M203 X200 Y200 Z12 E120 ; sets maximum feedrates, mm / sec
M204 S1250 T1250 ; sets acceleration (S) and retract acceleration (R), mm/sec^2
M205 X8.00 Y8.00 Z0.40 E4.50 ; sets the jerk limits, mm/sec
M205 S0 T0 ; sets the minimum extruding and travel feed rate, mm/sec

; printing object channel_Testing.STL id:0 copy 0
; stop printing object channel_Testing.STL id:0 copy 0
; printing object channel_Testing.STL id:1 copy 0
; stop printing object channel_Testing.STL id:1 copy 0

;TYPE:Custom
M862.3 P "MK3S" ; printer model check
M862.1 P0.6 ; nozzle diameter check
M115 U3.14.1 ; tell printer latest fw version
G90 ; use absolute coordinates
M83 ; extruder relative mode
M104 S205 ; set extruder temp
M140 S60 ; set bed temp
M190 S60 ; wait for bed temp
M109 S205 ; wait for extruder temp
G28 W ; home all without mesh bed level
G80 X76.2678 Y80.2137 W97.2664 H43.2937 ; mesh bed levelling

G1 Z0.2 F720
G1 Y-3 F1000 ; go outside print area
G92 E0
G1 X60 E9 F1000 ; intro line
G1 X100 E12.5 F1000 ; intro line

G92 E0
M221 S95
G21 ; set units to millimeters
G90 ; use absolute coordinates
M83 ; use relative distances for extrusion

M900 K0.04 ; Filament gcode LA 1.5
M900 K18 ; Filament gcode LA 1.0




M107
;LAYER_CHANGE
;Z:0.2
;HEIGHT:0.2
G1 E-.8 F2100
M73 Q0 S24
G1 Z.6 F720
G1 X80.486 Y81.271 F10800
G1 Z.2 F720
G1 E.8 F1500
M204 S800
;TYPE:Skirt/Brim
;WIDTH:0.65
G1 F1200
G1 X82.094 Y80.596 E.08803
G1 X91.083 Y80.517 E.45377
G1 X167.942 Y80.596 E3.87976
G1 X169.568 Y81.271 E.08887
G1 X172.556 Y84.258 E.21327
G1 X173.231 Y85.887 E.08901
G1 X173.23 Y101.748 E.80065
G1 X172.978 Y117.949 E.81791
G1 X172.304 Y119.542 E.08731
G1 X169.316 Y122.529 E.21327
G1 X167.687 Y123.204 E.08901
G1 X81.862 Y123.204 E4.33235
G1 X80.234 Y122.529 E.08896
M73 P1 R24
M73 Q1 S24
G1 X77.246 Y119.542 E.21327
G1 X76.571 Y117.913 E.08901
G1 X76.571 Y111.065 E.34568
G1 X76.824 Y85.864 E1.27218
G1 X77.498 Y84.258 E.08792
G1 X80.422 Y81.334 E.20874
M204 S1000
;WIPE_START
G1 F8640
G1 X80.486 Y81.271 E-.02074
G1 X82.094 Y80.596 E-.40268
G1 X83.725 Y80.582 E-.37658
;WIPE_END
G1 Z.6 F720
G1 X83.604 Y108.547 F10800
G1 Z.2 F720
G1 E.8 F1500
M204 S800
G1 F1200
G1 X166.013 Y108.553 E4.15991
G1 X166.832 Y108.701 E.04201
G1 X167.646 Y109.012 E.04399
G1 X168.413 Y109.493 E.0457
G1 X169.232 Y110.299 E.058
G1 X169.718 Y111.044 E.0449
G1 X170.049 Y111.856 E.04426
G1 X170.218 Y112.724 E.04464
G1 X170.228 Y116.168 E.17385
G1 X170.082 Y117.03 E.04413
G1 X169.763 Y117.871 E.0454
G1 X169.123 Y118.833 E.05833
G1 X168.478 Y119.455 E.04523
G1 X167.731 Y119.945 E.0451
G1 X166.875 Y120.287 E.04653
G1 X165.994 Y120.449 E.04522
G1 X83.607 Y120.453 E4.1588
G1 X82.745 Y120.307 E.04413
M73 P2 R24
M73 Q2 S24
G1 X81.904 Y119.989 E.04539
G1 X80.943 Y119.349 E.05828
G1 X80.321 Y118.704 E.04523
G1 X79.83 Y117.957 E.04512
G1 X79.488 Y117.101 E.04653
G1 X79.326 Y116.22 E.04522
G1 X79.332 Y112.724 E.17647
G1 X79.501 Y111.856 E.04464
G1 X79.839 Y111.03 E.04505
G1 X80.383 Y110.22 E.04925
G1 X81.211 Y109.435 E.05759
G1 X81.807 Y109.062 E.03549
G1 X82.495 Y108.768 E.03777
G1 X83.516 Y108.565 E.05255
M204 S1000
G1 X83.634 Y109.154 F10800
M204 S800
G1 F1200
G1 X165.984 Y109.16 E4.15694
G1 X166.691 Y109.292 E.03631
G1 X167.396 Y109.566 E.03818
G1 X168.059 Y109.987 E.03964
G1 X168.779 Y110.704 E.05129
G1 X169.191 Y111.346 E.03851
G1 X169.474 Y112.053 E.03844
G1 X169.616 Y112.808 E.03878
G1 X169.621 Y116.141 E.16825
G1 X169.489 Y116.895 E.03864
G1 X169.209 Y117.621 E.03928
G1 X168.676 Y118.421 E.04853
G1 X168.117 Y118.966 E.03941
G1 X167.476 Y119.394 E.03891
G1 X166.68 Y119.712 E.04327
G1 X165.916 Y119.846 E.03915
G1 X83.634 Y119.846 E4.1535
G1 X82.881 Y119.715 E.03858
G1 X82.155 Y119.435 E.03928
G1 X81.354 Y118.902 E.04857
G1 X80.809 Y118.342 E.03945
G1 X80.382 Y117.701 E.03888
G1 X80.064 Y116.905 E.04327
G1 X79.929 Y116.142 E.03911
G1 X79.934 Y112.808 E.1683
G1 X80.076 Y112.053 E.03878
G1 X80.363 Y111.337 E.03894
G1 X80.829 Y110.633 E.04262
G1 X81.56 Y109.932 E.05112
G1 X82.108 Y109.59 E.03261
G1 X82.701 Y109.34 E.03249
G1 X83.546 Y109.172 E.04349
M204 S1000
G1 X83.664 Y109.761 F10800
M204 S800
G1 F1200
G1 X165.954 Y109.767 E4.15391
G1 X166.545 Y109.882 E.03039
M73 P3 R24
M73 Q3 S24
G1 X167.143 Y110.119 E.03247
G1 X167.7 Y110.478 E.03345
G1 X168.323 Y111.106 E.04465
G1 X168.661 Y111.643 E.03203
G1 X168.898 Y112.245 E.03266
G1 X169.014 Y112.888 E.03298
G1 X169.014 Y116.113 E.16279
G1 X168.898 Y116.755 E.03293
G1 X168.657 Y117.367 E.0332
G1 X168.227 Y118.011 E.03909
G1 X167.751 Y118.481 E.03377
M73 P3 R23
G1 X167.215 Y118.845 E.03271
G1 X166.538 Y119.121 E.03691
G1 X165.888 Y119.239 E.03335
G1 X83.662 Y119.239 E4.15068
G1 X83.02 Y119.123 E.03293
G1 X82.408 Y118.882 E.0332
G1 X81.764 Y118.453 E.03906
G1 X81.294 Y117.977 E.03377
G1 X80.931 Y117.441 E.03268
G1 X80.655 Y116.764 E.03691
G1 X80.536 Y116.113 E.03341
G1 X80.536 Y112.888 E.16279
G1 X80.652 Y112.245 E.03298
G1 X80.89 Y111.64 E.03282
G1 X81.278 Y111.043 E.03594
G1 X81.91 Y110.43 E.04444
G1 X82.905 Y109.912 E.05663
G1 X83.575 Y109.779 E.03448
M204 S1000
G1 X83.693 Y110.368 F10800
M204 S800
G1 F1200
G1 X165.922 Y110.374 E4.15083
G1 X166.886 Y110.67 E.0509
G1 X167.338 Y110.966 E.02727
G1 X167.865 Y111.506 E.03809
G1 X168.108 Y111.895 E.02315
G1 X168.307 Y112.39 E.02693
G1 X168.407 Y112.917 E.02708
G1 X168.407 Y116.083 E.15982
G1 X168.307 Y116.611 E.02713
G1 X168.106 Y117.11 E.02716
G1 X167.776 Y117.604 E.02999
G1 X166.95 Y118.298 E.05446
G1 X166.391 Y118.531 E.03057
G1 X165.858 Y118.632 E.02738
G1 X83.692 Y118.632 E4.14765
G1 X83.164 Y118.533 E.02712
G1 X82.665 Y118.332 E.02716
G1 X82.172 Y118.002 E.02995
G1 X81.477 Y117.175 E.05453
G1 X81.245 Y116.617 E.0305
G1 X81.143 Y116.083 E.02744
G1 X81.143 Y112.917 E.15982
G1 X81.243 Y112.39 E.02708
M73 P4 R23
G1 X81.442 Y111.894 E.02698
G1 X81.729 Y111.451 E.02664
G1 X82.264 Y110.923 E.03794
G1 X82.665 Y110.669 E.02396
G1 X83.11 Y110.485 E.02431
G1 X83.605 Y110.386 E.02548
M204 S1000
G1 X83.723 Y110.976 F10800
M204 S800
G1 F1200
G1 X165.887 Y110.981 E4.14755
G1 X166.624 Y111.218 E.03908
M73 Q4 S23
G1 X166.971 Y111.45 E.02107
G1 X167.404 Y111.901 E.03156
G1 X167.718 Y112.54 E.03594
G1 X167.8 Y112.949 E.02106
G1 X167.8 Y116.052 E.15664
G1 X167.557 Y116.849 E.04206
G1 X166.971 Y117.551 E.04616
G1 X166.238 Y117.943 E.04196
G1 X165.826 Y118.025 E.02121
G1 X83.723 Y118.025 E4.14447
G1 X82.926 Y117.783 E.04205
G1 X82.224 Y117.196 E.04619
G1 X81.833 Y116.464 E.04189
G1 X81.75 Y116.052 E.02122
G1 X81.75 Y112.949 E.15664
G1 X81.831 Y112.54 E.02105
G1 X82.182 Y111.855 E.03885
G1 X82.623 Y111.414 E.03148
G1 X83.315 Y111.057 E.03931
G1 X83.635 Y110.993 E.01647
M204 S1000
G1 X83.753 Y111.583 F10800
M204 S800
G1 F1200
G1 X165.852 Y111.588 E4.14427
G1 X166.561 Y111.899 E.03908
G1 X166.91 Y112.255 E.02517
G1 X167.146 Y112.745 E.02745
G1 X167.193 Y116.022 E.16544
G1 X166.876 Y116.787 E.0418
G1 X166.411 Y117.208 E.03166
G1 X165.797 Y117.418 E.03276
G1 X83.753 Y117.418 E4.14149
G1 X82.988 Y117.101 E.0418
M73 P5 R23
M73 Q5 S23
G1 X82.567 Y116.637 E.03163
G1 X82.357 Y116.022 E.0328
G1 X82.404 Y112.745 E.16544
G1 X82.64 Y112.255 E.02745
G1 X82.989 Y111.899 E.02517
G1 X83.67 Y111.617 E.03721
M204 S1000
G1 X83.783 Y112.19 F10800
M204 S800
G1 F1200
G1 X165.826 Y112.201 E4.14144
G1 X166.154 Y112.35 E.01819
G1 X166.425 Y112.622 E.01938
G1 X166.574 Y112.95 E.01819
G1 X166.586 Y115.992 E.15356
G1 X166.425 Y116.379 E.02116
G1 X166.104 Y116.684 E.02235
G1 X165.767 Y116.811 E.01818
G1 X83.783 Y116.811 E4.13846
G1 X83.396 Y116.651 E.02114
G1 X83.091 Y116.329 E.02239
G1 X82.964 Y115.992 E.01818
G1 X82.976 Y112.95 E.15356
G1 X83.124 Y112.622 E.01816
G1 X83.396 Y112.35 E.01942
G1 X83.7 Y112.224 E.01661
M204 S1000
G1 X83.873 Y112.797 F10800
M204 S800
G1 F1200
G1 X165.677 Y112.797 E4.12937
G1 X165.978 Y113.099 E.02152
M73 P6 R23
M73 Q6 S23
G1 X165.978 Y115.902 E.14149
G1 X165.677 Y116.204 E.02152
G1 X83.873 Y116.204 E4.12937
G1 X83.571 Y115.902 E.02156
G1 X83.571 Y113.099 E.14149
G1 X83.809 Y112.86 E.01703
M204 S1000
;WIPE_START
G1 F8640
G1 X83.873 Y112.797 E-.02074
G1 X87.248 Y112.797 E-.77926
;WIPE_END
G1 Z.6 F720
G1 X83.858 Y104.252 F10800
G1 Z.2 F720
G1 E.8 F1500
M204 S800
G1 F1200
G1 X82.996 Y104.106 E.04413
G1 X82.155 Y103.787 E.0454
G1 X81.158 Y103.113 E.06075
G1 X80.388 Y102.266 E.05778
G1 X79.795 Y101.078 E.06702
G1 X79.593 Y100.155 E.04769
G1 X79.574 Y87.632 E.63215
G1 X79.72 Y86.77 E.04413
G1 X80.04 Y85.927 E.04552
G1 X80.669 Y84.982 E.0573
G1 X81.511 Y84.197 E.05811
G1 X82.161 Y83.81 E.03819
G1 X83.408 Y83.396 E.06633
G1 X91.148 Y83.268 E.39076
G1 X92.657 Y83.337 E.07625
G1 X166.644 Y83.396 E3.73478
G1 X167.346 Y83.582 E.03666
G1 X167.99 Y83.857 E.03535
G1 X168.86 Y84.452 E.0532
G1 X169.402 Y84.999 E.03887
G1 X169.865 Y85.647 E.0402
G1 X170.235 Y86.457 E.04495
G1 X170.43 Y87.179 E.03775
G1 X170.429 Y100.422 E.66849
G1 X170.231 Y101.154 E.03828
G1 X169.883 Y101.922 E.04256
G1 X169.426 Y102.57 E.04003
G1 X168.856 Y103.151 E.04109
G1 X167.898 Y103.788 E.05807
G1 X167.057 Y104.106 E.04539
G1 X166.195 Y104.252 E.04413
G1 X93.555 Y104.253 E3.66679
G1 X90.937 Y104.331 E.13221
M73 P7 R22
M73 Q7 S23
G1 X88.938 Y104.254 E.10098
G1 X83.948 Y104.252 E.25189
M204 S1000
G1 X83.948 Y103.645 F10800
M204 S800
G1 F1200
G1 X83.885 Y103.645 E.00318
G1 X83.132 Y103.513 E.03859
G1 X82.406 Y103.233 E.03928
G1 X81.58 Y102.676 E.05029
G1 X80.894 Y101.93 E.05116
G1 X80.366 Y100.873 E.05964
G1 X80.193 Y100.061 E.04191
G1 X80.181 Y87.659 E.62604
G1 X80.313 Y86.905 E.03864
G1 X80.593 Y86.179 E.03928
G1 X81.151 Y85.352 E.05036
G1 X81.897 Y84.667 E.05112
G1 X82.937 Y84.145 E.05874
G1 X83.524 Y83.993 E.03061
G1 X91.132 Y83.875 E.38409
G1 X93.548 Y83.953 E.12202
G1 X166.529 Y83.993 E3.684
G1 X167.724 Y84.404 E.06379
G1 X168.449 Y84.9 E.04434
G1 X168.952 Y85.408 E.03609
G1 X169.352 Y85.972 E.0349
G1 X169.671 Y86.682 E.03929
G1 X169.833 Y87.295 E.03201
G1 X169.833 Y100.304 E.65668
G1 X169.667 Y100.927 E.03255
G1 X169.342 Y101.644 E.03974
G1 X168.947 Y102.196 E.03426
G1 X168.446 Y102.702 E.03594
G1 X167.648 Y103.234 E.04841
G1 X166.921 Y103.514 E.03933
G1 X166.168 Y103.645 E.03858
G1 X93.551 Y103.645 E3.66562
G1 X90.948 Y103.724 E.13146
G1 X88.95 Y103.647 E.10093
G1 X84.038 Y103.645 E.24795
M204 S1000
G1 X84.038 Y103.038 F10800
M204 S800
G1 F1200
G1 X83.913 Y103.038 E.00631
G1 X83.271 Y102.922 E.03293
G1 X82.66 Y102.681 E.03316
G1 X82 Y102.236 E.04018
G1 X81.398 Y101.59 E.04457
G1 X80.939 Y100.668 E.05199
G1 X80.794 Y99.969 E.03604
G1 X80.788 Y87.687 E.61998
G1 X80.905 Y87.044 E.03299
G1 X81.145 Y86.432 E.03318
G1 X81.59 Y85.772 E.04018
G1 X82.236 Y85.171 E.04454
G1 X83.149 Y84.715 E.05152
G1 X83.637 Y84.591 E.02542
G1 X91.117 Y84.482 E.37762
G1 X92.623 Y84.551 E.0761
G1 X166.417 Y84.591 E3.72504
G1 X167.458 Y84.95 E.05559
M73 P8 R22
M73 Q8 S23
G1 X168.04 Y85.349 E.03562
G1 X168.811 Y86.25 E.05986
G1 X169.106 Y86.906 E.03631
G1 X169.235 Y87.409 E.02621
G1 X169.235 Y100.19 E.64517
G1 X169.103 Y100.701 E.02664
G1 X168.803 Y101.364 E.03673
G1 X168.039 Y102.251 E.05909
G1 X167.394 Y102.681 E.03913
G1 X166.782 Y102.922 E.0332
G1 X166.14 Y103.038 E.03293
G1 X93.548 Y103.038 E3.66436
G1 X90.959 Y103.117 E.13075
M73 Q8 S22
G1 X88.961 Y103.04 E.10093
G1 X84.128 Y103.038 E.24396
M204 S1000
G1 X84.129 Y102.431 F10800
M204 S800
G1 F1200
G1 X83.943 Y102.431 E.00939
G1 X83.416 Y102.331 E.02708
G1 X82.917 Y102.13 E.02716
G1 X82.417 Y101.794 E.03041
G1 X81.9 Y101.247 E.03799
G1 X81.511 Y100.464 E.04413
G1 X81.395 Y99.881 E.03001
G1 X81.395 Y87.716 E.61408
G1 X81.495 Y87.189 E.02708
G1 X81.696 Y86.69 E.02716
G1 X82.032 Y86.189 E.03045
G1 X82.58 Y85.672 E.03803
G1 X83.359 Y85.285 E.04391
G1 X83.746 Y85.189 E.02013
G1 X91.102 Y85.089 E.37136
G1 X93.542 Y85.167 E.12323
G1 X166.307 Y85.189 E3.6731
G1 X167.192 Y85.497 E.0473
G1 X167.631 Y85.798 E.02687
G1 X168.297 Y86.575 E.05166
G1 X168.637 Y87.519 E.05065
G1 X168.637 Y100.08 E.63407
G1 X168.263 Y101.084 E.05408
G1 X167.63 Y101.801 E.04828
G1 X167.137 Y102.131 E.02995
G1 X166.638 Y102.332 E.02716
G1 X166.11 Y102.431 E.02712
G1 X93.544 Y102.431 E3.66305
M73 P9 R22
G1 X90.97 Y102.51 E.12999
M73 Q9 S22
G1 X88.973 Y102.433 E.10088
G1 X84.219 Y102.431 E.23998
M204 S1000
G1 X84.219 Y101.824 F10800
M204 S800
G1 F1200
G1 X83.975 Y101.824 E.01232
G1 X83.178 Y101.582 E.04205
G1 X82.831 Y101.349 E.0211
G1 X82.398 Y100.899 E.03152
G1 X82.084 Y100.26 E.03594
G1 X82.002 Y99.851 E.02106
G1 X82.002 Y87.748 E.61095
G1 X82.245 Y86.951 E.04206
G1 X82.477 Y86.603 E.02111
G1 X82.928 Y86.171 E.03153
G1 X83.851 Y85.788 E.05044
G1 X91.087 Y85.697 E.36529
G1 X92.589 Y85.765 E.0759
G1 X166.203 Y85.788 E3.71595
G1 X166.925 Y86.043 E.03865
G1 X167.578 Y86.604 E.04346
G1 X167.78 Y86.894 E.01784
G1 X168.039 Y87.624 E.0391
G1 X168.039 Y99.975 E.62346
G1 X167.751 Y100.756 E.04202
G1 X167.222 Y101.351 E.04019
G1 X166.876 Y101.582 E.021
G1 X166.079 Y101.824 E.04205
G1 X93.54 Y101.824 E3.66169
G1 X90.981 Y101.903 E.12924
G1 X88.985 Y101.826 E.10083
G1 X84.309 Y101.824 E.23604
M204 S1000
G1 X84.309 Y101.217 F10800
M204 S800
G1 F1200
G1 X84.005 Y101.217 E.01535
G1 X83.438 Y101.032 E.03011
G1 X82.892 Y100.544 E.03697
G1 X82.609 Y99.821 E.03919
G1 X82.609 Y87.777 E.60797
G1 X82.794 Y87.21 E.03011
M73 P10 R22
G1 X83.282 Y86.664 E.03697
G1 X83.949 Y86.388 E.03644
G1 X88.997 Y86.38 E.25482
G1 X91.072 Y86.304 E.10481
G1 X93.535 Y86.382 E.12439
G1 X166.105 Y86.388 E3.66325
G1 X166.814 Y86.699 E.03908
M73 Q10 S22
G1 X167.235 Y87.163 E.03163
G1 X167.439 Y87.722 E.03004
G1 X167.439 Y99.877 E.61357
G1 X167.235 Y100.436 E.03004
G1 X166.814 Y100.9 E.03163
G1 X166.049 Y101.217 E.0418
G1 X93.536 Y101.217 E3.66037
G1 X90.992 Y101.295 E.12848
G1 X88.997 Y101.219 E.10078
G1 X84.399 Y101.217 E.2321
M204 S1000
G1 X84.399 Y100.61 F10800
M204 S800
G1 F1200
G1 X84.035 Y100.61 E.01837
G1 X83.698 Y100.483 E.01818
G1 X83.377 Y100.178 E.02235
G1 X83.217 Y99.791 E.02114
G1 X83.217 Y87.807 E.60494
G1 X83.344 Y87.47 E.01818
G1 X83.648 Y87.149 E.02232
G1 X84.035 Y86.989 E.02114
G1 X89.009 Y86.987 E.25108
G1 X91.057 Y86.911 E.10345
G1 X92.556 Y86.979 E.07575
G1 X166.019 Y86.989 E3.70833
G1 X166.406 Y87.149 E.02114
G1 X166.711 Y87.47 E.02235
G1 X166.838 Y87.807 E.01818
G1 X166.838 Y99.791 E.60494
G1 X166.678 Y100.178 E.02114
G1 X166.356 Y100.483 E.02239
G1 X166.019 Y100.61 E.01818
G1 X93.533 Y100.61 E3.65901
G1 X91.003 Y100.688 E.12777
M73 P11 R21
M73 Q11 S22
G1 X89.008 Y100.612 E.10078
G1 X84.489 Y100.61 E.22811
M204 S1000
G1 X84.501 Y99.965 F10800
M204 S800
G1 F1200
G1 X84.014 Y99.957 E.02459
G1 X83.824 Y99.701 E.01609
G1 X83.87 Y87.786 E.60146
G1 X84.125 Y87.596 E.01605
G1 X89.02 Y87.594 E.24709
G1 X91.042 Y87.518 E.10214
G1 X93.529 Y87.596 E.1256
G1 X165.929 Y87.596 E3.65467
G1 X166.231 Y87.898 E.02156
G1 X166.231 Y99.701 E.5958
G1 X165.929 Y100.003 E.02156
G1 X93.529 Y100.003 E3.65467
G1 X91.014 Y100.081 E.12702
G1 X84.591 Y99.967 E.32428
M204 S1000
;WIPE_START
G1 F8640
G1 X84.501 Y99.965 E-.02079
G1 X84.014 Y99.957 E-.11246
G1 X83.824 Y99.701 E-.07361
G1 X83.834 Y97.132 E-.59314
;WIPE_END
G1 Z.6 F720
; printing object channel_Testing.STL id:0 copy 0
G1 X164.611 Y114.836 F10800
G1 Z.2 F720
G1 E.8 F1500
M204 S800
;TYPE:Perimeter
;WIDTH:0.714381
G1 F1200
G1 X84.939 Y114.836 E4.44826
G1 X84.939 Y114.165 E.03746
M73 P12 R21
M73 Q12 S22
G1 X164.611 Y114.165 E4.44826
G1 X164.611 Y114.5 E.0187
M73 Q12 S21
G1 X164.611 Y114.746 E.01373
M204 S1000
G1 X165.25 Y115.475 F10800
M204 S800
;TYPE:External perimeter
;WIDTH:0.649999
G1 F1200
G1 X84.3 Y115.475 E4.08626
